;FLAVOR:Marlin
;TIME:1970
;Filament used: 3.62632m
;Layer height: 0.2
;MINX:84.917
;MINY:32.413
;MINZ:0.2
;MAXX:245.083
;MAXY:297.583
;MAXZ:2
;TARGET_MACHINE.NAME:ELEGOO NEPTUNE 4 Plus
;Generated with Cura_SteamEngine 5.7.2
M104 S210
M105
M109 S210
M82 ;absolute extrusion mode
;ELEGOO NEPTUNE 4 PLUS
M220 S100 ;Set the feed speed to 100%
M221 S100 ;Set the flow rate to 100%
M104 S140 ;Start heating extruder
M190 S60 ;Wait for the bed to reach print temp
G90
G28 ;home
G1 Z10 F300
G1 X115 Y0 F6000
G1 Z0 F300
M109 S210 ;Wait for extruder to reach print temp
G92 E0 ;Reset Extruder
G1 X115 Y0 Z0.4 F300 ;Move to start position
G1 X215 E30 F400 ;Draw the first line
G1 Z0.6 F120.0 ;Move to side a little
G1 X210 F3000
G92 E0 ;Reset Extruder
G92 E0
G92 E0
G1 F2700 E-0.5
;LAYER_COUNT:10
;LAYER:0
M107
M204 S500
G0 F7200 X85.331 Y39.2 Z0.2
;TYPE:SKIRT
G1 F2700 E0
G1 F3600 X86.732 Y36.443 E0.135
G1 X88.943 Y34.232 E0.2715
G1 X91.7 Y32.831 E0.4065
G1 X94.044 Y32.465 E0.51007
G1 X235.627 Y32.413 E6.69072
G1 X238.297 Y32.83 E6.80869
G1 X241.057 Y34.232 E6.94383
G1 X243.268 Y36.443 E7.08033
G1 X244.669 Y39.2 E7.21533
G1 X245.083 Y41.855 E7.33263
G1 X245.035 Y288.456 E18.09773
G1 X244.669 Y290.8 E18.2013
G1 X243.268 Y293.557 E18.3363
G1 X241.057 Y295.768 E18.4728
G1 X238.3 Y297.169 E18.6078
G1 X235.956 Y297.535 E18.71136
G1 X94.352 Y297.583 E24.89293
G1 X91.7 Y297.169 E25.01011
G1 X88.943 Y295.768 E25.14511
G1 X86.732 Y293.557 E25.28161
G1 X85.331 Y290.8 E25.41661
G1 X84.917 Y288.145 E25.53391
G1 X84.965 Y41.544 E36.29901
G1 X85.331 Y39.2 E36.40258
G0 F7200 X85.837 Y39.363
G1 F3600 X87.163 Y36.754 E36.53034
G1 X89.254 Y34.663 E36.65943
G1 X91.863 Y33.337 E36.78719
G1 X94.125 Y32.984 E36.88713
G1 X235.585 Y32.938 E43.06241
G1 X238.134 Y33.336 E43.17503
G1 X240.746 Y34.663 E43.30293
G1 X242.837 Y36.754 E43.43202
G1 X244.163 Y39.363 E43.55978
G1 X244.558 Y41.897 E43.67173
G1 X244.516 Y288.375 E54.43146
G1 X244.163 Y290.637 E54.53141
G1 X242.837 Y293.246 E54.65916
G1 X240.746 Y295.337 E54.78825
G1 X238.137 Y296.663 E54.91601
G1 X235.875 Y297.016 E55.01595
G1 X94.394 Y297.058 E61.19215
G1 X91.863 Y296.663 E61.30398
G1 X89.254 Y295.337 E61.43174
G1 X87.163 Y293.246 E61.56083
G1 X85.837 Y290.637 E61.68859
G1 X85.442 Y288.103 E61.80054
G1 X85.484 Y41.625 E72.56028
G1 X85.837 Y39.363 E72.66022
G0 F7200 X86.343 Y39.526
G1 F3600 X87.594 Y37.065 E72.78073
G1 X89.565 Y35.094 E72.90241
G1 X92.026 Y33.843 E73.02293
G1 X94.206 Y33.503 E73.11925
G1 X235.543 Y33.463 E79.28916
G1 X237.971 Y33.842 E79.39644
G1 X240.435 Y35.094 E79.51709
G1 X242.406 Y37.065 E79.63877
G1 X243.657 Y39.526 E79.75929
G1 X244.033 Y41.939 E79.86589
G1 X243.997 Y288.294 E90.62026
G1 X243.657 Y290.474 E90.71657
G1 X242.406 Y292.935 E90.83709
G1 X240.435 Y294.906 E90.95877
G1 X237.974 Y296.157 E91.07929
G1 X235.794 Y296.497 E91.1756
G1 X94.436 Y296.533 E97.34643
G1 X92.026 Y296.157 E97.45291
G1 X89.565 Y294.906 E97.57343
G1 X87.594 Y292.935 E97.69511
G1 X86.343 Y290.474 E97.81563
G1 X85.967 Y288.061 E97.92223
G1 X86.003 Y41.706 E108.6766
G1 X86.343 Y39.526 E108.77291
G0 F7200 X86.849 Y39.689
G1 F3600 X88.025 Y37.376 E108.88619
G1 X89.876 Y35.525 E109.00046
G1 X92.189 Y34.349 E109.11373
G1 X94.287 Y34.022 E109.20642
G1 X235.501 Y33.988 E115.37097
G1 X237.808 Y34.348 E115.4729
G1 X240.124 Y35.525 E115.58631
G1 X241.975 Y37.376 E115.70058
G1 X243.151 Y39.689 E115.81385
G1 X243.508 Y41.981 E115.91512
G1 X243.478 Y288.213 E126.66411
G1 X243.151 Y290.311 E126.7568
G1 X241.975 Y292.624 E126.87007
G1 X240.124 Y294.475 E126.98435
G1 X237.811 Y295.651 E127.09762
G1 X235.713 Y295.978 E127.19031
G1 X94.478 Y296.008 E133.35577
G1 X92.189 Y295.651 E133.45691
G1 X89.876 Y294.475 E133.57018
G1 X88.025 Y292.624 E133.68445
G1 X86.849 Y290.311 E133.79773
G1 X86.492 Y288.019 E133.89899
G1 X86.522 Y41.787 E144.64798
G1 X86.849 Y39.689 E144.74067
G0 F7200 X87.355 Y39.852
G1 F3600 X88.456 Y37.687 E144.8467
G1 X90.187 Y35.956 E144.95357
G1 X92.352 Y34.855 E145.0596
G1 X94.368 Y34.541 E145.14866
G1 X235.459 Y34.513 E151.30784
G1 X237.645 Y34.854 E151.40442
G1 X239.813 Y35.956 E151.51059
G1 X241.544 Y37.687 E151.61745
G1 X242.645 Y39.852 E151.72348
G1 X242.983 Y42.023 E151.8194
G1 X242.959 Y288.132 E162.56302
G1 X242.645 Y290.148 E162.65209
G1 X241.544 Y292.313 E162.75812
G1 X239.813 Y294.044 E162.86498
G1 X237.648 Y295.145 E162.97101
G1 X235.632 Y295.459 E163.06008
G1 X94.52 Y295.483 E169.22018
G1 X92.352 Y295.145 E169.31596
G1 X90.187 Y294.044 E169.42199
G1 X88.456 Y292.313 E169.52885
G1 X87.355 Y290.148 E169.63488
G1 X87.017 Y287.977 E169.7308
G1 X87.041 Y41.868 E180.47442
G1 X87.355 Y39.852 E180.56349
G0 F7200 X87.861 Y40.015
G1 F3600 X88.887 Y37.998 E180.66228
G1 X90.498 Y36.387 E180.76173
G1 X92.515 Y35.361 E180.86052
G1 X94.449 Y35.06 E180.94596
G1 X235.417 Y35.038 E187.09977
G1 X237.482 Y35.36 E187.19101
G1 X239.502 Y36.387 E187.28993
G1 X241.113 Y37.998 E187.38939
G1 X242.139 Y40.015 E187.48817
G1 X242.458 Y42.065 E187.57874
G1 X242.44 Y288.051 E198.317
G1 X242.139 Y289.985 E198.40244
G1 X241.113 Y292.002 E198.50123
G1 X239.502 Y293.613 E198.60068
G1 X237.485 Y294.639 E198.69947
G1 X235.551 Y294.94 E198.78491
G1 X94.562 Y294.958 E204.93964
G1 X92.515 Y294.639 E205.03007
G1 X90.498 Y293.613 E205.12886
G1 X88.887 Y292.002 E205.22832
G1 X87.861 Y289.985 E205.3271
G1 X87.542 Y287.935 E205.41767
G1 X87.56 Y41.949 E216.15593
G1 X87.861 Y40.015 E216.24137
G0 F7200 X88.367 Y40.178
G1 F3600 X89.318 Y38.309 E216.33291
G1 X90.809 Y36.818 E216.42496
G1 X92.678 Y35.867 E216.51651
G1 X94.53 Y35.579 E216.59832
G1 X235.375 Y35.563 E222.74676
G1 X237.319 Y35.866 E222.83265
G1 X239.191 Y36.818 E222.92433
G1 X240.682 Y38.309 E223.01638
G1 X241.633 Y40.178 E223.10792
G1 X241.933 Y42.107 E223.19314
G1 X241.921 Y287.97 E233.92603
G1 X241.633 Y289.822 E234.00785
G1 X240.682 Y291.691 E234.09939
G1 X239.191 Y293.182 E234.19144
G1 X237.322 Y294.133 E234.28298
G1 X235.47 Y294.421 E234.3648
G1 X94.562 Y294.433 E240.51599
G1 X92.68 Y294.134 E240.59918
G1 X90.809 Y293.182 E240.69082
G1 X89.318 Y291.691 E240.78287
G1 X88.367 Y289.822 E240.87441
G1 X88.067 Y287.893 E240.95963
G1 X88.079 Y42.03 E251.69252
G1 X88.367 Y40.178 E251.77434
G0 F7200 X88.872 Y40.343
G1 F3600 X89.749 Y38.62 E251.85873
G1 X91.12 Y37.249 E251.94337
G1 X92.843 Y36.372 E252.02777
G1 X94.53 Y36.104 E252.10234
G1 X235.333 Y36.088 E258.24894
G1 X237.156 Y36.372 E258.32949
G1 X238.88 Y37.249 E258.41392
G1 X240.251 Y38.62 E258.49856
G1 X241.127 Y40.341 E258.58286
G1 X241.408 Y42.149 E258.66274
G1 X241.396 Y287.97 E269.39379
G1 X241.128 Y289.657 E269.46836
G1 X240.251 Y291.38 E269.55276
G1 X238.88 Y292.751 E269.6374
G1 X237.157 Y293.628 E269.72179
G1 X235.47 Y293.896 E269.79636
G1 X94.606 Y293.908 E275.94563
G1 X92.843 Y293.628 E276.02356
G1 X91.12 Y292.751 E276.10795
G1 X89.749 Y291.38 E276.19259
G1 X88.873 Y289.659 E276.27689
G1 X88.592 Y287.851 E276.35677
G1 X88.604 Y42.03 E287.08782
G1 X88.872 Y40.343 E287.16239
G1 F2700 E286.66239
G0 F7200 X89.884 Y40.669
G1 F2700 E287.16239
G1 F3600 X90.611 Y39.242 E287.2323
G1 X91.742 Y38.111 E287.30212
G1 X93.169 Y37.384 E287.37204
G1 X94.694 Y37.142 E287.43944
G1 X235.249 Y37.138 E293.57522
G1 X236.83 Y37.384 E293.64507
G1 X238.258 Y38.111 E293.71502
G1 X239.389 Y39.242 E293.78484
G1 X240.116 Y40.669 E293.85475
G1 X240.358 Y42.191 E293.92203
G1 X240.358 Y287.806 E304.64409
G1 X240.116 Y289.331 E304.7115
G1 X239.389 Y290.758 E304.78141
G1 X238.258 Y291.889 E304.85123
G1 X236.831 Y292.616 E304.92114
G1 X235.306 Y292.858 E304.98855
G1 X94.694 Y292.858 E311.12681
G1 X93.169 Y292.616 E311.19422
G1 X91.742 Y291.889 E311.26413
G1 X90.611 Y290.758 E311.33396
G1 X89.884 Y289.331 E311.40387
G1 X89.642 Y287.809 E311.47114
G1 X89.642 Y42.194 E322.1932
G1 X89.884 Y40.669 E322.26061
G0 F7200 X89.378 Y40.506
G1 F3600 X90.18 Y38.931 E322.33776
G1 X91.431 Y37.68 E322.415
G1 X93.006 Y36.878 E322.49215
G1 X94.612 Y36.623 E322.56314
G1 X235.291 Y36.613 E328.70433
G1 X236.993 Y36.878 E328.77952
G1 X238.569 Y37.68 E328.85672
G1 X239.82 Y38.931 E328.93395
G1 X240.621 Y40.504 E329.01101
G1 X240.883 Y42.191 E329.08553
G1 X240.877 Y287.888 E339.81117
G1 X240.622 Y289.494 E339.88216
G1 X239.82 Y291.069 E339.95932
G1 X238.569 Y292.32 E340.03655
G1 X236.994 Y293.122 E340.1137
G1 X235.388 Y293.377 E340.18469
G1 X94.65 Y293.383 E346.32846
G1 X93.006 Y293.122 E346.40112
G1 X91.431 Y292.32 E346.47828
G1 X90.18 Y291.069 E346.55551
G1 X89.379 Y289.496 E346.63257
G1 X89.117 Y287.809 E346.70709
G1 X89.123 Y42.112 E357.43273
G1 X89.378 Y40.506 E357.50372
G1 F2700 E357.00372
G0 F7200 X192 Y59.499
G1 F2700 E357.50372
G1 F3600 X192.283 Y58.084 E357.56671
G1 X192.929 Y56.914 E357.62506
G1 X193.717 Y55.969 E357.67877
G1 X195.112 Y55.106 E357.75038
G1 X195.275 Y55.039 E357.75807
G1 X196.674 Y54.73 E357.82061
G1 X214.861 Y54.73 E358.61455
G1 X216.276 Y55.013 E358.67754
G1 X217.446 Y55.659 E358.73588
G1 X218.391 Y56.447 E358.7896
G1 X219.254 Y57.842 E358.86121
G1 X219.321 Y58.005 E358.8689
G1 X219.63 Y59.404 E358.93144
G1 X219.63 Y77.591 E359.72538
G1 X219.347 Y79.006 E359.78837
G1 X218.701 Y80.176 E359.84671
G1 X217.913 Y81.121 E359.90043
G1 X216.518 Y81.984 E359.97204
G1 X216.355 Y82.051 E359.97973
G1 X214.956 Y82.36 E360.04227
G1 X196.769 Y82.36 E360.83621
G1 X195.354 Y82.077 E360.8992
G1 X194.184 Y81.431 E360.95754
G1 X193.239 Y80.643 E361.01126
G1 X192.376 Y79.248 E361.08287
G1 X192.309 Y79.085 E361.09056
G1 X192 Y77.686 E361.1531
G1 X192 Y59.499 E361.94704
G0 F7200 X192.525 Y59.552
G1 F3600 X192.782 Y58.265 E362.00433
G1 X193.364 Y57.212 E362.05685
G1 X194.066 Y56.37 E362.10471
G1 X195.388 Y55.552 E362.17257
G1 X196.733 Y55.255 E362.2327
G1 X214.808 Y55.255 E363.02174
G1 X216.095 Y55.512 E363.07904
G1 X217.148 Y56.094 E363.13156
G1 X217.99 Y56.796 E363.17941
G1 X218.808 Y58.118 E363.24728
G1 X219.105 Y59.463 E363.30741
G1 X219.105 Y77.538 E364.09645
G1 X218.848 Y78.825 E364.15374
G1 X218.266 Y79.878 E364.20626
G1 X217.564 Y80.72 E364.25412
G1 X216.242 Y81.538 E364.32199
G1 X214.897 Y81.835 E364.38211
G1 X196.822 Y81.835 E365.17116
G1 X195.535 Y81.578 E365.22845
G1 X194.482 Y80.996 E365.28097
G1 X193.64 Y80.294 E365.32883
G1 X192.822 Y78.972 E365.39669
G1 X192.525 Y77.627 E365.45682
G1 X192.525 Y59.552 E366.24587
G0 F7200 X193.05 Y59.605
G1 F3600 X193.281 Y58.449 E366.29733
G1 X193.802 Y57.506 E366.34436
G1 X194.413 Y56.773 E366.38602
G1 X195.589 Y56.046 E366.44637
G1 X196.792 Y55.78 E366.50015
G1 X214.755 Y55.78 E367.28431
G1 X215.911 Y56.011 E367.33577
G1 X216.854 Y56.532 E367.3828
G1 X217.587 Y57.143 E367.42446
G1 X218.314 Y58.319 E367.48481
G1 X218.58 Y59.522 E367.5386
G1 X218.58 Y77.485 E368.32275
G1 X218.349 Y78.641 E368.37422
G1 X217.828 Y79.584 E368.42125
G1 X217.217 Y80.317 E368.4629
G1 X216.041 Y81.044 E368.52326
G1 X214.838 Y81.31 E368.57704
G1 X196.875 Y81.31 E369.3612
G1 X195.719 Y81.079 E369.41266
G1 X194.776 Y80.558 E369.45969
G1 X194.043 Y79.947 E369.50135
G1 X193.316 Y78.771 E369.5617
G1 X193.05 Y77.568 E369.61549
G1 X193.05 Y59.605 E370.39964
G0 F7200 X193.575 Y59.658
G1 F3600 X193.78 Y58.633 E370.44527
G1 X194.24 Y57.8 E370.48681
G1 X194.762 Y57.174 E370.52239
G1 X195.787 Y56.54 E370.57501
G1 X196.851 Y56.305 E370.62257
G1 X214.702 Y56.305 E371.40184
G1 X215.727 Y56.51 E371.44747
G1 X216.56 Y56.97 E371.48901
G1 X217.186 Y57.492 E371.52459
G1 X217.82 Y58.517 E371.57721
G1 X218.055 Y59.581 E371.62477
G1 X218.055 Y77.432 E372.40404
G1 X217.85 Y78.457 E372.44967
G1 X217.39 Y79.29 E372.49121
G1 X216.868 Y79.916 E372.52679
G1 X215.843 Y80.55 E372.57941
G1 X214.779 Y80.785 E372.62697
G1 X196.928 Y80.785 E373.40624
G1 X195.903 Y80.58 E373.45187
G1 X195.07 Y80.12 E373.49341
G1 X194.444 Y79.598 E373.52899
G1 X193.81 Y78.573 E373.58161
G1 X193.575 Y77.509 E373.62917
G1 X193.575 Y59.658 E374.40844
G0 F7200 X194.1 Y59.711
G1 F3600 X194.279 Y58.817 E374.44824
G1 X194.678 Y58.094 E374.48429
G1 X195.111 Y57.575 E374.5138
G1 X195.985 Y57.034 E374.55867
G1 X196.91 Y56.83 E374.60002
G1 X214.649 Y56.83 E375.37439
G1 X215.543 Y57.009 E375.4142
G1 X216.266 Y57.408 E375.45024
G1 X216.785 Y57.841 E375.47975
G1 X217.326 Y58.715 E375.52462
G1 X217.53 Y59.64 E375.56597
G1 X217.53 Y77.379 E376.34035
G1 X217.351 Y78.273 E376.38015
G1 X216.952 Y78.996 E376.4162
G1 X216.519 Y79.515 E376.4457
G1 X215.645 Y80.056 E376.49058
G1 X214.72 Y80.26 E376.53193
G1 X196.981 Y80.26 E377.3063
G1 X196.087 Y80.081 E377.3461
G1 X195.364 Y79.682 E377.38215
G1 X194.845 Y79.249 E377.41166
G1 X194.304 Y78.375 E377.45653
G1 X194.1 Y77.45 E377.49788
G1 X194.1 Y59.711 E378.27226
G0 F7200 X194.625 Y59.764
G1 F3600 X194.778 Y58.999 E378.30631
G1 X195.112 Y58.393 E378.33652
G1 X195.46 Y57.977 E378.3602
G1 X196.186 Y57.528 E378.39746
G1 X196.969 Y57.355 E378.43247
G1 X214.596 Y57.355 E379.20195
G1 X215.361 Y57.508 E379.23601
G1 X215.967 Y57.842 E379.26622
G1 X216.383 Y58.19 E379.28989
G1 X216.832 Y58.916 E379.32716
G1 X217.005 Y59.699 E379.36216
G1 X217.005 Y77.326 E380.13165
G1 X216.852 Y78.091 E380.16571
G1 X216.518 Y78.697 E380.19591
G1 X216.17 Y79.113 E380.21959
G1 X215.444 Y79.562 E380.25685
G1 X214.661 Y79.735 E380.29186
G1 X197.034 Y79.735 E381.06135
G1 X196.269 Y79.582 E381.0954
G1 X195.663 Y79.248 E381.12561
G1 X195.247 Y78.9 E381.14929
G1 X194.798 Y78.174 E381.18655
G1 X194.625 Y77.391 E381.22156
G1 X194.625 Y59.764 E381.99104
G0 F7200 X195.15 Y59.817
G1 F3600 X195.277 Y59.182 E382.01931
G1 X195.572 Y58.647 E382.04598
G1 X195.809 Y58.378 E382.06163
G1 X196.384 Y58.022 E382.09116
G1 X197.028 Y57.88 E382.11994
G1 X214.543 Y57.88 E382.88454
G1 X215.178 Y58.007 E382.91281
G1 X215.713 Y58.302 E382.93948
G1 X215.982 Y58.539 E382.95513
G1 X216.338 Y59.114 E382.98466
G1 X216.48 Y59.758 E383.01344
G1 X216.48 Y77.273 E383.77804
G1 X216.353 Y77.908 E383.80631
G1 X216.058 Y78.443 E383.83298
G1 X215.821 Y78.712 E383.84863
G1 X215.246 Y79.068 E383.87815
G1 X214.602 Y79.21 E383.90694
G1 X197.087 Y79.21 E384.67154
G1 X196.452 Y79.083 E384.69981
G1 X195.917 Y78.788 E384.72648
G1 X195.648 Y78.551 E384.74213
G1 X195.292 Y77.976 E384.77165
G1 X195.15 Y77.332 E384.80044
G1 X195.15 Y59.817 E385.56504
G0 F7200 X195.675 Y59.817
G1 F3600 X195.737 Y59.436 E385.58189
G1 X196.032 Y58.901 E385.60856
G1 X196.184 Y58.746 E385.61804
G1 X196.583 Y58.516 E385.63814
G1 X197.087 Y58.405 E385.66067
G1 X214.543 Y58.405 E386.42269
G1 X214.924 Y58.467 E386.43955
G1 X215.459 Y58.762 E386.46622
G1 X215.614 Y58.914 E386.47569
G1 X215.844 Y59.313 E386.4958
G1 X215.955 Y59.817 E386.51833
G1 X215.955 Y77.273 E387.28035
G1 X215.893 Y77.654 E387.2972
G1 X215.598 Y78.189 E387.32387
G1 X215.446 Y78.344 E387.33335
G1 X215.047 Y78.574 E387.35345
G1 X214.543 Y78.685 E387.37598
G1 X197.087 Y78.685 E388.138
G1 X196.706 Y78.623 E388.15485
G1 X196.171 Y78.328 E388.18152
G1 X196.016 Y78.176 E388.191
G1 X195.786 Y77.777 E388.21111
G1 X195.675 Y77.273 E388.23363
G1 X195.675 Y59.817 E388.99566
G1 F2700 E388.49566
G0 F7200 X196.725 Y59.817
G1 F2700 E388.99566
G1 F3600 X196.764 Y59.653 E389.00302
G1 X196.874 Y59.524 E389.01042
G1 X197.087 Y59.455 E389.02019
G1 X214.543 Y59.455 E389.78221
G1 X214.707 Y59.494 E389.78957
G1 X214.836 Y59.604 E389.79697
G1 X214.905 Y59.817 E389.80675
G1 X214.905 Y77.273 E390.56877
G1 X214.866 Y77.437 E390.57613
G1 X214.756 Y77.566 E390.58353
G1 X214.543 Y77.635 E390.5933
G1 X197.087 Y77.635 E391.35533
G1 X196.923 Y77.596 E391.36269
G1 X196.794 Y77.486 E391.37009
G1 X196.725 Y77.273 E391.37986
G1 X196.725 Y59.817 E392.14188
G0 F7200 X196.2 Y59.817
G1 F3600 X196.253 Y59.532 E392.15454
G1 X196.475 Y59.183 E392.17259
G1 X196.712 Y59.025 E392.18503
G1 X197.087 Y58.93 E392.20192
G1 X214.543 Y58.93 E392.96394
G1 X214.828 Y58.983 E392.97659
G1 X215.177 Y59.205 E392.99465
G1 X215.335 Y59.442 E393.00708
G1 X215.43 Y59.817 E393.02397
G1 X215.43 Y77.273 E393.786
G1 X215.377 Y77.558 E393.79865
G1 X215.155 Y77.907 E393.81671
G1 X214.918 Y78.065 E393.82914
G1 X214.543 Y78.16 E393.84603
G1 X197.087 Y78.16 E394.60805
G1 X196.802 Y78.107 E394.62071
G1 X196.453 Y77.885 E394.63876
G1 X196.295 Y77.648 E394.6512
G1 X196.2 Y77.273 E394.66808
G1 X196.2 Y59.817 E395.43011
G1 F2700 E394.93011
G0 F7200 X190.402 Y83.458
