;FLAVOR:Marlin
;TIME:255
;Filament used: 0.334556m
;Layer height: 0.2
;MINX:148.764
;MINY:133.161
;MINZ:0.2
;MAXX:181.236
;MAXY:196.839
;MAXZ:2
;TARGET_MACHINE.NAME:ELEGOO NEPTUNE 4 Plus
;Generated with Cura_SteamEngine 5.7.2
M104 S210
M105
M109 S210
M82 ;absolute extrusion mode
;ELEGOO NEPTUNE 4 PLUS
M220 S100 ;Set the feed speed to 100%
M221 S100 ;Set the flow rate to 100%
M104 S140 ;Start heating extruder
M190 S60 ;Wait for the bed to reach print temp
G90
G28 ;home
G1 Z10 F300
G1 X115 Y0 F6000
G1 Z0 F300
M109 S210 ;Wait for extruder to reach print temp
G92 E0 ;Reset Extruder
G1 X115 Y0 Z0.4 F300 ;Move to start position
G1 X215 E30 F400 ;Draw the first line
G1 Z0.6 F120.0 ;Move to side a little
G1 X210 F3000
G92 E0 ;Reset Extruder
G92 E0
G92 E0
G1 F2700 E-0.5
;LAYER_COUNT:10
;LAYER:0
M107
M204 S500
G0 F7200 X154.275 Y134.4 Z0.2
;TYPE:SKIRT
G1 F2700 E0
G1 F3600 X153.487 Y135.345 E0.05371
G1 X152.841 Y136.515 E0.11206
G1 X152.558 Y137.93 E0.17505
G1 X152.558 Y153.371 E0.84911
G1 X152.867 Y154.77 E0.91165
G1 X152.934 Y154.933 E0.91935
G1 X153.797 Y156.328 E0.99096
G1 X154.742 Y157.116 E1.04467
G1 X155.912 Y157.762 E1.10301
G1 X157.327 Y158.045 E1.16601
G1 X172.768 Y158.045 E1.84007
G1 X174.167 Y157.736 E1.90261
G1 X174.33 Y157.669 E1.9103
G1 X175.725 Y156.806 E1.98191
G1 X176.513 Y155.861 E2.03562
G1 X177.159 Y154.691 E2.09397
G1 X177.442 Y153.276 E2.15696
G1 X177.442 Y137.835 E2.83102
G1 X177.133 Y136.436 E2.89357
G1 X177.066 Y136.273 E2.90126
G1 X176.203 Y134.878 E2.97287
G1 X175.258 Y134.09 E3.02658
G1 X174.088 Y133.444 E3.08492
G1 X172.673 Y133.161 E3.14792
G1 X157.232 Y133.161 E3.82198
G1 X155.833 Y133.47 E3.88452
G1 X155.67 Y133.537 E3.89221
G1 X154.275 Y134.4 E3.96382
G0 F7200 X154.624 Y134.801
G1 F3600 X155.946 Y133.983 E4.03169
G1 X157.291 Y133.686 E4.09182
G1 X172.62 Y133.686 E4.76099
G1 X173.907 Y133.943 E4.81828
G1 X174.96 Y134.525 E4.8708
G1 X175.802 Y135.227 E4.91866
G1 X176.62 Y136.549 E4.98652
G1 X176.917 Y137.894 E5.04665
G1 X176.917 Y153.223 E5.71582
G1 X176.66 Y154.51 E5.77311
G1 X176.078 Y155.563 E5.82564
G1 X175.376 Y156.405 E5.87349
G1 X174.054 Y157.223 E5.94136
G1 X172.709 Y157.52 E6.00148
G1 X157.38 Y157.52 E6.67066
G1 X156.093 Y157.263 E6.72795
G1 X155.04 Y156.681 E6.78047
G1 X154.198 Y155.979 E6.82832
G1 X153.38 Y154.657 E6.89619
G1 X153.083 Y153.312 E6.95632
G1 X153.083 Y137.983 E7.62549
G1 X153.34 Y136.696 E7.68278
G1 X153.922 Y135.643 E7.7353
G1 X154.624 Y134.801 E7.78316
G0 F7200 X154.971 Y135.204
G1 F3600 X156.147 Y134.477 E7.84351
G1 X157.35 Y134.211 E7.8973
G1 X172.567 Y134.211 E8.56158
G1 X173.723 Y134.442 E8.61304
G1 X174.666 Y134.963 E8.66007
G1 X175.399 Y135.574 E8.70173
G1 X176.126 Y136.75 E8.76208
G1 X176.392 Y137.953 E8.81587
G1 X176.392 Y153.17 E9.48015
G1 X176.161 Y154.326 E9.53161
G1 X175.64 Y155.269 E9.57864
G1 X175.029 Y156.002 E9.6203
G1 X173.853 Y156.729 E9.68065
G1 X172.65 Y156.995 E9.73444
G1 X157.433 Y156.995 E10.39872
G1 X156.277 Y156.764 E10.45018
G1 X155.334 Y156.243 E10.49721
G1 X154.601 Y155.632 E10.53887
G1 X153.874 Y154.456 E10.59922
G1 X153.608 Y153.253 E10.65301
G1 X153.608 Y138.036 E11.31729
G1 X153.839 Y136.88 E11.36875
G1 X154.36 Y135.937 E11.41578
G1 X154.971 Y135.204 E11.45744
G0 F7200 X155.32 Y135.605
G1 F3600 X156.345 Y134.971 E11.51005
G1 X157.409 Y134.736 E11.55762
G1 X172.514 Y134.736 E12.21701
G1 X173.539 Y134.941 E12.26264
G1 X174.372 Y135.401 E12.30418
G1 X174.998 Y135.923 E12.33976
G1 X175.632 Y136.948 E12.39238
G1 X175.867 Y138.012 E12.43994
G1 X175.867 Y153.117 E13.09934
G1 X175.662 Y154.142 E13.14497
G1 X175.202 Y154.975 E13.18651
G1 X174.68 Y155.601 E13.22209
G1 X173.655 Y156.235 E13.2747
G1 X172.591 Y156.47 E13.32227
G1 X157.486 Y156.47 E13.98166
G1 X156.461 Y156.265 E14.02729
G1 X155.628 Y155.805 E14.06883
G1 X155.002 Y155.283 E14.10442
G1 X154.368 Y154.258 E14.15703
G1 X154.133 Y153.194 E14.2046
G1 X154.133 Y138.089 E14.86399
G1 X154.338 Y137.064 E14.90962
G1 X154.798 Y136.231 E14.95116
G1 X155.32 Y135.605 E14.98674
G0 F7200 X155.669 Y136.006
G1 F3600 X156.543 Y135.465 E15.03161
G1 X157.468 Y135.261 E15.07296
G1 X172.461 Y135.261 E15.72747
G1 X173.355 Y135.44 E15.76727
G1 X174.078 Y135.839 E15.80332
G1 X174.597 Y136.272 E15.83282
G1 X175.138 Y137.146 E15.87769
G1 X175.342 Y138.071 E15.91904
G1 X175.342 Y153.064 E16.57355
G1 X175.163 Y153.958 E16.61335
G1 X174.764 Y154.681 E16.6494
G1 X174.331 Y155.2 E16.6789
G1 X173.457 Y155.741 E16.72378
G1 X172.532 Y155.945 E16.76513
G1 X157.539 Y155.945 E17.41963
G1 X156.645 Y155.766 E17.45943
G1 X155.922 Y155.367 E17.49548
G1 X155.403 Y154.934 E17.52498
G1 X154.862 Y154.06 E17.56986
G1 X154.658 Y153.135 E17.61121
G1 X154.658 Y138.142 E18.26571
G1 X154.837 Y137.248 E18.30551
G1 X155.236 Y136.525 E18.34156
G1 X155.669 Y136.006 E18.37107
G0 F7200 X156.018 Y136.408
G1 F3600 X155.67 Y136.824 E18.39474
G1 X155.336 Y137.43 E18.42495
G1 X155.183 Y138.195 E18.45901
G1 X155.183 Y153.076 E19.10862
G1 X155.356 Y153.859 E19.14362
G1 X155.805 Y154.585 E19.18089
G1 X156.221 Y154.933 E19.20457
G1 X156.827 Y155.267 E19.23477
G1 X157.592 Y155.42 E19.26883
G1 X172.473 Y155.42 E19.91844
G1 X173.256 Y155.247 E19.95345
G1 X173.982 Y154.798 E19.99071
G1 X174.33 Y154.382 E20.01439
G1 X174.664 Y153.776 E20.04459
G1 X174.817 Y153.011 E20.07865
G1 X174.817 Y138.13 E20.72827
G1 X174.644 Y137.347 E20.76327
G1 X174.195 Y136.621 E20.80053
G1 X173.779 Y136.273 E20.82421
G1 X173.173 Y135.939 E20.85442
G1 X172.408 Y135.786 E20.88847
G1 X157.527 Y135.786 E21.53809
G1 X156.744 Y135.959 E21.57309
G1 X156.018 Y136.408 E21.61036
G0 F7200 X156.367 Y136.809
G1 F3600 X156.942 Y136.453 E21.63988
G1 X157.586 Y136.311 E21.66867
G1 X172.355 Y136.311 E22.31339
G1 X172.99 Y136.438 E22.34166
G1 X173.525 Y136.733 E22.36833
G1 X173.794 Y136.97 E22.38398
G1 X174.15 Y137.545 E22.41351
G1 X174.292 Y138.189 E22.44229
G1 X174.292 Y152.958 E23.08702
G1 X174.165 Y153.593 E23.11529
G1 X173.87 Y154.128 E23.14196
G1 X173.633 Y154.397 E23.15761
G1 X173.058 Y154.753 E23.18713
G1 X172.414 Y154.895 E23.21592
G1 X157.645 Y154.895 E23.86064
G1 X157.01 Y154.768 E23.88891
G1 X156.475 Y154.473 E23.91558
G1 X156.206 Y154.236 E23.93123
G1 X155.85 Y153.661 E23.96076
G1 X155.708 Y153.017 E23.98954
G1 X155.708 Y138.248 E24.63427
G1 X155.835 Y137.613 E24.66254
G1 X156.13 Y137.078 E24.68921
G1 X156.367 Y136.809 E24.70486
G0 F7200 X156.742 Y137.177
G1 F3600 X157.141 Y136.947 E24.72496
G1 X157.645 Y136.836 E24.74749
G1 X172.355 Y136.836 E25.38964
G1 X172.736 Y136.898 E25.40649
G1 X173.271 Y137.193 E25.43316
G1 X173.426 Y137.345 E25.44264
G1 X173.656 Y137.744 E25.46274
G1 X173.767 Y138.248 E25.48527
G1 X173.767 Y152.958 E26.12742
G1 X173.705 Y153.339 E26.14427
G1 X173.41 Y153.874 E26.17094
G1 X173.258 Y154.029 E26.18042
G1 X172.859 Y154.259 E26.20052
G1 X172.355 Y154.37 E26.22305
G1 X157.645 Y154.37 E26.8652
G1 X157.264 Y154.308 E26.88205
G1 X156.729 Y154.013 E26.90872
G1 X156.574 Y153.861 E26.9182
G1 X156.344 Y153.462 E26.93831
G1 X156.233 Y152.958 E26.96083
G1 X156.233 Y138.248 E27.60298
G1 X156.295 Y137.867 E27.61983
G1 X156.59 Y137.332 E27.6465
G1 X156.742 Y137.177 E27.65598
G1 F2700 E27.15598
G0 F7200 X157.432 Y137.955
G1 F2700 E27.65598
G1 F3600 X157.645 Y137.886 E27.66576
G1 X172.355 Y137.886 E28.3079
G1 X172.519 Y137.925 E28.31526
G1 X172.648 Y138.035 E28.32266
G1 X172.717 Y138.248 E28.33244
G1 X172.717 Y152.958 E28.97459
G1 X172.678 Y153.122 E28.98195
G1 X172.568 Y153.251 E28.98935
G1 X172.355 Y153.32 E28.99912
G1 X157.645 Y153.32 E29.64127
G1 X157.481 Y153.281 E29.64863
G1 X157.352 Y153.171 E29.65603
G1 X157.283 Y152.958 E29.6658
G1 X157.283 Y138.248 E30.30795
G1 X157.322 Y138.084 E30.31531
G1 X157.432 Y137.955 E30.32271
G0 F7200 X157.27 Y137.456
G1 F3600 X157.645 Y137.361 E30.3396
G1 X172.355 Y137.361 E30.98175
G1 X172.64 Y137.414 E30.9944
G1 X172.989 Y137.636 E31.01246
G1 X173.147 Y137.873 E31.02489
G1 X173.242 Y138.248 E31.04178
G1 X173.242 Y152.958 E31.68393
G1 X173.189 Y153.243 E31.69659
G1 X172.967 Y153.592 E31.71464
G1 X172.73 Y153.75 E31.72708
G1 X172.355 Y153.845 E31.74396
G1 X157.645 Y153.845 E32.38611
G1 X157.36 Y153.792 E32.39877
G1 X157.011 Y153.57 E32.41682
G1 X156.853 Y153.333 E32.42926
G1 X156.758 Y152.958 E32.44615
G1 X156.758 Y138.248 E33.0883
G1 X156.811 Y137.963 E33.10095
G1 X157.033 Y137.614 E33.11901
G1 X157.27 Y137.456 E33.13144
G1 F2700 E32.63144
G0 F7200 X153.438 Y164.367
G1 F2700 E33.13144
G1 F3600 X176.467 Y164.367 E34.13675
G1 X177.882 Y164.65 E34.19974
G1 X179.052 Y165.296 E34.25808
G1 X179.997 Y166.084 E34.3118
G1 X180.86 Y167.479 E34.38341
G1 X180.927 Y167.642 E34.3911
G1 X181.236 Y169.041 E34.45364
G1 X181.236 Y192.07 E35.45895
G1 X180.953 Y193.485 E35.52194
G1 X180.307 Y194.655 E35.58029
G1 X179.519 Y195.6 E35.634
G1 X178.124 Y196.463 E35.70561
G1 X177.961 Y196.53 E35.7133
G1 X176.562 Y196.839 E35.77584
G1 X153.533 Y196.839 E36.78115
G1 X152.118 Y196.556 E36.84414
G1 X150.948 Y195.91 E36.90249
G1 X150.003 Y195.122 E36.9562
G1 X149.14 Y193.727 E37.02781
G1 X149.073 Y193.564 E37.0355
G1 X148.764 Y192.165 E37.09805
G1 X148.764 Y169.136 E38.10335
G1 X149.047 Y167.721 E38.16635
G1 X149.693 Y166.551 E38.22469
G1 X150.481 Y165.606 E38.2784
G1 X151.876 Y164.743 E38.35001
G1 X152.039 Y164.676 E38.3577
G1 X153.438 Y164.367 E38.42025
G0 F7200 X153.497 Y164.892
G1 F3600 X176.414 Y164.892 E39.42066
G1 X177.701 Y165.149 E39.47796
G1 X178.754 Y165.731 E39.53048
G1 X179.596 Y166.433 E39.57833
G1 X180.414 Y167.755 E39.6462
G1 X180.711 Y169.1 E39.70633
G1 X180.711 Y192.017 E40.70674
G1 X180.454 Y193.304 E40.76404
G1 X179.872 Y194.357 E40.81656
G1 X179.17 Y195.199 E40.86441
G1 X177.848 Y196.017 E40.93228
G1 X176.503 Y196.314 E40.99241
G1 X153.586 Y196.314 E41.99282
G1 X152.299 Y196.057 E42.05012
G1 X151.246 Y195.475 E42.10264
G1 X150.404 Y194.773 E42.15049
G1 X149.586 Y193.451 E42.21836
G1 X149.289 Y192.106 E42.27849
G1 X149.289 Y169.189 E43.2789
G1 X149.546 Y167.902 E43.3362
G1 X150.128 Y166.849 E43.38872
G1 X150.83 Y166.007 E43.43657
G1 X152.152 Y165.189 E43.50444
G1 X153.497 Y164.892 E43.56457
G0 F7200 X153.556 Y165.417
G1 F3600 X176.361 Y165.417 E44.56009
G1 X177.517 Y165.648 E44.61156
G1 X178.46 Y166.169 E44.65859
G1 X179.193 Y166.78 E44.70024
G1 X179.92 Y167.956 E44.7606
G1 X180.186 Y169.159 E44.81438
G1 X180.186 Y191.964 E45.80991
G1 X179.955 Y193.12 E45.86137
G1 X179.434 Y194.063 E45.9084
G1 X178.823 Y194.796 E45.95006
G1 X177.647 Y195.523 E46.01041
G1 X176.444 Y195.789 E46.0642
G1 X153.639 Y195.789 E47.05973
G1 X152.483 Y195.558 E47.11119
G1 X151.54 Y195.037 E47.15822
G1 X150.807 Y194.426 E47.19988
G1 X150.08 Y193.25 E47.26023
G1 X149.814 Y192.047 E47.31402
G1 X149.814 Y169.242 E48.30954
G1 X150.045 Y168.086 E48.361
G1 X150.566 Y167.143 E48.40804
G1 X151.177 Y166.41 E48.44969
G1 X152.353 Y165.683 E48.51005
G1 X153.556 Y165.417 E48.56383
G0 F7200 X153.615 Y165.942
G1 F3600 X176.308 Y165.942 E49.55447
G1 X177.333 Y166.147 E49.6001
G1 X178.166 Y166.607 E49.64164
G1 X178.792 Y167.129 E49.67722
G1 X179.426 Y168.154 E49.72984
G1 X179.661 Y169.218 E49.7774
G1 X179.661 Y191.911 E50.76804
G1 X179.456 Y192.936 E50.81367
G1 X178.996 Y193.769 E50.85521
G1 X178.474 Y194.395 E50.89079
G1 X177.449 Y195.029 E50.94341
G1 X176.385 Y195.264 E50.99097
G1 X153.692 Y195.264 E51.98161
G1 X152.667 Y195.059 E52.02724
G1 X151.834 Y194.599 E52.06878
G1 X151.208 Y194.077 E52.10437
G1 X150.574 Y193.052 E52.15698
G1 X150.339 Y191.988 E52.20455
G1 X150.339 Y169.295 E53.19518
G1 X150.544 Y168.27 E53.24082
G1 X151.004 Y167.437 E53.28236
G1 X151.526 Y166.811 E53.31794
G1 X152.551 Y166.177 E53.37055
G1 X153.615 Y165.942 E53.41812
G0 F7200 X153.674 Y166.467
G1 F3600 X176.255 Y166.467 E54.40387
G1 X177.149 Y166.646 E54.44367
G1 X177.872 Y167.045 E54.47972
G1 X178.391 Y167.478 E54.50922
G1 X178.932 Y168.352 E54.55409
G1 X179.136 Y169.277 E54.59544
G1 X179.136 Y191.858 E55.58119
G1 X178.957 Y192.752 E55.621
G1 X178.558 Y193.475 E55.65704
G1 X178.125 Y193.994 E55.68655
G1 X177.251 Y194.535 E55.73142
G1 X176.326 Y194.739 E55.77277
G1 X153.745 Y194.739 E56.75852
G1 X152.851 Y194.56 E56.79832
G1 X152.128 Y194.161 E56.83437
G1 X151.609 Y193.728 E56.86388
G1 X151.068 Y192.854 E56.90875
G1 X150.864 Y191.929 E56.9501
G1 X150.864 Y169.348 E57.93585
G1 X151.043 Y168.454 E57.97565
G1 X151.442 Y167.731 E58.0117
G1 X151.875 Y167.212 E58.0412
G1 X152.749 Y166.671 E58.08608
G1 X153.674 Y166.467 E58.12743
G0 F7200 X153.733 Y166.992
G1 F3600 X176.202 Y166.992 E59.10829
G1 X176.967 Y167.145 E59.14234
G1 X177.573 Y167.479 E59.17255
G1 X177.989 Y167.827 E59.19623
G1 X178.438 Y168.553 E59.23349
G1 X178.611 Y169.336 E59.2685
G1 X178.611 Y191.805 E60.24936
G1 X178.458 Y192.57 E60.28341
G1 X178.124 Y193.176 E60.31362
G1 X177.776 Y193.592 E60.33729
G1 X177.05 Y194.041 E60.37456
G1 X176.267 Y194.214 E60.40956
G1 X153.798 Y194.214 E61.39042
G1 X153.033 Y194.061 E61.42448
G1 X152.427 Y193.727 E61.45469
G1 X152.011 Y193.379 E61.47836
G1 X151.562 Y192.653 E61.51563
G1 X151.389 Y191.87 E61.55063
G1 X151.389 Y169.401 E62.53149
G1 X151.542 Y168.636 E62.56555
G1 X151.876 Y168.03 E62.59576
G1 X152.224 Y167.614 E62.61943
G1 X152.95 Y167.165 E62.6567
G1 X153.733 Y166.992 E62.6917
G0 F7200 X153.792 Y167.517
G1 F3600 X176.149 Y167.517 E63.66767
G1 X176.784 Y167.644 E63.69594
G1 X177.319 Y167.939 E63.72261
G1 X177.588 Y168.176 E63.73826
G1 X177.944 Y168.751 E63.76778
G1 X178.086 Y169.395 E63.79657
G1 X178.086 Y191.752 E64.77254
G1 X177.959 Y192.387 E64.80081
G1 X177.664 Y192.922 E64.82748
G1 X177.427 Y193.191 E64.84313
G1 X176.852 Y193.547 E64.87266
G1 X176.208 Y193.689 E64.90144
G1 X153.851 Y193.689 E65.87742
G1 X153.216 Y193.562 E65.90568
G1 X152.681 Y193.267 E65.93235
G1 X152.412 Y193.03 E65.94801
G1 X152.056 Y192.455 E65.97753
G1 X151.914 Y191.811 E66.00632
G1 X151.914 Y169.454 E66.98229
G1 X152.041 Y168.819 E67.01056
G1 X152.336 Y168.284 E67.03723
G1 X152.573 Y168.015 E67.05288
G1 X153.148 Y167.659 E67.0824
G1 X153.792 Y167.517 E67.11119
G0 F7200 X153.851 Y168.042
G1 F3600 X153.347 Y168.153 E67.13372
G1 X152.948 Y168.383 E67.15382
G1 X152.796 Y168.538 E67.1633
G1 X152.501 Y169.073 E67.18997
G1 X152.439 Y169.454 E67.20682
G1 X152.439 Y191.752 E68.18021
G1 X152.55 Y192.256 E68.20274
G1 X152.78 Y192.655 E68.22285
G1 X152.935 Y192.807 E68.23232
G1 X153.47 Y193.102 E68.25899
G1 X153.851 Y193.164 E68.27585
G1 X176.149 Y193.164 E69.24924
G1 X176.653 Y193.053 E69.27177
G1 X177.052 Y192.823 E69.29187
G1 X177.204 Y192.668 E69.30135
G1 X177.499 Y192.133 E69.32802
G1 X177.561 Y191.752 E69.34487
G1 X177.561 Y169.454 E70.31827
G1 X177.45 Y168.95 E70.3408
G1 X177.22 Y168.551 E70.3609
G1 X177.065 Y168.399 E70.37038
G1 X176.53 Y168.104 E70.39705
G1 X176.149 Y168.042 E70.4139
G1 X153.851 Y168.042 E71.38729
G1 F2700 E70.88729
G0 F7200 X153.851 Y169.092
G1 F2700 E71.38729
G1 F3600 X176.149 Y169.092 E72.36069
G1 X176.313 Y169.131 E72.36805
G1 X176.442 Y169.241 E72.37545
G1 X176.511 Y169.454 E72.38522
G1 X176.511 Y191.752 E73.35862
G1 X176.472 Y191.916 E73.36598
G1 X176.362 Y192.045 E73.37338
G1 X176.149 Y192.114 E73.38315
G1 X153.851 Y192.114 E74.35655
G1 X153.687 Y192.075 E74.36391
G1 X153.558 Y191.965 E74.37131
G1 X153.489 Y191.752 E74.38108
G1 X153.489 Y169.454 E75.35448
G1 X153.528 Y169.29 E75.36183
G1 X153.638 Y169.161 E75.36924
G1 X153.851 Y169.092 E75.37901
G0 F7200 X153.851 Y168.567
G1 F3600 X176.149 Y168.567 E76.3524
G1 X176.434 Y168.62 E76.36506
G1 X176.783 Y168.842 E76.38312
G1 X176.941 Y169.079 E76.39555
G1 X177.036 Y169.454 E76.41244
G1 X177.036 Y191.752 E77.38583
G1 X176.983 Y192.037 E77.39849
G1 X176.761 Y192.386 E77.41654
G1 X176.524 Y192.544 E77.42898
G1 X176.149 Y192.639 E77.44586
G1 X153.851 Y192.639 E78.41926
G1 X153.566 Y192.586 E78.43191
G1 X153.217 Y192.364 E78.44997
G1 X153.059 Y192.127 E78.46241
G1 X152.964 Y191.752 E78.47929
G1 X152.964 Y169.454 E79.45269
G1 X153.017 Y169.169 E79.46534
G1 X153.239 Y168.82 E79.4834
G1 X153.476 Y168.662 E79.49583
G1 X153.851 Y168.567 E79.51272
G1 F2700 E79.01272
;MESH:holes_test2.obj
G0 F7200 X158.069 Y153.623
G0 X158.069 Y152.534
G0 X162.759 Y152.098
G0 X163.015 Y152.137
;TYPE:WALL-INNER
G1 F2700 E79.51272
G1 F3546 X163.71 Y152.192 E79.54362
