;FLAVOR:Marlin
;TIME:285
;Filament used: 0.397775m
;Layer height: 0.2
;MINX:147.831
;MINY:138.026
;MINZ:0.2
;MAXX:182.169
;MAXY:191.974
;MAXZ:2
;TARGET_MACHINE.NAME:ELEGOO NEPTUNE 4 Plus
;Generated with Cura_SteamEngine 5.7.2
M104 S210
M105
M109 S210
M82 ;absolute extrusion mode
;ELEGOO NEPTUNE 4 PLUS
M220 S100 ;Set the feed speed to 100%
M221 S100 ;Set the flow rate to 100%
M104 S140 ;Start heating extruder
M190 S60 ;Wait for the bed to reach print temp
G90
G28 ;home
G1 Z10 F300
G1 X115 Y0 F6000
G1 Z0 F300
M109 S210 ;Wait for extruder to reach print temp
G92 E0 ;Reset Extruder
G1 X115 Y0 Z0.4 F300 ;Move to start position
G1 X215 E30 F400 ;Draw the first line
G1 Z0.6 F120.0 ;Move to side a little
G1 X210 F3000
G92 E0 ;Reset Extruder
G92 E0
G92 E0
G1 F2700 E-0.5
;LAYER_COUNT:10
;LAYER:0
M107
M204 S500
G0 F7200 X153.121 Y139.265 Z0.2
;TYPE:SKIRT
G1 F2700 E0
G1 F3600 X154.516 Y138.402 E0.07161
G1 X154.679 Y138.335 E0.0793
G1 X156.078 Y138.026 E0.14185
G1 X173.827 Y138.026 E0.91666
G1 X175.242 Y138.309 E0.97965
G1 X176.412 Y138.955 E1.038
G1 X177.357 Y139.743 E1.09171
G1 X178.22 Y141.138 E1.16332
G1 X178.287 Y141.301 E1.17101
G1 X178.596 Y142.7 E1.23355
G1 X178.596 Y157.892 E1.89674
G1 X178.958 Y157.997 E1.9132
G1 X179.981 Y158.562 E1.96422
G1 X180.93 Y159.353 E2.01815
G1 X181.793 Y160.748 E2.08975
G1 X181.86 Y160.911 E2.09745
G1 X182.169 Y162.31 E2.15999
G1 X182.169 Y187.205 E3.24676
G1 X181.886 Y188.62 E3.30975
G1 X181.24 Y189.79 E3.36809
G1 X180.452 Y190.735 E3.42181
G1 X179.057 Y191.598 E3.49341
G1 X178.894 Y191.665 E3.50111
G1 X177.495 Y191.974 E3.56365
G1 X152.6 Y191.974 E4.65042
G1 X151.185 Y191.691 E4.71341
G1 X150.015 Y191.045 E4.77175
G1 X149.07 Y190.257 E4.82547
G1 X148.207 Y188.862 E4.89707
G1 X148.14 Y188.699 E4.90477
G1 X147.831 Y187.3 E4.96731
G1 X147.831 Y162.405 E6.05408
G1 X148.114 Y160.99 E6.11707
G1 X148.76 Y159.82 E6.17541
G1 X149.55 Y158.873 E6.22925
G1 X150.944 Y158.011 E6.3008
G1 X151.404 Y157.879 E6.32169
G1 X151.404 Y142.795 E6.98016
G1 X151.687 Y141.38 E7.04316
G1 X152.333 Y140.21 E7.1015
G1 X153.121 Y139.265 E7.15521
G0 F7200 X153.47 Y139.666
G1 F3600 X154.792 Y138.848 E7.22308
G1 X156.137 Y138.551 E7.28321
G1 X173.774 Y138.551 E8.05313
G1 X175.061 Y138.808 E8.11042
G1 X176.114 Y139.39 E8.16295
G1 X176.956 Y140.092 E8.2108
G1 X177.774 Y141.414 E8.27867
G1 X178.071 Y142.759 E8.3388
G1 X178.071 Y158.305 E9.01744
G1 X178.704 Y158.457 E9.04586
G1 X179.687 Y159 E9.09488
G1 X180.529 Y159.702 E9.14274
G1 X181.347 Y161.024 E9.2106
G1 X181.644 Y162.369 E9.27073
G1 X181.644 Y187.152 E10.35261
G1 X181.387 Y188.439 E10.4099
G1 X180.805 Y189.492 E10.46242
G1 X180.103 Y190.334 E10.51028
G1 X178.781 Y191.152 E10.57814
G1 X177.436 Y191.449 E10.63827
G1 X152.653 Y191.449 E11.72014
G1 X151.366 Y191.192 E11.77744
G1 X150.313 Y190.61 E11.82996
G1 X149.471 Y189.908 E11.87781
G1 X148.653 Y188.586 E11.94568
G1 X148.356 Y187.241 E12.00581
G1 X148.356 Y162.458 E13.08768
G1 X148.613 Y161.171 E13.14497
G1 X149.195 Y160.118 E13.1975
G1 X149.897 Y159.276 E13.24535
G1 X151.22 Y158.458 E13.31325
G1 X151.929 Y158.301 E13.34495
G1 X151.929 Y142.848 E14.01954
G1 X152.186 Y141.561 E14.07683
G1 X152.768 Y140.508 E14.12935
G1 X153.47 Y139.666 E14.17721
G0 F7200 X153.817 Y140.069
G1 F3600 X154.993 Y139.342 E14.23756
G1 X156.196 Y139.076 E14.29135
G1 X173.721 Y139.076 E15.05638
G1 X174.877 Y139.307 E15.10784
G1 X175.82 Y139.828 E15.15487
G1 X176.553 Y140.439 E15.19653
G1 X177.28 Y141.615 E15.25689
G1 X177.546 Y142.818 E15.31067
G1 X177.546 Y158.736 E16.00555
G1 X178.45 Y158.917 E16.0458
G1 X179.393 Y159.438 E16.09283
G1 X180.126 Y160.049 E16.13449
G1 X180.853 Y161.225 E16.19484
G1 X181.119 Y162.428 E16.24863
G1 X181.119 Y187.099 E17.32561
G1 X180.888 Y188.255 E17.37707
G1 X180.367 Y189.198 E17.4241
G1 X179.756 Y189.931 E17.46576
G1 X178.58 Y190.658 E17.52612
G1 X177.377 Y190.924 E17.5799
G1 X152.706 Y190.924 E18.65689
G1 X151.55 Y190.693 E18.70835
G1 X150.607 Y190.172 E18.75538
G1 X149.874 Y189.561 E18.79704
G1 X149.147 Y188.385 E18.85739
G1 X148.881 Y187.182 E18.91117
G1 X148.881 Y162.511 E19.98816
G1 X149.112 Y161.355 E20.03962
G1 X149.633 Y160.412 E20.08665
G1 X150.244 Y159.679 E20.12831
G1 X151.42 Y158.952 E20.18866
G1 X152.454 Y158.723 E20.2349
G1 X152.454 Y142.901 E20.92559
G1 X152.685 Y141.745 E20.97705
G1 X153.206 Y140.802 E21.02408
G1 X153.817 Y140.069 E21.06574
G0 F7200 X154.166 Y140.47
G1 F3600 X155.191 Y139.836 E21.11835
G1 X156.255 Y139.601 E21.16592
G1 X173.668 Y139.601 E21.92606
G1 X174.693 Y139.806 E21.9717
G1 X175.526 Y140.266 E22.01324
G1 X176.152 Y140.788 E22.04882
G1 X176.786 Y141.813 E22.10143
G1 X177.021 Y142.877 E22.149
G1 X177.021 Y159.211 E22.86204
G1 X177.291 Y159.221 E22.87384
G1 X178.266 Y159.416 E22.91724
G1 X179.099 Y159.876 E22.95878
G1 X179.725 Y160.398 E22.99436
G1 X180.359 Y161.423 E23.04698
G1 X180.594 Y162.487 E23.09454
G1 X180.594 Y187.046 E24.16664
G1 X180.389 Y188.071 E24.21227
G1 X179.929 Y188.904 E24.25381
G1 X179.407 Y189.53 E24.28939
G1 X178.382 Y190.164 E24.34201
G1 X177.318 Y190.399 E24.38957
G1 X152.759 Y190.399 E25.46167
G1 X151.734 Y190.194 E25.5073
G1 X150.901 Y189.734 E25.54884
G1 X150.275 Y189.212 E25.58442
G1 X149.641 Y188.187 E25.63703
G1 X149.406 Y187.123 E25.6846
G1 X149.406 Y162.564 E26.7567
G1 X149.611 Y161.539 E26.80233
G1 X150.071 Y160.706 E26.84387
G1 X150.593 Y160.08 E26.87945
G1 X151.618 Y159.446 E26.93206
G1 X152.628 Y159.223 E26.97722
G1 X152.979 Y159.211 E26.99255
G1 X152.979 Y142.954 E27.70223
G1 X153.184 Y141.929 E27.74786
G1 X153.644 Y141.096 E27.7894
G1 X154.166 Y140.47 E27.82498
G0 F7200 X154.515 Y140.871
G1 F3600 X155.389 Y140.33 E27.86985
G1 X156.314 Y140.126 E27.9112
G1 X173.615 Y140.126 E28.66646
G1 X174.509 Y140.305 E28.70626
G1 X175.232 Y140.704 E28.74231
G1 X175.751 Y141.137 E28.77182
G1 X176.292 Y142.011 E28.81669
G1 X176.496 Y142.936 E28.85804
G1 X176.496 Y159.736 E29.59143
G1 X177.188 Y159.736 E29.62163
G1 X178.082 Y159.915 E29.66144
G1 X178.805 Y160.314 E29.69748
G1 X179.324 Y160.747 E29.72699
G1 X179.865 Y161.621 E29.77186
G1 X180.069 Y162.546 E29.81321
G1 X180.069 Y186.993 E30.88042
G1 X179.89 Y187.887 E30.92022
G1 X179.491 Y188.61 E30.95627
G1 X179.058 Y189.129 E30.98578
G1 X178.184 Y189.67 E31.03065
G1 X177.259 Y189.874 E31.072
G1 X152.812 Y189.874 E32.1392
G1 X151.918 Y189.695 E32.17901
G1 X151.195 Y189.296 E32.21505
G1 X150.676 Y188.863 E32.24456
G1 X150.135 Y187.989 E32.28943
G1 X149.931 Y187.064 E32.33078
G1 X149.931 Y162.617 E33.39799
G1 X150.11 Y161.723 E33.43779
G1 X150.509 Y161 E33.47384
G1 X150.942 Y160.481 E33.50335
G1 X151.816 Y159.94 E33.54822
G1 X152.741 Y159.736 E33.58957
G1 X153.504 Y159.736 E33.62288
G1 X153.504 Y143.007 E34.35316
G1 X153.683 Y142.113 E34.39296
G1 X154.082 Y141.39 E34.42901
G1 X154.515 Y140.871 E34.45852
G0 F7200 X154.864 Y141.273
G1 F3600 X155.59 Y140.824 E34.49578
G1 X156.373 Y140.651 E34.53079
G1 X173.562 Y140.651 E35.28116
G1 X174.327 Y140.804 E35.31521
G1 X174.933 Y141.138 E35.34542
G1 X175.349 Y141.486 E35.36909
G1 X175.798 Y142.212 E35.40636
G1 X175.971 Y142.995 E35.44136
G1 X175.971 Y160.261 E36.19509
G1 X177.135 Y160.261 E36.24591
G1 X177.9 Y160.414 E36.27996
G1 X178.506 Y160.748 E36.31017
G1 X178.922 Y161.096 E36.33385
G1 X179.371 Y161.822 E36.37111
G1 X179.544 Y162.605 E36.40611
G1 X179.544 Y186.94 E37.46843
G1 X179.391 Y187.705 E37.50249
G1 X179.057 Y188.311 E37.5327
G1 X178.709 Y188.727 E37.55637
G1 X177.983 Y189.176 E37.59364
G1 X177.2 Y189.349 E37.62864
G1 X152.865 Y189.349 E38.69096
G1 X152.1 Y189.196 E38.72502
G1 X151.494 Y188.862 E38.75522
G1 X151.078 Y188.514 E38.7789
G1 X150.629 Y187.788 E38.81616
G1 X150.456 Y187.005 E38.85117
G1 X150.456 Y162.67 E39.91349
G1 X150.609 Y161.905 E39.94754
G1 X150.943 Y161.299 E39.97775
G1 X151.291 Y160.883 E40.00143
G1 X152.017 Y160.434 E40.03869
G1 X152.8 Y160.261 E40.0737
G1 X154.029 Y160.261 E40.12735
G1 X154.029 Y143.06 E40.87824
G1 X154.182 Y142.295 E40.91229
G1 X154.516 Y141.689 E40.9425
G1 X154.864 Y141.273 E40.96618
G0 F7200 X155.213 Y141.674
G1 F3600 X155.788 Y141.318 E40.9957
G1 X156.432 Y141.176 E41.02449
G1 X173.509 Y141.176 E41.76997
G1 X174.144 Y141.303 E41.79824
G1 X174.679 Y141.598 E41.82491
G1 X174.948 Y141.835 E41.84056
G1 X175.304 Y142.41 E41.87008
G1 X175.446 Y143.054 E41.89887
G1 X175.446 Y160.132 E42.64439
G1 X175.377 Y160.597 E42.66491
G1 X175.309 Y160.786 E42.67368
G1 X177.082 Y160.786 E42.75108
G1 X177.717 Y160.913 E42.77935
G1 X178.252 Y161.208 E42.80602
G1 X178.521 Y161.445 E42.82167
G1 X178.877 Y162.02 E42.85119
G1 X179.019 Y162.664 E42.87998
G1 X179.019 Y186.887 E43.93741
G1 X178.892 Y187.522 E43.96568
G1 X178.597 Y188.057 E43.99235
G1 X178.36 Y188.326 E44.008
G1 X177.785 Y188.682 E44.03752
G1 X177.141 Y188.824 E44.06631
G1 X152.918 Y188.824 E45.12374
G1 X152.283 Y188.697 E45.152
G1 X151.748 Y188.402 E45.17868
G1 X151.479 Y188.165 E45.19433
G1 X151.123 Y187.59 E45.22385
G1 X150.981 Y186.946 E45.25264
G1 X150.981 Y162.723 E46.31007
G1 X151.108 Y162.088 E46.33833
G1 X151.403 Y161.553 E46.365
G1 X151.64 Y161.284 E46.38066
G1 X152.215 Y160.928 E46.41018
G1 X152.859 Y160.786 E46.43897
G1 X154.691 Y160.786 E46.51894
G1 X154.554 Y160.193 E46.54551
G1 X154.554 Y143.113 E47.29112
G1 X154.681 Y142.478 E47.31939
G1 X154.976 Y141.943 E47.34606
G1 X155.213 Y141.674 E47.36171
G0 F7200 X155.588 Y142.042
G1 F3600 X155.436 Y142.197 E47.37118
G1 X155.141 Y142.732 E47.39785
G1 X155.079 Y143.113 E47.41471
G1 X155.079 Y160.132 E48.15765
G1 X155.19 Y160.636 E48.18018
G1 X155.42 Y161.035 E48.20028
G1 X155.77 Y161.311 E48.21974
G1 X152.918 Y161.311 E48.34424
G1 X152.414 Y161.422 E48.36677
G1 X152.015 Y161.652 E48.38688
G1 X151.863 Y161.807 E48.39635
G1 X151.568 Y162.342 E48.42302
G1 X151.506 Y162.723 E48.43987
G1 X151.506 Y186.887 E49.49473
G1 X151.617 Y187.391 E49.51726
G1 X151.847 Y187.79 E49.53736
G1 X152.002 Y187.942 E49.54684
G1 X152.537 Y188.237 E49.57351
G1 X152.918 Y188.299 E49.59036
G1 X177.082 Y188.299 E50.64521
G1 X177.586 Y188.188 E50.66774
G1 X177.985 Y187.958 E50.68785
G1 X178.137 Y187.803 E50.69732
G1 X178.432 Y187.268 E50.72399
G1 X178.494 Y186.887 E50.74084
G1 X178.494 Y162.723 E51.7957
G1 X178.383 Y162.219 E51.81823
G1 X178.153 Y161.82 E51.83833
G1 X177.998 Y161.668 E51.84781
G1 X177.463 Y161.373 E51.87448
G1 X177.082 Y161.311 E51.89133
G1 X174.25 Y161.311 E52.01496
G1 X174.564 Y161.048 E52.03284
G1 X174.859 Y160.513 E52.05951
G1 X174.921 Y160.132 E52.07636
G1 X174.921 Y143.113 E52.8193
G1 X174.81 Y142.609 E52.84183
G1 X174.58 Y142.21 E52.86194
G1 X174.425 Y142.058 E52.87141
G1 X173.89 Y141.763 E52.89808
G1 X173.509 Y141.701 E52.91494
G1 X156.491 Y141.701 E53.65784
G1 X155.987 Y141.812 E53.68037
G1 X155.588 Y142.042 E53.70047
G1 F2700 E53.20047
G0 F7200 X156.278 Y142.82
G1 F2700 E53.70047
G1 F3600 X156.491 Y142.751 E53.71025
G1 X173.509 Y142.751 E54.45315
G1 X173.673 Y142.79 E54.46051
G1 X173.802 Y142.9 E54.46791
G1 X173.871 Y143.113 E54.47768
G1 X173.871 Y160.132 E55.22063
G1 X173.832 Y160.296 E55.22799
G1 X173.722 Y160.425 E55.23539
G1 X173.509 Y160.494 E55.24516
G1 X156.491 Y160.494 E55.98806
G1 X156.327 Y160.455 E55.99542
G1 X156.198 Y160.345 E56.00282
G1 X156.129 Y160.132 E56.0126
G1 X156.129 Y143.113 E56.75554
G1 X156.168 Y142.949 E56.7629
G1 X156.278 Y142.82 E56.7703
G0 F7200 X156.116 Y142.321
G1 F3600 X156.491 Y142.226 E56.78719
G1 X173.509 Y142.226 E57.53009
G1 X173.794 Y142.279 E57.54275
G1 X174.143 Y142.501 E57.5608
G1 X174.301 Y142.738 E57.57324
G1 X174.396 Y143.113 E57.59013
G1 X174.396 Y160.132 E58.33307
G1 X174.343 Y160.417 E58.34573
G1 X174.121 Y160.766 E58.36378
G1 X173.884 Y160.924 E58.37622
G1 X173.509 Y161.019 E58.39311
G1 X156.491 Y161.019 E59.13601
G1 X156.206 Y160.966 E59.14866
G1 X155.857 Y160.744 E59.16672
G1 X155.699 Y160.507 E59.17915
G1 X155.604 Y160.132 E59.19604
G1 X155.604 Y143.113 E59.93899
G1 X155.657 Y142.828 E59.95164
G1 X155.879 Y142.479 E59.9697
G1 X156.116 Y142.321 E59.98213
G1 F2700 E59.48213
G0 F7200 X152.918 Y162.058
G0 X152.918 Y162.361
G1 F2700 E59.98213
G1 F3600 X177.082 Y162.361 E61.03699
G1 X177.246 Y162.4 E61.04434
G1 X177.375 Y162.51 E61.05174
G1 X177.444 Y162.723 E61.06152
G1 X177.444 Y186.887 E62.11637
G1 X177.405 Y187.051 E62.12373
G1 X177.295 Y187.18 E62.13113
G1 X177.082 Y187.249 E62.14091
G1 X152.918 Y187.249 E63.19576
G1 X152.754 Y187.21 E63.20312
G1 X152.625 Y187.1 E63.21052
G1 X152.556 Y186.887 E63.22029
G1 X152.556 Y162.723 E64.27515
G1 X152.595 Y162.559 E64.28251
G1 X152.705 Y162.43 E64.28991
G1 X152.918 Y162.361 E64.29968
G0 F7200 X152.918 Y161.836
G1 F3600 X177.082 Y161.836 E65.35453
G1 X177.367 Y161.889 E65.36719
G1 X177.716 Y162.111 E65.38524
G1 X177.874 Y162.348 E65.39768
G1 X177.969 Y162.723 E65.41457
G1 X177.969 Y186.887 E66.46942
G1 X177.916 Y187.172 E66.48207
G1 X177.694 Y187.521 E66.50013
G1 X177.457 Y187.679 E66.51257
G1 X177.082 Y187.774 E66.52945
G1 X152.918 Y187.774 E67.58431
G1 X152.633 Y187.721 E67.59696
G1 X152.284 Y187.499 E67.61502
G1 X152.126 Y187.262 E67.62745
G1 X152.031 Y186.887 E67.64434
G1 X152.031 Y162.723 E68.69919
G1 X152.084 Y162.438 E68.71185
G1 X152.306 Y162.089 E68.7299
G1 X152.543 Y161.931 E68.74234
G1 X152.918 Y161.836 E68.75922
G1 F2700 E68.25922
;MESH:holes_test3.obj
G0 F7200 X155.826 Y159.708
G0 X156.915 Y159.708
G0 X157.276 Y159.344
;TYPE:WALL-INNER
G1 F2700 E68.75922
G1 F3566 X162.439 Y159.34 E68.98676
G1 F3264.2 X162.808 Y159.295 E69.00465
G1 F3247.4 X163.904 Y159.337 E69.05773
G1 F3795.2 X165 Y159.379 E69.10315
G1 X166.094 Y159.337 E69.14848
G1 F3247.4 X167.189 Y159.295 E69.20151
G1 F3258.6 X167.557 Y159.34 E69.21939
G1 F3566 X172.721 Y159.345 E69.44697
G1 F3546 X172.713 Y154.235 E69.67344
G1 F3181.8 X172.66 Y153.878 E69.69127
G1 F3124 X172.702 Y152.773 E69.74689
G1 F3627.6 X172.744 Y151.668 E69.7948
G1 F3634.6 X172.702 Y150.572 E69.84222
G1 F3129.1 X172.66 Y149.476 E69.89731
G1 F3198 X172.716 Y149.101 E69.91594
G1 F3566 X172.721 Y143.899 E70.14519
G1 X167.579 Y143.905 E70.3718
G1 F3134.3 X167.196 Y143.972 E70.39129
G1 F3004.8 X166.098 Y143.93 E70.44876
G1 F3467.9 X165 Y143.888 E70.49856
G1 X163.9 Y143.93 E70.54844
G1 F3004.8 X162.8 Y143.972 E70.60601
G1 F3134.3 X162.417 Y143.905 E70.62551
G1 F3566 X157.276 Y143.9 E70.85207
G1 X157.28 Y149.101 E71.08128
G1 F3203.4 X157.336 Y149.478 E71.09998
G1 F3129.1 X157.295 Y150.573 E71.15501
G1 F3620.7 X157.253 Y151.668 E71.20257
G1 X157.294 Y152.763 E71.25013
G1 F3129.1 X157.336 Y153.858 E71.30517
G1 F3203.4 X157.28 Y154.235 E71.32387
G1 F3566 X157.276 Y159.344 E71.54902
G0 F7200 X157.371 Y159.252
G0 X157.425 Y154.218
G0 X157.978 Y153.808
G1 F3118.8 X157.726 Y151.673 E71.65735
G1 X157.978 Y149.528 E71.76617
G1 F3203.4 X158.11 Y149.3 E71.7791
G1 F3566 X159.039 Y147.49 E71.86876
G1 F3600 X159.183 Y147.291 E71.87948
G1 X160.619 Y145.855 E71.96813
G1 X160.818 Y145.711 E71.97886
G1 F3566 X162.627 Y144.782 E72.06848
G1 F3134.3 X162.852 Y144.638 E72.08187
G1 F3000 X165 Y144.382 E72.19519
G1 X167.144 Y144.638 E72.3083
G1 F3134.3 X167.369 Y144.782 E72.32169
G1 F3566 X169.178 Y145.711 E72.41131
G1 F3600 X169.377 Y145.855 E72.42204
G1 X170.813 Y147.291 E72.51069
G1 X170.957 Y147.49 E72.52141
G1 F3566 X171.886 Y149.3 E72.61107
G1 F3198 X172.018 Y149.526 E72.62393
G1 F3124 X172.272 Y151.668 E72.73244
G1 F3118.8 X172.017 Y153.823 E72.84179
G1 F3181.8 X171.889 Y154.038 E72.85415
G1 F3546 X170.957 Y155.846 E72.9443
G1 F3600 X170.813 Y156.045 E72.95502
G1 X169.377 Y157.481 E73.04367
G1 X169.178 Y157.626 E73.05442
G1 F3442.6 X168.159 Y158.15 E73.10673
G1 F3155.3 X167.14 Y158.675 E73.16382
G1 F3241.9 X165.001 Y158.929 E73.26824
G1 X162.856 Y158.675 E73.37295
G1 F3155.3 X161.837 Y158.151 E73.43002
G1 F3442.6 X160.818 Y157.626 E73.48235
G1 F3600 X160.619 Y157.481 E73.4931
G1 X159.183 Y156.045 E73.58175
G1 X159.039 Y155.846 E73.59247
G1 F3566 X158.11 Y154.036 E73.68213
G1 F3203.4 X157.978 Y153.808 E73.69506
G0 F7200 X157.919 Y153.816
G0 X157.596 Y151.566
G0 X158.238 Y151.668
;TYPE:WALL-OUTER
G1 F3600 X158.563 Y149.577 E73.78743
G1 X159.526 Y147.69 E73.87992
G1 X161.018 Y146.198 E73.97203
G1 X162.906 Y145.235 E74.06455
G1 X165 Y144.906 E74.15708
G1 X167.092 Y145.236 E74.24953
