;FLAVOR:Marlin
;TIME:6996
;Filament used: 13.4913m
;Layer height: 0.15
;MINX:5.915
;MINY:110.92
;MINZ:0.15
;MAXX:114.075
;MAXY:219.08
;MAXZ:6.65
;TARGET_MACHINE.NAME:ELEGOO NEPTUNE 4 Plus
;Generated with Cura_SteamEngine 5.7.2
M104 S210
M105
M109 S210
M82 ;absolute extrusion mode
;ELEGOO NEPTUNE 4 PLUS
M220 S100 ;Set the feed speed to 100%
M221 S100 ;Set the flow rate to 100%
M104 S140 ;Start heating extruder
M190 S60 ;Wait for the bed to reach print temp
G90
G28 ;home
G1 Z10 F300
G1 X115 Y0 F6000
G1 Z0 F300
M109 S210 ;Wait for extruder to reach print temp
G92 E0 ;Reset Extruder
G1 X115 Y0 Z0.4 F300 ;Move to start position
G1 X215 E30 F400 ;Draw the first line
G1 Z0.6 F120.0 ;Move to side a little
G1 X210 F3000
G92 E0 ;Reset Extruder
G92 E0
G92 E0
G1 F2700 E-0.5
;LAYER_COUNT:43
;LAYER:0
M107
M204 S500
G1 F600 Z0.35
G0 F7200 X20.759 Y111.666 Z0.35
;TYPE:SKIRT
G1 F600 Z0.15
G1 F2700 E0
G1 F3600 X23.812 Y111.066 E0.10187
G1 X25.862 Y110.929 E0.16914
G1 X93.813 Y110.92 E2.39388
G1 X96.465 Y111.102 E2.48091
G1 X99.195 Y111.658 E2.57213
G1 X101.753 Y112.549 E2.66082
G1 X103.777 Y113.55 E2.73474
G1 X106.422 Y115.334 E2.8392
G1 X108.041 Y116.77 E2.91005
G1 X110.07 Y119.105 E3.01133
G1 X111.521 Y121.344 E3.09868
G1 X112.452 Y123.248 E3.16808
G1 X113.358 Y125.882 E3.25927
G1 X113.929 Y128.828 E3.35752
G1 X114.075 Y131.181 E3.43471
G1 X114.065 Y199.179 E5.66099
G1 X113.91 Y201.342 E5.73199
G1 X113.284 Y204.393 E5.83396
G1 X112.552 Y206.504 E5.90712
G1 X111.212 Y209.193 E6.00548
G1 X110.056 Y210.924 E6.07363
G1 X108.032 Y213.237 E6.17426
G1 X105.944 Y215.035 E6.26447
G1 X103.648 Y216.527 E6.35412
G1 X101.744 Y217.458 E6.42351
G1 X99.113 Y218.363 E6.51461
G1 X96.167 Y218.934 E6.61286
G1 X93.813 Y219.08 E6.69008
G1 X25.824 Y219.07 E8.91607
G1 X23.661 Y218.916 E8.98706
G1 X20.603 Y218.29 E9.08926
G1 X18.492 Y217.558 E9.16241
G1 X15.803 Y216.218 E9.26078
G1 X14.071 Y215.061 E9.32897
G1 X11.759 Y213.039 E9.42953
G1 X9.933 Y210.923 E9.52104
G1 X8.777 Y209.192 E9.58919
G1 X7.351 Y206.29 E9.69505
G1 X6.661 Y204.236 E9.766
G1 X6.061 Y201.172 E9.86822
G1 X5.915 Y198.819 E9.9454
G1 X5.925 Y130.829 E12.17143
G1 X6.089 Y128.598 E12.24467
G1 X6.712 Y125.593 E12.34515
G1 X7.544 Y123.241 E12.42683
G1 X8.544 Y121.219 E12.50068
G1 X10.333 Y118.568 E12.60539
G1 X11.864 Y116.854 E12.68064
G1 X14.071 Y114.939 E12.7763
G1 X15.803 Y113.782 E12.8445
G1 X18.705 Y112.356 E12.95036
G1 X20.759 Y111.666 E13.0213
G0 F7200 X20.926 Y112.164
G1 F3600 X23.847 Y111.59 E13.11877
G1 X25.897 Y111.453 E13.18604
G1 X93.813 Y111.445 E15.40964
G1 X96.429 Y111.626 E15.49549
G1 X99.023 Y112.154 E15.58216
G1 X101.52 Y113.02 E15.66869
G1 X103.544 Y114.021 E15.74262
G1 X106.074 Y115.727 E15.84252
G1 X107.693 Y117.163 E15.91338
G1 X109.63 Y119.391 E16.01004
G1 X111.049 Y121.575 E16.09531
G1 X111.98 Y123.479 E16.1647
G1 X112.843 Y125.983 E16.25141
G1 X113.405 Y128.861 E16.34742
G1 X113.55 Y131.181 E16.42353
G1 X113.541 Y199.141 E18.64857
G1 X113.386 Y201.304 E18.71957
G1 X112.788 Y204.222 E18.81709
G1 X112.082 Y206.27 E18.88801
G1 X110.775 Y208.901 E18.9842
G1 X109.619 Y210.632 E19.05235
G1 X107.689 Y212.839 E19.14834
G1 X105.601 Y214.637 E19.23855
G1 X103.417 Y216.055 E19.32381
G1 X101.513 Y216.986 E19.3932
G1 X99.012 Y217.848 E19.47981
G1 X96.134 Y218.41 E19.57581
G1 X93.813 Y218.555 E19.65195
G1 X25.861 Y218.546 E21.87673
G1 X23.698 Y218.392 E21.94773
G1 X20.774 Y217.794 E22.04544
G1 X18.726 Y217.088 E22.11637
G1 X16.095 Y215.781 E22.21255
G1 X14.363 Y214.624 E22.28075
G1 X12.156 Y212.696 E22.37669
G1 X10.37 Y210.631 E22.46608
G1 X9.214 Y208.9 E22.53423
G1 X7.849 Y206.123 E22.63554
G1 X7.159 Y204.069 E22.70648
G1 X6.585 Y201.139 E22.80424
G1 X6.44 Y198.819 E22.88034
G1 X6.449 Y130.866 E25.10515
G1 X6.603 Y128.704 E25.17612
G1 X7.207 Y125.767 E25.27429
G1 X8.015 Y123.474 E25.35389
G1 X9.015 Y121.452 E25.42774
G1 X10.725 Y118.918 E25.52783
G1 X12.256 Y117.204 E25.60307
G1 X14.363 Y115.376 E25.6944
G1 X16.095 Y114.219 E25.7626
G1 X18.872 Y112.854 E25.86391
G1 X20.926 Y112.164 E25.93485
G0 F7200 X21.093 Y112.662
G1 F3600 X23.882 Y112.114 E26.02791
G1 X25.932 Y111.977 E26.09518
G1 X93.813 Y111.97 E28.31763
G1 X96.392 Y112.15 E28.40227
G1 X98.852 Y112.65 E28.48446
G1 X101.287 Y113.491 E28.56881
G1 X103.311 Y114.492 E28.64273
G1 X105.726 Y116.12 E28.73809
G1 X107.297 Y117.508 E28.80672
G1 X109.19 Y119.678 E28.90101
G1 X110.577 Y121.806 E28.98417
G1 X111.508 Y123.71 E29.05356
G1 X112.346 Y126.153 E29.13812
G1 X112.881 Y128.894 E29.22956
G1 X113.025 Y131.181 E29.30458
G1 X113.017 Y199.103 E31.52838
G1 X112.862 Y201.266 E31.59938
G1 X112.291 Y204.052 E31.69249
G1 X111.611 Y206.037 E31.76119
G1 X110.338 Y208.609 E31.85514
G1 X109.182 Y210.34 E31.92329
G1 X107.346 Y212.442 E32.01467
G1 X105.315 Y214.197 E32.10255
G1 X103.186 Y215.583 E32.18573
G1 X101.282 Y216.514 E32.25512
G1 X98.842 Y217.351 E32.33957
G1 X96.101 Y217.886 E32.43101
G1 X93.813 Y218.03 E32.50607
G1 X25.898 Y218.022 E34.72963
G1 X23.735 Y217.868 E34.80063
G1 X20.944 Y217.297 E34.8939
G1 X18.959 Y216.617 E34.9626
G1 X16.387 Y215.344 E35.05656
G1 X14.655 Y214.187 E35.12475
G1 X12.553 Y212.352 E35.21611
G1 X10.807 Y210.339 E35.30335
G1 X9.651 Y208.608 E35.3715
G1 X8.347 Y205.956 E35.46826
G1 X7.657 Y203.902 E35.5392
G1 X7.109 Y201.106 E35.63248
G1 X6.965 Y198.819 E35.70751
G1 X6.973 Y130.903 E37.93111
G1 X7.127 Y128.741 E38.00207
G1 X7.702 Y125.941 E38.09566
G1 X8.486 Y123.707 E38.17317
G1 X9.486 Y121.685 E38.24703
G1 X11.117 Y119.267 E38.34252
G1 X12.601 Y117.6 E38.41559
G1 X14.655 Y115.813 E38.50473
G1 X16.387 Y114.656 E38.57293
G1 X19.039 Y113.352 E38.66968
G1 X21.093 Y112.662 E38.74062
G0 F7200 X21.26 Y113.16
G1 F3600 X23.917 Y112.638 E38.82928
G1 X25.967 Y112.501 E38.89655
G1 X93.813 Y112.495 E41.11786
G1 X96.355 Y112.674 E41.20129
G1 X98.681 Y113.147 E41.279
G1 X101.054 Y113.962 E41.36115
G1 X103.078 Y114.963 E41.43508
G1 X105.378 Y116.513 E41.52588
G1 X106.949 Y117.901 E41.59452
G1 X108.751 Y119.965 E41.68422
G1 X110.105 Y122.037 E41.76526
G1 X111.036 Y123.941 E41.83465
G1 X111.849 Y126.323 E41.91706
G1 X112.357 Y128.927 E42.00392
G1 X112.5 Y131.181 E42.07787
G1 X112.493 Y199.065 E44.30042
G1 X112.338 Y201.228 E44.37142
G1 X111.794 Y203.882 E44.46012
G1 X111.114 Y205.867 E44.52882
G1 X109.901 Y208.317 E44.61832
G1 X108.745 Y210.048 E44.68647
G1 X106.951 Y212.096 E44.77561
G1 X105.028 Y213.757 E44.85881
G1 X102.955 Y215.111 E44.93987
G1 X101.051 Y216.042 E45.00926
G1 X98.672 Y216.854 E45.09157
G1 X96.068 Y217.362 E45.17843
G1 X93.813 Y217.505 E45.25241
G1 X25.935 Y217.498 E47.47476
G1 X23.772 Y217.344 E47.54576
G1 X21.114 Y216.8 E47.63459
G1 X19.129 Y216.12 E47.70329
G1 X16.679 Y214.907 E47.79279
G1 X14.947 Y213.75 E47.86099
G1 X12.949 Y212.007 E47.9478
G1 X11.244 Y210.047 E48.03285
G1 X10.088 Y208.316 E48.101
G1 X8.845 Y205.789 E48.1932
G1 X8.155 Y203.735 E48.26414
G1 X7.633 Y201.073 E48.35296
G1 X7.49 Y198.819 E48.4269
G1 X7.497 Y130.94 E50.64929
G1 X7.651 Y128.778 E50.72026
G1 X8.198 Y126.114 E50.8093
G1 X8.957 Y123.94 E50.88469
G1 X9.957 Y121.918 E50.95854
G1 X11.509 Y119.616 E51.04944
G1 X12.993 Y117.949 E51.12251
G1 X14.947 Y116.25 E51.20729
G1 X16.679 Y115.093 E51.27548
G1 X19.206 Y113.85 E51.36769
G1 X21.26 Y113.16 E51.43863
G0 F7200 X21.427 Y113.658
G1 F3600 X23.952 Y113.162 E51.52288
G1 X26.002 Y113.025 E51.59015
G1 X93.813 Y113.02 E53.81031
G1 X96.318 Y113.198 E53.89253
G1 X98.51 Y113.644 E53.96577
G1 X100.883 Y114.459 E54.04791
G1 X102.844 Y115.433 E54.1196
G1 X105.03 Y116.906 E54.20591
G1 X106.601 Y118.294 E54.27454
G1 X108.312 Y120.253 E54.3597
G1 X109.634 Y122.269 E54.43863
G1 X110.539 Y124.111 E54.50582
G1 X111.352 Y126.493 E54.58823
G1 X111.833 Y128.96 E54.67052
G1 X111.975 Y131.181 E54.74338
G1 X111.969 Y199.027 E56.96469
G1 X111.814 Y201.19 E57.03569
G1 X111.297 Y203.712 E57.11998
G1 X110.617 Y205.697 E57.18868
G1 X109.464 Y208.025 E57.27373
G1 X108.308 Y209.756 E57.34188
G1 X106.607 Y211.699 E57.42643
G1 X104.74 Y213.318 E57.50734
G1 X102.723 Y214.64 E57.5863
G1 X100.881 Y215.545 E57.65349
G1 X98.502 Y216.357 E57.73579
G1 X96.035 Y216.838 E57.81808
G1 X93.813 Y216.98 E57.89098
G1 X25.972 Y216.974 E60.11213
G1 X23.809 Y216.82 E60.18312
G1 X21.284 Y216.303 E60.26751
G1 X19.299 Y215.623 E60.3362
G1 X16.971 Y214.47 E60.42126
G1 X15.239 Y213.313 E60.48946
G1 X13.295 Y211.612 E60.57403
G1 X11.681 Y209.755 E60.65458
G1 X10.525 Y208.024 E60.72273
G1 X9.343 Y205.622 E60.81038
G1 X8.653 Y203.568 E60.88132
G1 X8.157 Y201.04 E60.96567
G1 X8.015 Y198.819 E61.03853
G1 X8.021 Y130.977 E63.25971
G1 X8.175 Y128.815 E63.33067
G1 X8.694 Y126.287 E63.41517
G1 X9.453 Y124.113 E63.49056
G1 X10.427 Y122.152 E63.56225
G1 X11.901 Y119.965 E63.6486
G1 X13.385 Y118.298 E63.72167
G1 X15.239 Y116.687 E63.80208
G1 X16.971 Y115.53 E63.87028
G1 X19.373 Y114.348 E63.95793
G1 X21.427 Y113.658 E64.02887
G0 F7200 X21.594 Y114.156
G1 F3600 X23.987 Y113.686 E64.10871
G1 X26.037 Y113.549 E64.17598
G1 X93.813 Y113.545 E66.395
G1 X96.28 Y113.722 E66.47598
G1 X98.339 Y114.141 E66.54477
G1 X100.712 Y114.956 E66.62692
G1 X102.61 Y115.903 E66.69636
G1 X104.682 Y117.299 E66.77816
G1 X106.253 Y118.687 E66.8468
G1 X107.873 Y120.542 E66.92743
G1 X109.163 Y122.502 E67.00425
G1 X110.042 Y124.281 E67.06922
G1 X110.855 Y126.663 E67.15163
G1 X111.309 Y128.994 E67.22938
G1 X111.45 Y131.181 E67.30113
G1 X111.445 Y198.989 E69.52119
G1 X111.29 Y201.152 E69.59219
G1 X110.8 Y203.542 E69.67207
G1 X110.12 Y205.527 E69.74077
G1 X109.027 Y207.733 E69.82137
G1 X107.871 Y209.464 E69.88952
G1 X106.262 Y211.303 E69.96952
G1 X104.451 Y212.879 E70.04813
G1 X102.49 Y214.169 E70.12498
G1 X100.711 Y215.048 E70.18994
G1 X98.332 Y215.86 E70.27224
G1 X96.001 Y216.314 E70.35
G1 X93.813 Y216.455 E70.42178
G1 X26.009 Y216.45 E72.64171
G1 X23.846 Y216.296 E72.71271
G1 X21.454 Y215.806 E72.79265
G1 X19.469 Y215.126 E72.86135
G1 X17.263 Y214.033 E72.94195
G1 X15.531 Y212.876 E73.01015
G1 X13.641 Y211.217 E73.09249
G1 X12.118 Y209.463 E73.16854
G1 X10.962 Y207.732 E73.23669
G1 X9.841 Y205.455 E73.31978
G1 X9.151 Y203.401 E73.39073
G1 X8.681 Y201.006 E73.47064
G1 X8.54 Y198.819 E73.54239
G1 X8.545 Y131.014 E75.76235
G1 X8.699 Y128.852 E75.83332
G1 X9.19 Y126.459 E75.9133
G1 X9.923 Y124.347 E75.98649
G1 X10.897 Y122.386 E76.05818
G1 X12.293 Y120.314 E76.13998
G1 X13.777 Y118.647 E76.21305
G1 X15.531 Y117.124 E76.2891
G1 X17.263 Y115.967 E76.3573
G1 X19.54 Y114.846 E76.44039
G1 X21.594 Y114.156 E76.51134
G0 F7200 X21.761 Y114.654
G1 F3600 X24.022 Y114.21 E76.58678
G1 X26.072 Y114.073 E76.65404
G1 X93.813 Y114.07 E78.87191
G1 X96.176 Y114.237 E78.94947
G1 X98.169 Y114.638 E79.01603
G1 X100.478 Y115.426 E79.09591
G1 X102.376 Y116.373 E79.16536
G1 X104.334 Y117.692 E79.24265
G1 X105.905 Y119.08 E79.31129
G1 X107.435 Y120.831 E79.38742
G1 X108.692 Y122.735 E79.46211
G1 X109.571 Y124.514 E79.52708
G1 X110.358 Y126.832 E79.60723
G1 X110.785 Y129.028 E79.68047
G1 X110.925 Y131.181 E79.75111
G1 X110.921 Y198.951 E81.96993
G1 X110.766 Y201.114 E82.04093
G1 X110.303 Y203.372 E82.1164
G1 X109.623 Y205.357 E82.1851
G1 X108.59 Y207.441 E82.26125
G1 X107.434 Y209.172 E82.3294
G1 X105.917 Y210.908 E82.40488
G1 X104.162 Y212.441 E82.48117
G1 X102.257 Y213.698 E82.5559
G1 X100.478 Y214.577 E82.62086
G1 X98.163 Y215.363 E82.70091
G1 X95.967 Y215.79 E82.77415
G1 X93.813 Y215.93 E82.84482
G1 X26.046 Y215.926 E85.06355
G1 X23.883 Y215.772 E85.13454
G1 X21.624 Y215.309 E85.21004
G1 X19.639 Y214.629 E85.27874
G1 X17.555 Y213.596 E85.35489
G1 X15.823 Y212.439 E85.42309
G1 X14.037 Y210.872 E85.50088
G1 X12.555 Y209.171 E85.57474
G1 X11.399 Y207.44 E85.64289
G1 X10.339 Y205.288 E85.72143
G1 X9.649 Y203.234 E85.79237
G1 X9.205 Y200.972 E85.86785
G1 X9.065 Y198.819 E85.93849
G1 X9.069 Y131.051 E88.15724
G1 X9.223 Y128.889 E88.2282
G1 X9.686 Y126.63 E88.3037
G1 X10.393 Y124.581 E88.37467
G1 X11.367 Y122.62 E88.44636
G1 X12.686 Y120.662 E88.52365
G1 X14.122 Y119.043 E88.5945
G1 X15.823 Y117.561 E88.66837
G1 X17.555 Y116.404 E88.73656
G1 X19.707 Y115.344 E88.8151
G1 X21.761 Y114.654 E88.88605
G0 F7200 X21.928 Y115.152
G1 F3600 X24.057 Y114.734 E88.95708
G1 X26.107 Y114.597 E89.02435
G1 X93.813 Y114.595 E91.24107
G1 X96.072 Y114.752 E91.31521
G1 X98.065 Y115.153 E91.38177
G1 X100.244 Y115.896 E91.45715
G1 X102.142 Y116.843 E91.52659
G1 X103.986 Y118.085 E91.59938
G1 X105.557 Y119.473 E91.66802
G1 X106.997 Y121.121 E91.73967
G1 X108.221 Y122.968 E91.81222
G1 X109.1 Y124.747 E91.87718
G1 X109.843 Y126.933 E91.95277
G1 X110.261 Y129.062 E92.02381
G1 X110.4 Y131.181 E92.09334
G1 X110.397 Y198.913 E94.31091
G1 X110.242 Y201.076 E94.38191
G1 X109.806 Y203.202 E94.45297
G1 X109.126 Y205.187 E94.52166
G1 X108.153 Y207.149 E94.59337
G1 X106.997 Y208.88 E94.66151
G1 X105.522 Y210.562 E94.73476
G1 X103.872 Y212.003 E94.80648
G1 X102.024 Y213.227 E94.87905
G1 X100.245 Y214.106 E94.94402
G1 X98.062 Y214.848 E95.01951
G1 X95.933 Y215.266 E95.09055
G1 X93.813 Y215.405 E95.1601
G1 X26.083 Y215.402 E97.37761
G1 X23.92 Y215.248 E97.44861
G1 X21.794 Y214.812 E97.51967
G1 X19.809 Y214.132 E97.58836
G1 X17.847 Y213.159 E97.66007
G1 X16.115 Y212.002 E97.72826
G1 X14.432 Y210.526 E97.80155
G1 X12.992 Y208.879 E97.87318
G1 X11.836 Y207.148 E97.94133
G1 X10.837 Y205.121 E98.01532
G1 X10.147 Y203.067 E98.08626
G1 X9.729 Y200.938 E98.15729
G1 X9.59 Y198.819 E98.22682
G1 X9.593 Y131.088 E100.44436
G1 X9.747 Y128.926 E100.51533
G1 X10.183 Y126.8 E100.58638
G1 X10.863 Y124.815 E100.65508
G1 X11.837 Y122.854 E100.72677
G1 X13.079 Y121.01 E100.79956
G1 X14.468 Y119.438 E100.86824
G1 X16.115 Y117.998 E100.93987
G1 X17.847 Y116.841 E101.00806
G1 X19.874 Y115.842 E101.08205
G1 X21.928 Y115.152 E101.15299
G1 F2700 E100.65299
G1 F600 Z0.35
G0 F7200 X22.133 Y116.182 Z0.35
G1 F600 Z0.15
G1 F2700 E101.15299
G1 F3600 X24.127 Y115.782 E101.21957
G1 X26.177 Y115.645 E101.28684
G1 X93.813 Y115.645 E103.50127
G1 X95.864 Y115.782 E103.56858
G1 X97.857 Y116.183 E103.63513
G1 X99.779 Y116.837 E103.7016
G1 X101.559 Y117.716 E103.7666
G1 X103.291 Y118.872 E103.83478
G1 X104.814 Y120.212 E103.90119
G1 X106.123 Y121.704 E103.96618
G1 X107.279 Y123.434 E104.0343
G1 X108.158 Y125.213 E104.09927
G1 X108.813 Y127.138 E104.16584
G1 X109.213 Y129.132 E104.23243
G1 X109.35 Y131.181 E104.29966
G1 X109.349 Y198.842 E106.51491
G1 X109.212 Y200.869 E106.58143
G1 X108.812 Y202.863 E106.64802
G1 X108.158 Y204.785 E106.71449
G1 X107.279 Y206.565 E106.77948
G1 X106.123 Y208.296 E106.84763
G1 X104.782 Y209.82 E106.91409
G1 X103.29 Y211.129 E106.97908
G1 X101.558 Y212.285 E107.04726
G1 X99.779 Y213.164 E107.11222
G1 X97.857 Y213.818 E107.17869
G1 X95.863 Y214.218 E107.24528
G1 X93.813 Y214.355 E107.31255
G1 X26.154 Y214.354 E109.52773
G1 X24.127 Y214.218 E109.59425
G1 X22.133 Y213.818 E109.66083
G1 X20.211 Y213.164 E109.7273
G1 X18.431 Y212.285 E109.7923
G1 X16.699 Y211.128 E109.86049
G1 X15.174 Y209.786 E109.927
G1 X13.866 Y208.295 E109.99194
G1 X12.71 Y206.564 E110.06009
G1 X11.831 Y204.784 E110.12509
G1 X11.177 Y202.862 E110.19156
G1 X10.777 Y200.868 E110.25814
G1 X10.64 Y198.819 E110.32538
G1 X10.641 Y131.159 E112.54059
G1 X10.777 Y129.133 E112.60708
G1 X11.177 Y127.139 E112.67366
G1 X11.831 Y125.217 E112.74013
G1 X12.71 Y123.437 E112.80513
G1 X13.866 Y121.705 E112.8733
G1 X15.207 Y120.181 E112.93977
G1 X16.699 Y118.872 E113.00475
G1 X18.431 Y117.715 E113.07295
G1 X20.211 Y116.836 E113.13794
G1 X22.133 Y116.182 E113.20441
G0 F7200 X22.03 Y115.667
G1 F3600 X24.092 Y115.258 E113.27324
G1 X26.142 Y115.121 E113.34051
G1 X93.813 Y115.12 E115.55609
G1 X95.968 Y115.267 E115.62681
G1 X97.961 Y115.668 E115.69337
G1 X100.011 Y116.366 E115.76427
G1 X101.85 Y117.279 E115.83149
G1 X103.638 Y118.478 E115.90197
G1 X105.209 Y119.866 E115.97061
G1 X106.56 Y121.412 E116.03783
G1 X107.75 Y123.201 E116.10817
G1 X108.629 Y124.98 E116.17314
G1 X109.328 Y127.035 E116.24421
G1 X109.737 Y129.097 E116.31303
G1 X109.875 Y131.181 E116.38142
G1 X109.873 Y198.877 E118.59781
G1 X109.727 Y200.972 E118.66657
G1 X109.309 Y203.032 E118.73539
G1 X108.629 Y205.017 E118.80409
G1 X107.716 Y206.857 E118.87134
G1 X106.56 Y208.588 E118.93949
G1 X105.128 Y210.215 E119.01045
