;FLAVOR:Marlin
;TIME:2883
;Filament used: 6.14664m
;Layer height: 0.2
;MINX:3.095
;MINY:96.378
;MINZ:0.2
;MAXX:93.392
;MAXY:233.627
;MAXZ:10.2
;TARGET_MACHINE.NAME:ELEGOO NEPTUNE 4 Plus
;Generated with Cura_SteamEngine 5.7.2
M104 S210
M105
M109 S210
M82 ;absolute extrusion mode
;ELEGOO NEPTUNE 4 PLUS
M220 S100 ;Set the feed speed to 100%
M221 S100 ;Set the flow rate to 100%
M104 S140 ;Start heating extruder
M190 S60 ;Wait for the bed to reach print temp
G90
G28 ;home
G1 Z10 F300
G1 X115 Y0 F6000
G1 Z0 F300
M109 S210 ;Wait for extruder to reach print temp
G92 E0 ;Reset Extruder
G1 X115 Y0 Z0.4 F300 ;Move to start position
G1 X215 E30 F400 ;Draw the first line
G1 Z0.6 F120.0 ;Move to side a little
G1 X210 F3000
G92 E0 ;Reset Extruder
G92 E0
G92 E0
G1 F2700 E-0.5
;LAYER_COUNT:51
;LAYER:0
M107
M204 S500
G0 F7200 X13.248 Y96.378 Z0.2
;TYPE:SKIRT
G1 F2700 E0
G1 F3600 X15.27 Y96.466 E0.08835
G1 X17.059 Y97.057 E0.1706
G1 X18.297 Y97.757 E0.23268
G1 X27.643 Y105.604 E0.76541
G1 X68.82 Y105.604 E2.56295
G1 X78.269 Y97.671 E3.10153
G1 X79.504 Y97.021 E3.16246
G1 X81.146 Y96.484 E3.23787
G1 X82.669 Y96.408 E3.30444
G1 X84.159 Y96.516 E3.36965
G1 X86.075 Y97.213 E3.45866
G1 X87.777 Y98.403 E3.54932
G1 X92.14 Y103.596 E3.8454
G1 X93.042 Y105.484 E3.93674
G1 X93.392 Y107.483 E4.02534
G1 X93.22 Y109.466 E4.11223
G1 X92.532 Y111.342 E4.19945
G1 X91.345 Y113.041 E4.28993
G1 X83.481 Y119.642 E4.73813
G1 X83.481 Y210.336 E8.69728
G1 X91.138 Y216.855 E9.13628
G1 X92.058 Y217.985 E9.19989
G1 X92.91 Y219.647 E9.28142
G1 X93.333 Y221.611 E9.36912
G1 X93.22 Y223.646 E9.45809
G1 X92.629 Y225.415 E9.53951
G1 X91.929 Y226.629 E9.60069
G1 X87.84 Y231.433 E9.87608
G1 X86.75 Y232.32 E9.93743
G1 X85.073 Y233.2 E10.0201
G1 X83.084 Y233.627 E10.10891
G1 X81.068 Y233.514 E10.19705
G1 X79.178 Y232.905 E10.28374
G1 X77.665 Y231.872 E10.36371
G1 X68.808 Y224.341 E10.87123
G1 X27.656 Y224.341 E12.66768
G1 X18.413 Y232.202 E13.19736
G1 X17.108 Y232.959 E13.26322
G1 X15.379 Y233.518 E13.34255
G1 X13.367 Y233.625 E13.4305
G1 X11.426 Y233.21 E13.51715
G1 X9.851 Y232.402 E13.59442
G1 X8.694 Y231.517 E13.65801
G1 X4.53 Y226.618 E13.93869
G1 X3.828 Y225.389 E14.00047
G1 X3.239 Y223.628 E14.08153
G1 X3.14 Y221.567 E14.17161
G1 X3.557 Y219.647 E14.25738
G1 X4.385 Y218.017 E14.33719
G1 X5.339 Y216.845 E14.40316
G1 X12.983 Y210.337 E14.84141
G1 X12.983 Y119.638 E18.80077
G1 X5.488 Y113.311 E19.22895
G1 X4.452 Y112.208 E19.29501
G1 X3.52 Y110.409 E19.38346
G1 X3.095 Y108.481 E19.46964
G1 X3.184 Y106.439 E19.55887
G1 X3.772 Y104.66 E19.64066
G1 X4.461 Y103.44 E19.70183
G1 X8.6 Y98.508 E19.9829
G1 X9.719 Y97.646 E20.04456
G1 X11.289 Y96.81 E20.12221
G1 X13.248 Y96.378 E20.20978
G0 F7200 X13.293 Y96.906
G1 F3600 X15.178 Y96.988 E20.29214
G1 X16.845 Y97.539 E20.36879
G1 X17.995 Y98.189 E20.42645
G1 X27.452 Y106.129 E20.9655
G1 X69.012 Y106.129 E22.77976
G1 X78.564 Y98.109 E23.32423
G1 X79.71 Y97.506 E23.38076
G1 X81.243 Y97.005 E23.45116
G1 X82.631 Y96.932 E23.51184
G1 X84.05 Y97.035 E23.57395
G1 X85.831 Y97.683 E23.65668
G1 X87.419 Y98.793 E23.74126
G1 X91.695 Y103.883 E24.03146
G1 X92.538 Y105.647 E24.11681
G1 X92.863 Y107.505 E24.19915
G1 X92.703 Y109.35 E24.27999
G1 X92.062 Y111.098 E24.36127
G1 X90.955 Y112.682 E24.44563
G1 X82.956 Y119.397 E24.90154
G1 X82.956 Y210.578 E28.88195
G1 X90.763 Y217.225 E29.32955
G1 X91.616 Y218.273 E29.38854
G1 X92.411 Y219.824 E29.46463
G1 X92.805 Y221.653 E29.5463
G1 X92.7 Y223.546 E29.62906
G1 X92.148 Y225.198 E29.7051
G1 X91.498 Y226.325 E29.76189
G1 X87.472 Y231.055 E30.03305
G1 X86.459 Y231.88 E30.09008
G1 X84.891 Y232.702 E30.16736
G1 X83.043 Y233.099 E30.24988
G1 X81.167 Y232.994 E30.3319
G1 X79.412 Y232.428 E30.4124
G1 X77.961 Y231.438 E30.48908
G1 X69.001 Y223.816 E31.00259
G1 X27.463 Y223.816 E32.81589
G1 X18.108 Y231.773 E33.35202
G1 X16.896 Y232.476 E33.41318
G1 X15.281 Y232.998 E33.48727
G1 X13.408 Y233.097 E33.56915
G1 X11.603 Y232.711 E33.64973
G1 X10.134 Y231.958 E33.72179
G1 X9.057 Y231.134 E33.78099
G1 X4.961 Y226.315 E34.05708
G1 X4.309 Y225.174 E34.11445
G1 X3.759 Y223.529 E34.19017
G1 X3.667 Y221.612 E34.27395
G1 X4.055 Y219.825 E34.35377
G1 X4.829 Y218.303 E34.42831
G1 X5.714 Y217.215 E34.48954
G1 X13.508 Y210.579 E34.93639
G1 X13.508 Y119.394 E38.91698
G1 X5.871 Y112.952 E39.35313
G1 X4.884 Y111.901 E39.41607
G1 X4.019 Y110.231 E39.49817
G1 X3.623 Y108.436 E39.57841
G1 X3.706 Y106.535 E39.66148
G1 X4.256 Y104.87 E39.73803
G1 X4.895 Y103.739 E39.79473
G1 X8.964 Y98.89 E40.07107
G1 X10.005 Y98.088 E40.12843
G1 X11.47 Y97.308 E40.20088
G1 X13.293 Y96.906 E40.28238
G0 F7200 X13.338 Y97.434
G1 F3600 X15.086 Y97.51 E40.35876
G1 X16.631 Y98.021 E40.42979
G1 X17.693 Y98.621 E40.48304
G1 X27.261 Y106.654 E41.02841
G1 X69.203 Y106.654 E42.85935
G1 X78.857 Y98.549 E43.40961
G1 X79.919 Y97.99 E43.462
G1 X81.341 Y97.525 E43.52731
G1 X82.593 Y97.456 E43.58205
G1 X83.941 Y97.554 E43.64105
G1 X85.587 Y98.153 E43.71752
G1 X87.061 Y99.183 E43.79601
G1 X91.25 Y104.17 E44.08033
G1 X92.033 Y105.809 E44.15962
G1 X92.334 Y107.528 E44.23581
G1 X92.186 Y109.234 E44.31056
G1 X91.592 Y110.854 E44.38588
G1 X90.565 Y112.324 E44.46416
G1 X82.431 Y119.152 E44.92777
G1 X82.431 Y210.821 E48.92948
G1 X90.388 Y217.595 E49.38566
G1 X91.174 Y218.561 E49.44002
G1 X91.912 Y220.001 E49.51066
G1 X92.277 Y221.695 E49.58631
G1 X92.18 Y223.446 E49.66286
G1 X91.667 Y224.981 E49.73351
G1 X91.067 Y226.021 E49.78593
G1 X87.102 Y230.68 E50.05299
G1 X86.171 Y231.438 E50.1054
G1 X84.709 Y232.204 E50.17745
G1 X83.002 Y232.571 E50.25367
G1 X81.266 Y232.474 E50.32958
G1 X79.644 Y231.951 E50.40397
G1 X78.301 Y231.038 E50.47486
G1 X69.194 Y223.291 E50.9968
G1 X27.27 Y223.291 E52.82695
G1 X17.803 Y231.344 E53.36952
G1 X16.685 Y231.992 E53.42593
G1 X15.182 Y232.478 E53.49488
G1 X13.449 Y232.569 E53.57064
G1 X11.782 Y232.213 E53.64505
G1 X10.415 Y231.512 E53.71212
G1 X9.421 Y230.751 E53.76676
G1 X5.392 Y226.012 E54.0383
G1 X4.791 Y224.96 E54.09119
G1 X4.279 Y223.429 E54.16166
G1 X4.194 Y221.657 E54.23911
G1 X4.553 Y220.003 E54.31299
G1 X5.273 Y218.589 E54.38226
G1 X6.089 Y217.585 E54.43874
G1 X14.033 Y210.822 E54.89418
G1 X14.033 Y119.151 E58.89597
G1 X6.254 Y112.593 E59.34013
G1 X5.317 Y111.595 E59.39989
G1 X4.517 Y110.051 E59.4758
G1 X4.151 Y108.391 E59.55001
G1 X4.228 Y106.627 E59.62709
G1 X4.738 Y105.084 E59.69803
G1 X5.329 Y104.038 E59.75048
G1 X9.328 Y99.272 E60.02207
G1 X10.291 Y98.53 E60.07514
G1 X11.651 Y97.806 E60.1424
G1 X13.338 Y97.434 E60.21781
G0 F7200 X13.383 Y97.962
G1 F3600 X14.99 Y98.032 E60.28803
G1 X16.419 Y98.504 E60.35372
G1 X17.393 Y99.055 E60.40257
G1 X27.069 Y107.179 E60.95411
G1 X69.395 Y107.179 E62.80181
G1 X79.152 Y98.987 E63.35796
G1 X80.125 Y98.475 E63.40595
G1 X81.439 Y98.045 E63.46631
G1 X82.555 Y97.98 E63.51511
G1 X83.833 Y98.073 E63.57105
G1 X85.342 Y98.622 E63.64114
G1 X86.703 Y99.573 E63.71362
G1 X90.805 Y104.457 E63.99205
G1 X91.529 Y105.972 E64.06535
G1 X91.805 Y107.55 E64.13528
G1 X91.669 Y109.118 E64.20399
G1 X91.122 Y110.61 E64.27336
G1 X90.175 Y111.965 E64.34553
G1 X81.906 Y118.907 E64.81684
G1 X81.906 Y211.064 E68.83986
G1 X90.01 Y217.963 E69.30446
G1 X90.734 Y218.852 E69.35451
G1 X91.414 Y220.179 E69.4196
G1 X91.749 Y221.736 E69.48913
G1 X91.66 Y223.346 E69.55952
G1 X91.186 Y224.764 E69.62479
G1 X90.636 Y225.717 E69.67282
G1 X86.732 Y230.305 E69.9358
G1 X85.883 Y230.996 E69.98359
G1 X84.527 Y231.706 E70.0504
G1 X82.961 Y232.043 E70.12033
G1 X81.365 Y231.954 E70.19011
G1 X79.876 Y231.474 E70.2584
G1 X78.641 Y230.638 E70.32351
G1 X69.387 Y222.766 E70.85387
G1 X27.077 Y222.766 E72.70087
G1 X17.498 Y230.915 E73.24987
G1 X16.473 Y231.509 E73.30159
G1 X15.084 Y231.958 E73.36531
G1 X13.491 Y232.041 E73.43495
G1 X11.959 Y231.714 E73.50333
G1 X10.698 Y231.068 E73.56518
G1 X9.784 Y230.368 E73.61544
G1 X5.823 Y225.709 E73.88239
G1 X5.273 Y224.746 E73.93081
G1 X4.799 Y223.329 E73.99603
G1 X4.721 Y221.702 E74.06714
G1 X5.051 Y220.181 E74.13508
G1 X5.716 Y218.875 E74.19906
G1 X6.464 Y217.955 E74.25082
G1 X14.558 Y211.064 E74.71487
G1 X14.558 Y118.907 E78.73788
G1 X6.637 Y112.234 E79.19001
G1 X5.749 Y111.288 E79.24665
G1 X5.016 Y109.873 E79.31622
G1 X4.678 Y108.342 E79.38466
G1 X4.749 Y106.723 E79.45541
G1 X5.22 Y105.298 E79.52092
G1 X5.763 Y104.337 E79.56911
G1 X9.692 Y99.654 E79.83596
G1 X10.577 Y98.972 E79.88473
G1 X11.832 Y98.304 E79.9468
G1 X13.383 Y97.962 E80.01613
G0 F7200 X13.428 Y98.49
G1 F3600 X14.898 Y98.554 E80.08036
G1 X16.205 Y98.986 E80.14045
G1 X17.091 Y99.487 E80.18489
G1 X26.878 Y107.704 E80.74274
G1 X69.587 Y107.704 E82.60716
G1 X79.445 Y99.427 E83.16907
G1 X80.334 Y98.959 E83.21293
G1 X81.537 Y98.565 E83.26819
G1 X82.517 Y98.504 E83.31105
G1 X83.725 Y98.592 E83.36393
G1 X85.097 Y99.091 E83.42766
G1 X86.345 Y99.963 E83.49412
G1 X90.36 Y104.744 E83.76666
G1 X91.024 Y106.134 E83.83391
G1 X91.276 Y107.573 E83.89768
G1 X91.152 Y109.002 E83.9603
G1 X90.652 Y110.366 E84.02372
G1 X89.785 Y111.607 E84.0898
G1 X81.381 Y118.662 E84.56881
G1 X81.381 Y211.307 E88.61312
G1 X89.632 Y218.331 E89.08615
G1 X90.294 Y219.143 E89.13189
G1 X90.916 Y220.357 E89.19143
G1 X91.221 Y221.777 E89.25484
G1 X91.14 Y223.246 E89.31906
G1 X90.705 Y224.547 E89.37894
G1 X90.205 Y225.414 E89.42264
G1 X86.362 Y229.93 E89.6815
G1 X85.593 Y230.556 E89.72478
G1 X84.347 Y231.208 E89.78617
G1 X82.92 Y231.515 E89.84989
G1 X81.464 Y231.434 E89.91355
G1 X80.106 Y230.996 E89.97584
G1 X78.981 Y230.238 E90.03506
G1 X69.58 Y222.241 E90.57384
G1 X26.884 Y222.241 E92.43769
G1 X17.192 Y230.486 E92.99317
G1 X16.261 Y231.026 E93.04015
G1 X14.986 Y231.438 E93.09865
G1 X13.532 Y231.513 E93.1622
G1 X12.137 Y231.216 E93.22447
G1 X10.982 Y230.624 E93.28112
G1 X10.148 Y229.985 E93.32699
G1 X6.254 Y225.406 E93.58939
G1 X5.755 Y224.532 E93.63332
G1 X5.319 Y223.229 E93.6933
G1 X5.248 Y221.747 E93.75807
G1 X5.549 Y220.359 E93.82007
G1 X6.159 Y219.161 E93.87876
G1 X6.839 Y218.325 E93.9258
G1 X15.083 Y211.306 E94.39845
G1 X15.083 Y118.662 E98.44273
G1 X7.02 Y111.875 E98.90281
G1 X6.182 Y110.982 E98.95627
G1 X5.514 Y109.693 E99.01964
G1 X5.205 Y108.293 E99.08223
G1 X5.27 Y106.819 E99.14664
G1 X5.702 Y105.512 E99.20673
G1 X6.197 Y104.636 E99.25065
G1 X10.055 Y100.038 E99.51267
G1 X10.864 Y99.414 E99.55727
G1 X12.015 Y98.802 E99.61418
G1 X13.428 Y98.49 E99.67735
G0 F7200 X13.473 Y99.018
G1 F3600 X14.802 Y99.076 E99.73542
G1 X15.995 Y99.47 E99.79026
G1 X16.789 Y99.919 E99.83008
G1 X26.687 Y108.229 E100.39426
G1 X69.779 Y108.229 E102.2754
G1 X79.738 Y99.867 E102.84307
G1 X80.543 Y99.443 E102.88279
G1 X81.636 Y99.085 E102.933
G1 X82.479 Y99.028 E102.96988
G1 X83.617 Y99.111 E103.01969
G1 X84.852 Y99.56 E103.07706
G1 X85.987 Y100.353 E103.1375
G1 X89.915 Y105.031 E103.40416
G1 X90.52 Y106.297 E103.46541
G1 X90.747 Y107.595 E103.52293
G1 X90.635 Y108.886 E103.5795
G1 X90.182 Y110.122 E103.63697
G1 X89.395 Y111.248 E103.69694
G1 X80.856 Y118.417 E104.18365
G1 X80.856 Y211.549 E108.24923
G1 X89.254 Y218.699 E108.73071
G1 X89.852 Y219.433 E108.77204
G1 X90.418 Y220.536 E108.82616
G1 X90.693 Y221.818 E108.8834
G1 X90.62 Y223.146 E108.94146
G1 X90.225 Y224.328 E108.99586
G1 X89.772 Y225.112 E109.03539
G1 X85.992 Y229.555 E109.29004
G1 X85.303 Y230.116 E109.32883
G1 X84.167 Y230.71 E109.38479
G1 X82.879 Y230.987 E109.4423
G1 X81.563 Y230.914 E109.49984
G1 X80.336 Y230.518 E109.55612
G1 X79.321 Y229.838 E109.60945
G1 X69.773 Y221.716 E110.15666
G1 X26.691 Y221.716 E112.03736
G1 X16.887 Y230.057 E112.59928
G1 X16.05 Y230.542 E112.64151
G1 X14.887 Y230.918 E112.69487
G1 X13.577 Y230.985 E112.75213
G1 X12.313 Y230.716 E112.80854
G1 X11.264 Y230.178 E112.86001
G1 X10.512 Y229.602 E112.90136
G1 X6.687 Y225.105 E113.15908
G1 X6.236 Y224.316 E113.19875
G1 X5.839 Y223.129 E113.25339
G1 X5.775 Y221.793 E113.31178
G1 X6.048 Y220.537 E113.36789
G1 X6.603 Y219.447 E113.42128
G1 X7.214 Y218.695 E113.46358
G1 X15.608 Y211.549 E113.94481
G1 X15.608 Y118.417 E118.01039
G1 X7.403 Y111.516 E118.47842
G1 X6.615 Y110.676 E118.52869
G1 X6.012 Y109.513 E118.58588
G1 X5.732 Y108.244 E118.64261
G1 X5.791 Y106.915 E118.70068
G1 X6.184 Y105.726 E118.75535
G1 X6.631 Y104.935 E118.79501
G1 X10.418 Y100.422 E119.0522
G1 X11.149 Y99.858 E119.0925
G1 X12.2 Y99.299 E119.14447
G1 X13.473 Y99.018 E119.20138
G0 F7200 X13.518 Y99.546
G1 F3600 X14.71 Y99.598 E119.25346
G1 X15.781 Y99.952 E119.3027
G1 X16.487 Y100.351 E119.3381
G1 X26.495 Y108.754 E119.90857
G1 X69.97 Y108.754 E121.80642
G1 X80.031 Y100.307 E122.3799
G1 X80.751 Y99.928 E122.41542
G1 X81.736 Y99.605 E122.46067
G1 X82.441 Y99.552 E122.49153
G1 X83.509 Y99.63 E122.53828
G1 X84.607 Y100.029 E122.58928
G1 X85.629 Y100.743 E122.6437
G1 X89.47 Y105.318 E122.90447
G1 X90.015 Y106.459 E122.95967
G1 X90.218 Y107.618 E123.01104
G1 X90.118 Y108.77 E123.06151
G1 X89.712 Y109.878 E123.11303
G1 X89.005 Y110.89 E123.16692
G1 X80.331 Y118.172 E123.66132
G1 X80.331 Y211.792 E127.7482
G1 X88.879 Y219.069 E128.23826
G1 X89.409 Y219.72 E128.2749
G1 X89.92 Y220.715 E128.32373
G1 X90.165 Y221.859 E128.37481
G1 X90.1 Y223.046 E128.4267
G1 X89.745 Y224.108 E128.47558
G1 X89.339 Y224.811 E128.51102
G1 X85.624 Y229.177 E128.76127
G1 X85.01 Y229.677 E128.79584
G1 X83.987 Y230.212 E128.84624
G1 X82.838 Y230.459 E128.89754
G1 X81.662 Y230.394 E128.94896
G1 X80.566 Y230.04 E128.99923
G1 X79.661 Y229.438 E129.04668
G1 X69.966 Y221.191 E129.60232
G1 X26.498 Y221.191 E131.49987
G1 X16.581 Y229.628 E132.06826
G1 X15.838 Y230.059 E132.10575
G1 X14.789 Y230.398 E132.15388
G1 X13.622 Y230.457 E132.20489
G1 X12.489 Y230.216 E132.25545
G1 X11.546 Y229.732 E132.30173
G1 X10.876 Y229.219 E132.33856
G1 X7.12 Y224.804 E132.5916
G1 X6.717 Y224.099 E132.62705
G1 X6.359 Y223.029 E132.67631
G1 X6.302 Y221.838 E132.72836
G1 X6.546 Y220.715 E132.77853
G1 X7.046 Y219.733 E132.82663
G1 X7.589 Y219.065 E132.86421
G1 X16.133 Y211.791 E133.35405
G1 X16.133 Y118.172 E137.44089
G1 X7.786 Y111.157 E137.91686
G1 X7.048 Y110.37 E137.96396
G1 X6.51 Y109.333 E138.01496
G1 X6.259 Y108.195 E138.06583
G1 X6.312 Y107.011 E138.11757
G1 X6.666 Y105.94 E138.16681
G1 X7.065 Y105.234 E138.20221
G1 X10.781 Y100.806 E138.45456
G1 X11.438 Y100.299 E138.49079
G1 X12.381 Y99.797 E138.53742
G1 X13.518 Y99.546 E138.58825
G0 F7200 X13.567 Y100.073
G1 F3600 X14.614 Y100.119 E138.634
G1 X15.567 Y100.434 E138.67782
G1 X16.185 Y100.783 E138.7088
G1 X26.303 Y109.279 E139.28555
G1 X70.161 Y109.279 E141.20013
G1 X80.327 Y100.744 E141.77958
G1 X80.955 Y100.413 E141.81057
G1 X81.837 Y100.124 E141.85109
G1 X82.48 Y100.076 E141.87924
G1 X83.399 Y100.148 E141.91948
G1 X84.362 Y100.498 E141.96421
G1 X85.271 Y101.133 E142.01261
G1 X89.025 Y105.605 E142.2675
G1 X89.511 Y106.622 E142.3167
G1 X89.689 Y107.64 E142.36181
G1 X89.601 Y108.655 E142.40629
G1 X89.243 Y109.633 E142.45175
G1 X88.615 Y110.532 E142.49963
G1 X79.806 Y117.927 E143.00171
G1 X79.806 Y212.035 E147.10989
G1 X88.501 Y219.437 E147.60838
G1 X88.969 Y220.011 E147.64071
G1 X89.421 Y220.893 E147.68397
G1 X89.637 Y221.9 E147.72893
G1 X89.58 Y222.945 E147.77462
G1 X89.263 Y223.892 E147.81821
G1 X88.908 Y224.507 E147.84921
G1 X85.256 Y228.799 E148.09522
G1 X84.717 Y229.238 E148.12557
G1 X83.807 Y229.714 E148.1704
G1 X82.797 Y229.931 E148.2155
G1 X81.758 Y229.874 E148.26092
G1 X80.797 Y229.563 E148.30501
G1 X80.001 Y229.038 E148.34664
G1 X70.159 Y220.666 E148.9107
G1 X26.305 Y220.666 E150.8251
G1 X16.276 Y229.199 E151.39993
G1 X15.627 Y229.575 E151.43267
G1 X14.69 Y229.878 E151.47566
G1 X13.667 Y229.929 E151.52037
G1 X12.665 Y229.716 E151.56509
G1 X11.827 Y229.286 E151.60621
G1 X11.239 Y228.836 E151.63853
G1 X7.551 Y224.501 E151.88699
G1 X7.199 Y223.885 E151.91796
G1 X6.879 Y222.929 E151.96197
G1 X6.829 Y221.883 E152.00768
G1 X7.044 Y220.893 E152.05191
G1 X7.489 Y220.019 E152.09472
G1 X7.964 Y219.435 E152.12758
G1 X16.658 Y212.034 E152.626
G1 X16.658 Y117.927 E156.73414
G1 X8.169 Y110.798 E157.21806
G1 X7.481 Y110.064 E157.26198
G1 X7.008 Y109.153 E157.30679
G1 X6.786 Y108.147 E157.35176
G1 X6.833 Y107.107 E157.39721
G1 X7.148 Y106.154 E157.44103
G1 X7.497 Y105.536 E157.47201
G1 X11.149 Y101.185 E157.71999
G1 X11.721 Y100.743 E157.75154
G1 X12.564 Y100.295 E157.79322
