;FLAVOR:Marlin
;TIME:6812
;Filament used: 13.8495m
;Layer height: 0.15
;MINX:2.872
;MINY:110.92
;MINZ:0.15
;MAXX:111.032
;MAXY:219.08
;MAXZ:6.65
;TARGET_MACHINE.NAME:ELEGOO NEPTUNE 4 Plus
;Generated with Cura_SteamEngine 5.7.2
M104 S210
M105
M109 S210
M82 ;absolute extrusion mode
;ELEGOO NEPTUNE 4 PLUS
M220 S100 ;Set the feed speed to 100%
M221 S100 ;Set the flow rate to 100%
M104 S140 ;Start heating extruder
M190 S60 ;Wait for the bed to reach print temp
G90
G28 ;home
G1 Z10 F300
G1 X115 Y0 F6000
G1 Z0 F300
M109 S210 ;Wait for extruder to reach print temp
G92 E0 ;Reset Extruder
G1 X115 Y0 Z0.4 F300 ;Move to start position
G1 X215 E30 F400 ;Draw the first line
G1 Z0.6 F120.0 ;Move to side a little
G1 X210 F3000
G92 E0 ;Reset Extruder
G92 E0
G92 E0
G1 F2700 E-0.5
;LAYER_COUNT:43
;LAYER:0
M107
M204 S500
G1 F600 Z0.35
G0 F7200 X20.768 Y111.067 Z0.35
;TYPE:SKIRT
G1 F600 Z0.15
G1 F2700 E0
G1 F3600 X22.818 Y110.93 E0.06727
G1 X90.77 Y110.92 E2.29205
G1 X93.42 Y111.102 E2.37901
G1 X96.219 Y111.674 E2.47255
G1 X98.461 Y112.444 E2.55016
G1 X101.111 Y113.771 E2.64719
G1 X103.39 Y115.341 E2.7378
G1 X105.104 Y116.872 E2.81304
G1 X106.811 Y118.817 E2.89777
G1 X108.478 Y121.344 E2.99689
G1 X109.409 Y123.248 E3.06628
G1 X110.315 Y125.881 E3.15744
G1 X110.887 Y128.829 E3.25576
G1 X111.032 Y131.181 E3.33291
G1 X111.021 Y199.184 E5.55936
G1 X110.85 Y201.48 E5.63474
G1 X110.291 Y204.205 E5.72582
G1 X109.338 Y206.904 E5.81953
G1 X108.169 Y209.193 E5.90368
G1 X107.013 Y210.924 E5.97183
G1 X105.05 Y213.179 E6.06972
G1 X102.984 Y214.977 E6.15939
G1 X101.024 Y216.286 E6.23655
G1 X98.242 Y217.644 E6.33791
G1 X96.189 Y218.334 E6.40882
G1 X93.125 Y218.934 E6.51104
G1 X90.77 Y219.08 E6.58829
G1 X22.781 Y219.07 E8.81428
G1 X20.549 Y218.906 E8.88756
G1 X17.543 Y218.284 E8.98806
G1 X15.369 Y217.525 E9.06345
G1 X12.986 Y216.343 E9.15054
G1 X10.526 Y214.674 E9.24787
G1 X8.952 Y213.284 E9.31662
G1 X6.89 Y210.923 E9.41925
G1 X5.734 Y209.192 E9.4874
G1 X4.308 Y206.29 E9.59327
G1 X3.618 Y204.236 E9.66421
G1 X3.018 Y201.172 E9.76643
G1 X2.872 Y198.819 E9.84362
G1 X2.882 Y130.828 E12.06967
G1 X3.036 Y128.666 E12.14064
G1 X3.662 Y125.609 E12.2428
G1 X4.394 Y123.498 E12.31595
G1 X5.734 Y120.809 E12.41432
G1 X6.891 Y119.077 E12.48251
G1 X8.854 Y116.822 E12.5804
G1 X10.92 Y115.024 E12.67007
G1 X12.88 Y113.715 E12.74724
G1 X15.661 Y112.357 E12.84856
G1 X17.715 Y111.667 E12.9195
G1 X20.768 Y111.067 E13.02137
G0 F7200 X20.803 Y111.591
G1 F3600 X22.853 Y111.454 E13.08864
G1 X90.77 Y111.445 E15.31227
G1 X93.384 Y111.626 E15.39806
G1 X96.048 Y112.171 E15.48709
G1 X98.29 Y112.941 E15.5647
G1 X100.875 Y114.24 E15.65942
G1 X103.04 Y115.733 E15.74552
G1 X104.754 Y117.264 E15.82077
G1 X106.416 Y119.163 E15.90339
G1 X108.006 Y121.575 E15.99798
G1 X108.937 Y123.479 E16.06737
G1 X109.8 Y125.982 E16.15405
G1 X110.363 Y128.862 E16.25013
G1 X110.507 Y131.181 E16.3262
G1 X110.497 Y199.145 E18.55137
G1 X110.326 Y201.441 E18.62675
G1 X109.796 Y204.031 E18.71331
G1 X108.87 Y206.666 E18.80475
G1 X107.732 Y208.901 E18.88686
G1 X106.576 Y210.632 E18.95501
G1 X104.654 Y212.834 E19.05071
G1 X102.692 Y214.54 E19.13583
G1 X100.732 Y215.849 E19.213
G1 X98.075 Y217.146 E19.3098
G1 X96.022 Y217.836 E19.38071
G1 X93.092 Y218.41 E19.47847
G1 X90.77 Y218.555 E19.55464
G1 X22.818 Y218.546 E21.77942
G1 X20.655 Y218.392 E21.85041
G1 X17.716 Y217.788 E21.94865
G1 X15.542 Y217.029 E22.02404
G1 X13.22 Y215.873 E22.10896
G1 X10.874 Y214.28 E22.20181
G1 X9.3 Y212.89 E22.27056
G1 X7.327 Y210.631 E22.36876
G1 X6.171 Y208.9 E22.43691
G1 X4.806 Y206.123 E22.53822
G1 X4.116 Y204.069 E22.60916
G1 X3.542 Y201.139 E22.70691
G1 X3.397 Y198.819 E22.78302
G1 X3.406 Y130.865 E25.00786
G1 X3.56 Y128.703 E25.07882
G1 X4.158 Y125.78 E25.17651
G1 X4.864 Y123.732 E25.24743
G1 X6.171 Y121.101 E25.34362
G1 X7.328 Y119.369 E25.41181
G1 X9.25 Y117.167 E25.50751
G1 X11.212 Y115.461 E25.59263
G1 X13.172 Y114.152 E25.6698
G1 X15.828 Y112.855 E25.76657
G1 X17.882 Y112.165 E25.83751
G1 X20.803 Y111.591 E25.93498
G0 F7200 X20.838 Y112.115
G1 F3600 X22.888 Y111.978 E26.00224
G1 X90.77 Y111.97 E28.22473
G1 X93.347 Y112.15 E28.30931
G1 X95.877 Y112.668 E28.39386
G1 X98.119 Y113.438 E28.47147
G1 X100.578 Y114.673 E28.56156
G1 X102.69 Y116.125 E28.64548
G1 X104.404 Y117.656 E28.72072
G1 X106.02 Y119.508 E28.80119
G1 X107.534 Y121.806 E28.89129
G1 X108.465 Y123.71 E28.96068
G1 X109.303 Y126.152 E29.04521
G1 X109.839 Y128.895 E29.13672
G1 X109.982 Y131.181 E29.21171
G1 X109.973 Y199.106 E31.4356
G1 X109.802 Y201.402 E31.51098
G1 X109.3 Y203.858 E31.59306
G1 X108.402 Y206.428 E31.68219
G1 X107.295 Y208.609 E31.76227
G1 X106.139 Y210.34 E31.83042
G1 X104.259 Y212.488 E31.92388
G1 X102.4 Y214.103 E32.0045
G1 X100.44 Y215.412 E32.08167
G1 X97.908 Y216.648 E32.17392
G1 X95.855 Y217.338 E32.24483
G1 X93.059 Y217.886 E32.33811
G1 X90.77 Y218.03 E32.4132
G1 X22.855 Y218.022 E34.63677
G1 X20.692 Y217.868 E34.70777
G1 X17.889 Y217.292 E34.80145
G1 X15.715 Y216.533 E34.87685
G1 X13.514 Y215.438 E34.95733
G1 X11.222 Y213.886 E35.04796
G1 X9.648 Y212.496 E35.11671
G1 X7.764 Y210.339 E35.21048
G1 X6.608 Y208.608 E35.27863
G1 X5.304 Y205.956 E35.37538
G1 X4.614 Y203.902 E35.44633
G1 X4.066 Y201.106 E35.53961
G1 X3.922 Y198.819 E35.61463
G1 X3.93 Y130.902 E37.83827
G1 X4.084 Y128.74 E37.90923
G1 X4.655 Y125.95 E38.00247
G1 X5.335 Y123.965 E38.07117
G1 X6.608 Y121.393 E38.16513
G1 X7.765 Y119.661 E38.23332
G1 X9.645 Y117.513 E38.32678
G1 X11.504 Y115.898 E38.4074
G1 X13.464 Y114.589 E38.48457
G1 X15.995 Y113.353 E38.57679
G1 X18.049 Y112.663 E38.64773
G1 X20.838 Y112.115 E38.74079
G0 F7200 X20.873 Y112.639
G1 F3600 X22.923 Y112.502 E38.80806
G1 X90.77 Y112.495 E41.0294
G1 X93.243 Y112.665 E41.11056
G1 X95.706 Y113.165 E41.19284
G1 X97.948 Y113.935 E41.27046
G1 X100.281 Y115.106 E41.35592
G1 X102.34 Y116.517 E41.43764
G1 X104.054 Y118.048 E41.51289
G1 X105.582 Y119.798 E41.58895
G1 X107.062 Y122.037 E41.67682
G1 X107.993 Y123.941 E41.74622
G1 X108.806 Y126.322 E41.82859
G1 X109.315 Y128.928 E41.91552
G1 X109.457 Y131.181 E41.98943
G1 X109.449 Y199.067 E44.21205
G1 X109.278 Y201.363 E44.28743
G1 X108.804 Y203.686 E44.36506
G1 X107.934 Y206.191 E44.45188
G1 X106.858 Y208.317 E44.52989
G1 X105.702 Y210.048 E44.59804
G1 X103.914 Y212.092 E44.68695
G1 X102.108 Y213.666 E44.76539
G1 X100.148 Y214.975 E44.84255
G1 X97.741 Y216.15 E44.93025
G1 X95.688 Y216.84 E45.00116
G1 X93.026 Y217.362 E45.08997
G1 X90.77 Y217.505 E45.16398
G1 X22.892 Y217.498 E47.38634
G1 X20.729 Y217.344 E47.45734
G1 X18.062 Y216.796 E47.54648
G1 X15.888 Y216.037 E47.62187
G1 X13.808 Y215.003 E47.69792
G1 X11.57 Y213.492 E47.78633
G1 X9.996 Y212.102 E47.85508
G1 X8.201 Y210.047 E47.94442
G1 X7.045 Y208.316 E48.01257
G1 X5.802 Y205.789 E48.10477
G1 X5.112 Y203.735 E48.17571
G1 X4.59 Y201.073 E48.26453
G1 X4.447 Y198.819 E48.33847
G1 X4.454 Y130.939 E50.56089
G1 X4.608 Y128.777 E50.63186
G1 X5.152 Y126.12 E50.72065
G1 X5.832 Y124.135 E50.78935
G1 X7.045 Y121.685 E50.87886
G1 X8.202 Y119.953 E50.94705
G1 X9.99 Y117.909 E51.03596
G1 X11.796 Y116.335 E51.1144
G1 X13.756 Y115.026 E51.19157
G1 X16.162 Y113.851 E51.27923
G1 X18.216 Y113.161 E51.35017
G1 X20.873 Y112.639 E51.43883
G0 F7200 X20.908 Y113.163
G1 F3600 X22.958 Y113.026 E51.50609
G1 X90.77 Y113.02 E53.72629
G1 X93.207 Y113.189 E53.80627
G1 X95.535 Y113.662 E53.88405
G1 X97.777 Y114.432 E53.96166
G1 X99.985 Y115.54 E54.04254
G1 X101.99 Y116.909 E54.12203
G1 X103.704 Y118.44 E54.19727
G1 X105.186 Y120.143 E54.27119
G1 X106.591 Y122.269 E54.35462
G1 X107.496 Y124.111 E54.42181
G1 X108.309 Y126.492 E54.50419
G1 X108.791 Y128.961 E54.58655
G1 X108.932 Y131.181 E54.65938
G1 X108.925 Y199.028 E56.88072
G1 X108.754 Y201.324 E56.9561
G1 X108.308 Y203.515 E57.02931
G1 X107.465 Y205.955 E57.11383
G1 X106.421 Y208.025 E57.18973
G1 X105.265 Y209.756 E57.25788
G1 X103.568 Y211.697 E57.34229
G1 X101.816 Y213.229 E57.41849
G1 X99.856 Y214.538 E57.49566
G1 X97.574 Y215.652 E57.5788
G1 X95.521 Y216.342 E57.64971
G1 X92.993 Y216.838 E57.73406
G1 X90.77 Y216.98 E57.80699
G1 X22.929 Y216.974 E60.02813
G1 X20.766 Y216.82 E60.09913
G1 X18.235 Y216.3 E60.18372
G1 X16.061 Y215.541 E60.25912
G1 X14.101 Y214.567 E60.33077
G1 X11.918 Y213.098 E60.41692
G1 X10.344 Y211.708 E60.48567
G1 X8.638 Y209.755 E60.57058
G1 X7.482 Y208.024 E60.63873
G1 X6.3 Y205.622 E60.72637
G1 X5.61 Y203.568 E60.79732
G1 X5.114 Y201.04 E60.88166
G1 X4.972 Y198.819 E60.95453
G1 X4.978 Y130.976 E63.17574
G1 X5.132 Y128.814 E63.2467
G1 X5.649 Y126.29 E63.33105
G1 X6.329 Y124.305 E63.39975
G1 X7.482 Y121.977 E63.48481
G1 X8.639 Y120.245 E63.553
G1 X10.336 Y118.304 E63.63741
G1 X12.088 Y116.772 E63.71361
G1 X14.048 Y115.463 E63.79078
G1 X16.329 Y114.349 E63.87389
G1 X18.383 Y113.659 E63.94483
G1 X20.908 Y113.163 E64.02908
G0 F7200 X20.943 Y113.687
G1 F3600 X22.993 Y113.55 E64.09635
G1 X90.77 Y113.545 E66.3154
G1 X93.17 Y113.713 E66.39417
G1 X95.364 Y114.159 E66.46747
G1 X97.606 Y114.929 E66.54508
G1 X99.69 Y115.974 E66.62141
G1 X101.64 Y117.301 E66.69864
G1 X103.354 Y118.832 E66.77388
G1 X104.789 Y120.487 E66.8456
G1 X106.12 Y122.502 E66.92466
G1 X106.999 Y124.281 E66.98963
G1 X107.812 Y126.662 E67.072
G1 X108.267 Y128.995 E67.14983
G1 X108.407 Y131.181 E67.22154
G1 X108.401 Y198.989 E69.44161
G1 X108.23 Y201.285 E69.51699
G1 X107.811 Y203.345 E69.58581
G1 X106.996 Y205.719 E69.66799
G1 X105.984 Y207.733 E69.74179
G1 X104.828 Y209.464 E69.80994
G1 X103.173 Y211.351 E69.89212
G1 X101.524 Y212.792 E69.96381
G1 X99.564 Y214.101 E70.04098
G1 X97.407 Y215.154 E70.11957
G1 X95.354 Y215.844 E70.19048
G1 X92.959 Y216.314 E70.27039
G1 X90.77 Y216.455 E70.3422
G1 X22.966 Y216.45 E72.56214
G1 X20.803 Y216.296 E72.63313
G1 X18.408 Y215.804 E72.71319
G1 X16.234 Y215.045 E72.78858
G1 X14.335 Y214.097 E72.85807
G1 X12.266 Y212.704 E72.93973
G1 X10.692 Y211.314 E73.00848
G1 X9.075 Y209.463 E73.08895
G1 X7.919 Y207.732 E73.1571
G1 X6.798 Y205.455 E73.2402
G1 X6.108 Y203.401 E73.31114
G1 X5.638 Y201.006 E73.39105
G1 X5.497 Y198.819 E73.4628
G1 X5.502 Y131.013 E75.6828
G1 X5.656 Y128.851 E75.75376
G1 X6.146 Y126.46 E75.83367
G1 X6.826 Y124.475 E75.90237
G1 X7.919 Y122.269 E75.98297
G1 X9.076 Y120.537 E76.05117
G1 X10.731 Y118.65 E76.13334
G1 X12.38 Y117.209 E76.20504
G1 X14.34 Y115.9 E76.28221
G1 X16.496 Y114.847 E76.36077
G1 X18.55 Y114.157 E76.43171
G1 X20.943 Y113.687 E76.51155
G0 F7200 X20.978 Y114.211
G1 F3600 X23.028 Y114.074 E76.57882
G1 X90.77 Y114.07 E78.79672
G1 X93.133 Y114.237 E78.87428
G1 X95.193 Y114.656 E78.94311
G1 X97.435 Y115.426 E79.02072
G1 X99.396 Y116.409 E79.09254
G1 X101.291 Y117.693 E79.16749
G1 X102.957 Y119.176 E79.24051
G1 X104.392 Y120.831 E79.31223
G1 X105.649 Y122.735 E79.38693
G1 X106.528 Y124.514 E79.45189
G1 X107.315 Y126.831 E79.53201
G1 X107.743 Y129.029 E79.60532
G1 X107.882 Y131.181 E79.67593
G1 X107.877 Y198.951 E81.89475
G1 X107.715 Y201.181 E81.96795
G1 X107.314 Y203.175 E82.03454
G1 X106.526 Y205.484 E82.11442
G1 X105.547 Y207.441 E82.18607
G1 X104.391 Y209.172 E82.25422
G1 X102.779 Y211.004 E82.33411
G1 X101.232 Y212.355 E82.40135
G1 X99.272 Y213.664 E82.47852
G1 X97.24 Y214.656 E82.55255
G1 X95.187 Y215.346 E82.62347
G1 X92.925 Y215.79 E82.69894
G1 X90.77 Y215.93 E82.76964
G1 X23.003 Y215.926 E84.98836
G1 X20.84 Y215.772 E85.05936
G1 X18.58 Y215.308 E85.1349
G1 X16.468 Y214.575 E85.20809
G1 X14.569 Y213.627 E85.27758
G1 X12.614 Y212.31 E85.35476
G1 X11.04 Y210.92 E85.42351
G1 X9.512 Y209.171 E85.49955
G1 X8.356 Y207.44 E85.5677
G1 X7.296 Y205.288 E85.64624
G1 X6.606 Y203.234 E85.71718
G1 X6.162 Y200.972 E85.79265
G1 X6.022 Y198.819 E85.86329
G1 X6.026 Y131.05 E88.08208
G1 X6.18 Y128.888 E88.15304
G1 X6.643 Y126.63 E88.22851
G1 X7.323 Y124.645 E88.29721
G1 X8.356 Y122.561 E88.37336
G1 X9.513 Y120.829 E88.44156
G1 X11.125 Y118.997 E88.52145
G1 X12.672 Y117.646 E88.58869
G1 X14.632 Y116.337 E88.66586
G1 X16.663 Y115.345 E88.73987
G1 X18.717 Y114.655 E88.81081
G1 X20.978 Y114.211 E88.88625
G0 F7200 X21.013 Y114.735
G1 F3600 X23.063 Y114.598 E88.95351
G1 X90.77 Y114.595 E91.17027
G1 X93.029 Y114.752 E91.24441
G1 X95.023 Y115.153 E91.311
G1 X97.201 Y115.896 E91.38635
G1 X99.102 Y116.844 E91.4559
G1 X100.943 Y118.086 E91.52861
G1 X102.561 Y119.521 E91.59941
G1 X103.954 Y121.121 E91.66887
G1 X105.178 Y122.968 E91.74141
G1 X106.057 Y124.747 E91.80638
G1 X106.8 Y126.932 E91.88194
G1 X107.219 Y129.063 E91.95305
G1 X107.357 Y131.181 E92.02254
G1 X107.353 Y198.914 E94.24015
G1 X107.2 Y201.077 E94.31114
G1 X106.799 Y203.071 E94.37773
G1 X106.056 Y205.25 E94.45311
G1 X105.11 Y207.149 E94.52257
G1 X103.954 Y208.88 E94.59072
G1 X102.433 Y210.609 E94.66611
G1 X100.94 Y211.918 E94.73112
G1 X98.98 Y213.227 E94.80829
G1 X97.073 Y214.158 E94.87777
G1 X95.02 Y214.848 E94.94868
G1 X92.891 Y215.266 E95.01971
G1 X90.77 Y215.405 E95.08931
G1 X23.04 Y215.402 E97.30682
G1 X20.877 Y215.248 E97.37781
G1 X18.751 Y214.812 E97.44887
G1 X16.702 Y214.105 E97.51983
G1 X14.803 Y213.157 E97.58933
G1 X12.962 Y211.916 E97.66202
G1 X11.388 Y210.526 E97.73077
G1 X9.949 Y208.879 E97.80237
G1 X8.793 Y207.148 E97.87052
G1 X7.794 Y205.121 E97.94451
G1 X7.104 Y203.067 E98.01545
G1 X6.686 Y200.938 E98.08649
G1 X6.547 Y198.819 E98.15601
G1 X6.55 Y131.087 E100.37359
G1 X6.704 Y128.925 E100.44455
G1 X7.14 Y126.8 E100.51558
G1 X7.82 Y124.815 E100.58427
G1 X8.793 Y122.853 E100.65598
G1 X9.95 Y121.121 E100.72417
G1 X11.471 Y119.392 E100.79957
G1 X12.964 Y118.083 E100.86457
G1 X14.924 Y116.774 E100.94174
G1 X16.83 Y115.843 E101.01119
G1 X18.884 Y115.153 E101.08213
G1 X21.013 Y114.735 E101.15317
G1 F2700 E100.65317
G1 F600 Z0.35
G0 F7200 X21.083 Y115.783 Z0.35
G1 F600 Z0.15
G1 F2700 E101.15317
G1 F3600 X23.133 Y115.646 E101.22044
G1 X90.77 Y115.645 E103.4349
G1 X92.821 Y115.782 E103.5022
G1 X94.815 Y116.183 E103.56879
G1 X96.736 Y116.837 E103.63523
G1 X98.517 Y117.716 E103.70026
G1 X100.248 Y118.873 E103.76843
G1 X101.771 Y120.213 E103.83484
G1 X103.08 Y121.704 E103.8998
G1 X104.236 Y123.434 E103.96793
G1 X105.115 Y125.213 E104.03289
G1 X105.77 Y127.138 E104.09947
G1 X106.171 Y129.132 E104.16606
G1 X106.307 Y131.181 E104.23329
G1 X106.305 Y198.843 E106.44857
G1 X106.17 Y200.869 E106.51505
G1 X105.769 Y202.863 E106.58165
G1 X105.115 Y204.785 E106.64812
G1 X104.236 Y206.565 E106.71311
G1 X103.08 Y208.296 E106.78126
G1 X101.741 Y209.819 E106.84766
G1 X100.248 Y211.128 E106.91267
G1 X98.517 Y212.285 E106.98083
G1 X96.736 Y213.164 E107.04586
G1 X94.815 Y213.818 E107.1123
G1 X92.821 Y214.218 E107.17888
G1 X90.77 Y214.355 E107.24618
G1 X23.111 Y214.354 E109.46137
G1 X21.084 Y214.218 E109.52788
G1 X19.09 Y213.818 E109.59447
G1 X17.168 Y213.164 E109.66094
G1 X15.388 Y212.285 E109.72594
G1 X13.657 Y211.128 E109.7941
G1 X12.131 Y209.786 E109.86064
G1 X10.823 Y208.295 E109.92557
G1 X9.667 Y206.564 E109.99372
G1 X8.788 Y204.784 E110.05872
G1 X8.134 Y202.862 E110.12519
G1 X7.734 Y200.868 E110.19178
G1 X7.597 Y198.819 E110.25901
G1 X7.598 Y131.158 E112.47426
G1 X7.734 Y129.132 E112.54074
G1 X8.134 Y127.139 E112.6073
G1 X8.788 Y125.217 E112.67377
G1 X9.667 Y123.437 E112.73876
G1 X10.824 Y121.705 E112.80696
G1 X12.163 Y120.182 E112.87335
G1 X13.656 Y118.873 E112.93836
G1 X15.387 Y117.716 E113.00653
G1 X17.167 Y116.837 E113.07153
G1 X19.089 Y116.183 E113.138
G1 X21.083 Y115.783 E113.20458
G0 F7200 X21.048 Y115.259
G1 F3600 X23.098 Y115.122 E113.27185
G1 X90.77 Y115.12 E115.48746
G1 X92.925 Y115.267 E115.55818
G1 X94.919 Y115.668 E115.62477
G1 X96.968 Y116.366 E115.69564
G1 X98.809 Y117.28 E115.76294
G1 X100.595 Y118.479 E115.83337
G1 X102.166 Y119.867 E115.902
G1 X103.517 Y121.412 E115.9692
G1 X104.707 Y123.201 E116.03955
G1 X105.586 Y124.98 E116.10451
G1 X106.285 Y127.034 E116.17555
G1 X106.695 Y129.097 E116.24441
G1 X106.832 Y131.181 E116.31279
G1 X106.829 Y198.878 E118.52922
G1 X106.685 Y200.973 E118.59797
G1 X106.284 Y202.967 E118.66457
G1 X105.586 Y205.017 E118.73547
G1 X104.673 Y206.857 E118.80272
G1 X103.517 Y208.588 E118.87087
G1 X102.087 Y210.214 E118.94176
G1 X100.594 Y211.523 E119.00677
G1 X98.749 Y212.756 E119.07943
G1 X96.905 Y213.661 E119.14668
G1 X94.918 Y214.333 E119.21535
