;FLAVOR:Marlin
;TIME:5792
;Filament used: 10.7068m
;Layer height: 0.15
;MINX:3.53
;MINY:64.46
;MINZ:0.15
;MAXX:140.353
;MAXY:265.566
;MAXZ:10.55
;TARGET_MACHINE.NAME:ELEGOO NEPTUNE 4 Plus
;Generated with Cura_SteamEngine 5.7.2
M104 S210
M105
M109 S210
M82 ;absolute extrusion mode
;ELEGOO NEPTUNE 4 PLUS
M220 S100 ;Set the feed speed to 100%
M221 S100 ;Set the flow rate to 100%
M104 S140 ;Start heating extruder
M190 S60 ;Wait for the bed to reach print temp
G90
G28 ;home
G1 Z10 F300
G1 X115 Y0 F6000
G1 Z0 F300
M109 S210 ;Wait for extruder to reach print temp
G92 E0 ;Reset Extruder
G1 X115 Y0 Z0.4 F300 ;Move to start position
G1 X215 E30 F400 ;Draw the first line
G1 Z0.6 F120.0 ;Move to side a little
G1 X210 F3000
G92 E0 ;Reset Extruder
G92 E0
G92 E0
G1 F2700 E-0.5
;LAYER_COUNT:69
;LAYER:0
M107
M204 S500
G1 F600 Z0.35
G0 F7200 X13.576 Y64.602 Z0.35
;TYPE:SKIRT
G1 F600 Z0.15
G1 F2700 E0
G1 F3600 X15.365 Y64.504 E0.05866
G1 X16.761 Y64.712 E0.10487
G1 X18.467 Y65.323 E0.1642
G1 X20.177 Y66.522 E0.23258
G1 X26.838 Y74.346 E0.569
G1 X117.089 Y74.346 E3.52386
G1 X123.528 Y66.68 E3.85163
G1 X124.657 Y65.746 E3.89961
G1 X126.323 Y64.881 E3.96107
G1 X128.295 Y64.46 E4.02709
G1 X129.623 Y64.516 E4.0706
G1 X131.228 Y64.776 E4.12384
G1 X133.142 Y65.689 E4.19327
G1 X138.128 Y69.88 E4.40652
G1 X139.062 Y71.009 E4.45449
G1 X139.922 Y72.667 E4.51564
G1 X140.353 Y74.613 E4.5809
G1 X140.266 Y76.605 E4.64618
G1 X139.656 Y78.54 E4.71261
G1 X138.661 Y80.022 E4.77105
G1 X131.128 Y89.005 E5.15488
G1 X131.128 Y241.003 E10.13137
G1 X138.834 Y250.212 E10.52451
G1 X139.667 Y251.49 E10.57445
G1 X140.265 Y253.39 E10.63967
G1 X140.352 Y255.387 E10.70511
G1 X139.918 Y257.339 E10.77058
G1 X139.062 Y258.991 E10.8315
G1 X138.128 Y260.12 E10.87947
G1 X133.141 Y264.312 E11.09277
G1 X131.248 Y265.217 E11.16147
G1 X129.255 Y265.566 E11.22771
G1 X127.481 Y265.415 E11.28601
G1 X126.157 Y265.023 E11.33121
G1 X124.676 Y264.268 E11.38564
G1 X123.519 Y263.306 E11.4349
G1 X117.089 Y255.654 E11.76214
G1 X26.839 Y255.654 E14.71697
G1 X20.168 Y263.49 E15.0539
G1 X18.466 Y264.685 E15.12199
G1 X16.573 Y265.356 E15.18774
G1 X14.571 Y265.522 E15.25351
G1 X12.573 Y265.151 E15.32005
G1 X10.698 Y264.236 E15.38836
G1 X5.583 Y259.879 E15.60834
G1 X4.368 Y258.163 E15.67718
G1 X3.698 Y256.252 E15.74348
G1 X3.53 Y254.29 E15.80796
G1 X3.901 Y252.27 E15.8752
G1 X4.816 Y250.394 E15.94353
G1 X12.831 Y240.982 E16.34828
G1 X12.831 Y89.018 E21.32365
G1 X4.874 Y79.669 E21.7256
G1 X4.212 Y78.433 E21.7715
G1 X3.654 Y76.765 E21.82909
G1 X3.556 Y74.934 E21.88912
G1 X3.766 Y73.528 E21.93566
G1 X4.363 Y71.844 E21.99416
G1 X5.584 Y70.119 E22.06336
G1 X10.561 Y65.884 E22.27731
G1 X11.794 Y65.178 E22.32383
G1 X13.576 Y64.602 E22.38515
G0 F7200 X13.676 Y65.122
G1 F3600 X15.34 Y65.031 E22.43971
G1 X16.633 Y65.224 E22.48251
G1 X18.223 Y65.793 E22.5378
G1 X19.82 Y66.913 E22.60166
G1 X26.596 Y74.871 E22.94387
G1 X117.334 Y74.871 E25.91467
G1 X123.898 Y67.056 E26.24882
G1 X124.951 Y66.185 E26.29356
G1 X126.503 Y65.379 E26.35081
G1 X128.336 Y64.988 E26.41218
G1 X129.601 Y65.041 E26.45363
G1 X131.069 Y65.282 E26.50234
G1 X132.855 Y66.134 E26.56712
G1 X137.752 Y70.25 E26.77656
G1 X138.623 Y71.303 E26.82131
G1 X139.424 Y72.847 E26.87826
G1 X139.825 Y74.658 E26.93898
G1 X139.744 Y76.514 E26.99981
G1 X139.178 Y78.31 E27.06146
G1 X138.225 Y79.729 E27.11743
G1 X130.603 Y88.815 E27.50571
G1 X130.603 Y241.194 E32.49467
G1 X138.431 Y250.549 E32.89404
G1 X139.187 Y251.716 E32.93957
G1 X139.744 Y253.485 E33.00029
G1 X139.825 Y255.337 E33.06098
G1 X139.42 Y257.16 E33.12212
G1 X138.623 Y258.697 E33.17881
G1 X137.752 Y259.75 E33.22355
G1 X132.854 Y263.867 E33.43304
G1 X131.086 Y264.712 E33.49719
G1 X129.231 Y265.037 E33.55885
G1 X127.577 Y264.896 E33.6132
G1 X126.355 Y264.534 E33.65493
G1 X124.966 Y263.826 E33.70597
G1 X123.892 Y262.934 E33.75168
G1 X117.334 Y255.129 E34.08545
G1 X26.596 Y255.129 E37.05625
G1 X19.813 Y263.097 E37.39885
G1 X18.221 Y264.215 E37.46254
G1 X16.461 Y264.839 E37.52368
G1 X14.598 Y264.993 E37.58489
G1 X12.74 Y264.648 E37.64676
G1 X10.988 Y263.793 E37.71058
G1 X5.974 Y259.523 E37.92621
G1 X4.838 Y257.918 E37.99059
G1 X4.215 Y256.142 E38.05221
G1 X4.059 Y254.315 E38.11224
G1 X4.404 Y252.437 E38.17476
G1 X5.259 Y250.684 E38.23861
G1 X13.356 Y241.175 E38.64752
G1 X13.356 Y88.825 E43.63553
G1 X5.311 Y79.373 E44.04191
G1 X4.695 Y78.223 E44.08462
G1 X4.174 Y76.665 E44.1384
G1 X4.083 Y74.959 E44.19434
G1 X4.277 Y73.657 E44.23744
G1 X4.833 Y72.089 E44.29191
G1 X5.975 Y70.475 E44.35664
G1 X10.862 Y66.317 E44.56672
G1 X12.007 Y65.662 E44.60991
G1 X13.676 Y65.122 E44.66734
G0 F7200 X13.772 Y65.642
G1 F3600 X15.316 Y65.558 E44.71797
G1 X16.504 Y65.735 E44.75729
G1 X17.979 Y66.263 E44.80858
G1 X19.464 Y67.304 E44.86796
G1 X26.353 Y75.396 E45.2159
G1 X117.579 Y75.396 E48.20268
G1 X124.268 Y67.432 E48.5432
G1 X125.245 Y66.624 E48.5847
G1 X126.684 Y65.877 E48.63779
G1 X128.377 Y65.516 E48.69446
G1 X129.579 Y65.566 E48.73385
G1 X130.91 Y65.788 E48.77803
G1 X132.568 Y66.579 E48.83818
G1 X137.376 Y70.62 E49.04381
G1 X138.184 Y71.597 E49.08532
G1 X138.926 Y73.027 E49.13806
G1 X139.297 Y74.703 E49.19426
G1 X139.222 Y76.423 E49.25063
G1 X138.7 Y78.08 E49.30751
G1 X137.789 Y79.436 E49.361
G1 X130.078 Y88.625 E49.75374
G1 X130.078 Y241.385 E54.75517
G1 X137.99 Y250.835 E55.15869
G1 X138.708 Y251.943 E55.20192
G1 X139.222 Y253.576 E55.25797
G1 X139.297 Y255.294 E55.31427
G1 X138.923 Y256.977 E55.37072
G1 X138.184 Y258.403 E55.4233
G1 X137.376 Y259.38 E55.46481
G1 X132.567 Y263.422 E55.67049
G1 X130.923 Y264.208 E55.73015
G1 X129.208 Y264.508 E55.78715
G1 X127.673 Y264.377 E55.83759
G1 X126.552 Y264.045 E55.87587
G1 X125.258 Y263.386 E55.92341
G1 X124.263 Y262.559 E55.96577
G1 X117.579 Y254.604 E56.30596
G1 X26.353 Y254.604 E59.29274
G1 X19.458 Y262.704 E59.641
G1 X17.977 Y263.744 E59.70025
G1 X16.348 Y264.322 E59.75685
G1 X14.625 Y264.464 E59.81345
G1 X12.907 Y264.145 E59.87066
G1 X11.278 Y263.35 E59.93001
G1 X6.365 Y259.167 E60.14126
G1 X5.308 Y257.673 E60.20118
G1 X4.732 Y256.032 E60.25812
G1 X4.588 Y254.34 E60.31372
G1 X4.907 Y252.604 E60.37151
G1 X5.702 Y250.974 E60.43089
G1 X13.881 Y241.368 E60.84395
G1 X13.881 Y88.632 E65.84459
G1 X5.748 Y79.077 E66.25541
G1 X5.179 Y78.014 E66.29489
G1 X4.694 Y76.564 E66.34494
G1 X4.61 Y74.984 E66.39675
G1 X4.788 Y73.786 E66.4364
G1 X5.304 Y72.331 E66.48694
G1 X6.364 Y70.834 E66.547
G1 X11.163 Y66.75 E66.75332
G1 X12.224 Y66.143 E66.79334
G1 X13.772 Y65.642 E66.84661
G0 F7200 X13.868 Y66.162
G1 F3600 X15.291 Y66.085 E66.89326
G1 X16.376 Y66.247 E66.92918
G1 X17.735 Y66.733 E66.97644
G1 X19.107 Y67.695 E67.0313
G1 X26.11 Y75.921 E67.385
G1 X117.824 Y75.921 E70.38776
G1 X124.641 Y67.805 E70.73478
G1 X125.535 Y67.065 E70.77277
G1 X126.865 Y66.375 E70.82183
G1 X128.418 Y66.044 E70.87382
G1 X129.557 Y66.091 E70.91114
G1 X130.752 Y66.294 E70.95082
G1 X132.281 Y67.024 E71.0063
G1 X137.003 Y70.993 E71.20826
G1 X137.743 Y71.887 E71.24625
G1 X138.427 Y73.206 E71.2949
G1 X138.769 Y74.749 E71.34664
G1 X138.7 Y76.332 E71.39852
G1 X138.222 Y77.85 E71.45063
G1 X137.353 Y79.143 E71.50163
G1 X129.553 Y88.433 E71.89878
G1 X129.553 Y241.576 E76.91275
G1 X137.587 Y251.172 E77.3225
G1 X138.228 Y252.169 E77.36131
G1 X138.7 Y253.667 E77.41273
G1 X138.769 Y255.248 E77.46455
G1 X138.425 Y256.798 E77.51653
G1 X137.743 Y258.113 E77.56503
G1 X137.003 Y259.007 E77.60302
G1 X132.28 Y262.977 E77.80503
G1 X130.761 Y263.703 E77.86015
G1 X129.185 Y263.979 E77.91253
G1 X127.769 Y263.858 E77.95906
G1 X126.749 Y263.556 E77.99389
G1 X125.55 Y262.946 E78.03794
G1 X124.634 Y262.184 E78.07695
G1 X117.824 Y254.079 E78.42354
G1 X26.11 Y254.079 E81.4263
G1 X19.103 Y262.311 E81.78024
G1 X17.733 Y263.273 E81.83504
G1 X16.235 Y263.805 E81.88709
G1 X14.652 Y263.935 E81.93909
G1 X13.074 Y263.642 E81.99164
G1 X11.568 Y262.907 E82.04651
G1 X6.754 Y258.808 E82.25351
G1 X5.779 Y257.431 E82.30875
G1 X5.249 Y255.922 E82.36112
G1 X5.117 Y254.365 E82.41228
G1 X5.41 Y252.771 E82.46534
G1 X6.145 Y251.264 E82.52024
G1 X14.406 Y241.561 E82.93746
G1 X14.406 Y88.439 E87.95074
G1 X6.185 Y78.781 E88.36599
G1 X5.662 Y77.804 E88.40227
G1 X5.214 Y76.464 E88.44853
G1 X5.137 Y75.009 E88.49624
G1 X5.299 Y73.917 E88.53238
G1 X5.775 Y72.575 E88.579
G1 X6.755 Y71.19 E88.63455
G1 X11.464 Y67.183 E88.83699
G1 X12.441 Y66.624 E88.87384
G1 X13.868 Y66.162 E88.92295
G0 F7200 X13.964 Y66.682
G1 F3600 X15.266 Y66.612 E88.96564
G1 X16.248 Y66.759 E88.99815
G1 X17.491 Y67.203 E89.04136
G1 X18.751 Y68.086 E89.09174
G1 X25.867 Y76.446 E89.45118
G1 X118.069 Y76.446 E92.46991
G1 X125.013 Y68.178 E92.82342
G1 X125.826 Y67.506 E92.85795
G1 X127.043 Y66.874 E92.90285
G1 X128.463 Y66.572 E92.95038
G1 X129.469 Y66.609 E92.98334
G1 X130.593 Y66.8 E93.02067
G1 X131.994 Y67.469 E93.0715
G1 X136.63 Y71.365 E93.26976
G1 X137.302 Y72.178 E93.3043
G1 X137.928 Y73.385 E93.34881
G1 X138.241 Y74.795 E93.3961
G1 X138.178 Y76.241 E93.44349
G1 X137.743 Y77.622 E93.49089
G1 X136.951 Y78.805 E93.5375
G1 X129.028 Y88.242 E93.94093
G1 X129.028 Y241.766 E98.96737
G1 X137.145 Y251.456 E99.38123
G1 X137.748 Y252.394 E99.41774
G1 X138.179 Y253.762 E99.4647
G1 X138.242 Y255.202 E99.51189
G1 X137.928 Y256.615 E99.55928
G1 X137.302 Y257.822 E99.6038
G1 X136.63 Y258.635 E99.63833
G1 X131.993 Y262.532 E99.83664
G1 X130.598 Y263.199 E99.88727
G1 X129.162 Y263.45 E99.935
G1 X127.865 Y263.339 E99.97761
G1 X126.946 Y263.067 E100.00899
G1 X125.84 Y262.504 E100.04963
G1 X125.007 Y261.812 E100.08508
G1 X118.069 Y253.554 E100.43821
G1 X25.867 Y253.554 E103.45694
G1 X18.748 Y261.918 E103.81655
G1 X17.489 Y262.802 E103.86691
G1 X16.122 Y263.288 E103.91441
G1 X14.679 Y263.406 E103.96182
G1 X13.241 Y263.139 E104.0097
G1 X11.858 Y262.464 E104.06009
G1 X7.145 Y258.452 E104.26273
G1 X6.249 Y257.186 E104.31351
G1 X5.766 Y255.812 E104.36119
G1 X5.646 Y254.39 E104.40792
G1 X5.913 Y252.938 E104.45625
G1 X6.588 Y251.554 E104.50667
G1 X14.931 Y241.754 E104.92805
G1 X14.931 Y88.246 E109.95397
G1 X6.622 Y78.484 E110.37368
G1 X6.146 Y77.595 E110.4067
G1 X5.734 Y76.363 E110.44923
G1 X5.664 Y75.034 E110.4928
G1 X5.81 Y74.048 E110.52543
G1 X6.247 Y72.816 E110.56823
G1 X7.144 Y71.549 E110.61906
G1 X11.765 Y67.616 E110.81773
G1 X12.658 Y67.105 E110.85142
G1 X13.964 Y66.682 E110.89636
G0 F7200 X14.06 Y67.202
G1 F3600 X15.241 Y67.139 E110.93509
G1 X16.119 Y67.27 E110.96415
G1 X17.247 Y67.673 E111.00337
G1 X18.394 Y68.477 E111.04923
G1 X25.624 Y76.971 E111.41443
G1 X118.314 Y76.971 E114.44914
G1 X125.386 Y68.551 E114.80915
G1 X126.116 Y67.947 E114.84017
G1 X127.221 Y67.373 E114.88094
G1 X128.509 Y67.099 E114.92405
G1 X129.381 Y67.127 E114.95262
G1 X130.434 Y67.306 E114.98759
G1 X131.707 Y67.914 E115.03378
G1 X136.257 Y71.738 E115.22837
G1 X136.861 Y72.468 E115.25939
G1 X137.431 Y73.568 E115.29995
G1 X137.714 Y74.841 E115.34265
G1 X137.657 Y76.146 E115.38542
G1 X137.264 Y77.393 E115.42822
G1 X136.549 Y78.467 E115.47047
G1 X128.503 Y88.05 E115.88014
G1 X128.503 Y241.956 E120.91909
G1 X136.703 Y251.74 E121.33705
G1 X137.268 Y252.619 E121.37126
G1 X137.657 Y253.853 E121.41363
G1 X137.714 Y255.159 E121.45643
G1 X137.431 Y256.432 E121.49912
G1 X136.861 Y257.532 E121.53968
G1 X136.257 Y258.262 E121.5707
G1 X131.706 Y262.087 E121.76534
G1 X130.436 Y262.694 E121.81143
G1 X129.139 Y262.921 E121.85454
G1 X127.961 Y262.82 E121.89325
G1 X127.143 Y262.578 E121.92118
G1 X126.132 Y262.064 E121.95831
G1 X125.378 Y261.437 E121.99042
G1 X118.314 Y253.029 E122.34996
G1 X25.624 Y253.029 E125.38467
G1 X18.393 Y261.525 E125.74994
G1 X17.245 Y262.331 E125.79587
G1 X16.009 Y262.771 E125.83882
G1 X14.706 Y262.877 E125.88162
G1 X13.408 Y262.636 E125.92485
G1 X12.148 Y262.021 E125.97075
G1 X7.534 Y258.093 E126.16914
G1 X6.72 Y256.944 E126.21525
G1 X6.283 Y255.702 E126.25835
G1 X6.175 Y254.415 E126.30064
G1 X6.416 Y253.105 E126.34425
G1 X7.031 Y251.844 E126.39018
G1 X15.456 Y241.947 E126.81572
G1 X15.456 Y88.053 E131.85428
G1 X7.059 Y78.187 E132.27845
G1 X6.63 Y77.386 E132.3082
G1 X6.254 Y76.262 E132.34701
G1 X6.191 Y75.059 E132.38645
G1 X6.321 Y74.179 E132.41557
G1 X6.719 Y73.057 E132.45455
G1 X7.533 Y71.908 E132.50065
G1 X12.066 Y68.049 E132.69556
G1 X12.875 Y67.586 E132.72608
G1 X14.06 Y67.202 E132.76686
G0 F7200 X14.156 Y67.722
G1 F3600 X15.216 Y67.666 E132.80161
G1 X15.991 Y67.781 E132.82727
G1 X17.003 Y68.143 E132.86246
G1 X18.037 Y68.868 E132.9038
G1 X25.381 Y77.496 E133.27476
G1 X118.559 Y77.496 E136.32545
G1 X125.756 Y68.927 E136.69183
G1 X126.41 Y68.386 E136.71962
G1 X127.402 Y67.871 E136.75621
G1 X128.553 Y67.626 E136.79474
G1 X129.364 Y67.652 E136.82131
G1 X130.273 Y67.811 E136.85152
G1 X131.42 Y68.359 E136.89314
G1 X135.881 Y72.108 E137.08392
G1 X136.422 Y72.762 E137.11171
G1 X136.933 Y73.747 E137.14804
G1 X137.186 Y74.887 E137.18627
G1 X137.135 Y76.055 E137.22455
G1 X136.785 Y77.164 E137.26263
G1 X136.147 Y78.129 E137.3005
G1 X127.978 Y87.858 E137.71643
G1 X127.978 Y242.146 E142.76789
G1 X136.261 Y252.024 E143.18995
G1 X136.788 Y252.844 E143.22186
G1 X137.135 Y253.944 E143.25963
G1 X137.186 Y255.113 E143.29794
G1 X136.933 Y256.253 E143.33617
G1 X136.422 Y257.238 E143.3725
G1 X135.881 Y257.892 E143.40029
G1 X131.419 Y261.642 E143.59112
G1 X130.274 Y262.189 E143.63267
G1 X129.116 Y262.392 E143.67116
G1 X128.057 Y262.301 E143.70596
G1 X127.34 Y262.089 E143.73044
G1 X126.422 Y261.622 E143.76416
G1 X125.751 Y261.065 E143.79271
G1 X118.559 Y252.504 E144.15878
G1 X25.381 Y252.504 E147.20947
G1 X18.038 Y261.132 E147.58041
G1 X17.001 Y261.86 E147.62189
G1 X15.895 Y262.254 E147.66033
G1 X14.734 Y262.348 E147.69847
G1 X13.575 Y262.133 E147.73706
G1 X12.438 Y261.578 E147.77849
G1 X7.924 Y257.736 E147.97256
G1 X7.19 Y256.7 E148.01413
G1 X6.8 Y255.592 E148.05259
G1 X6.704 Y254.44 E148.09044
G1 X6.919 Y253.272 E148.12932
G1 X7.474 Y252.134 E148.17077
G1 X15.981 Y242.14 E148.60047
G1 X15.981 Y87.86 E153.65167
G1 X7.496 Y77.891 E154.08027
G1 X7.113 Y77.176 E154.10683
G1 X6.774 Y76.162 E154.14184
G1 X6.718 Y75.084 E154.17718
G1 X6.832 Y74.31 E154.20279
G1 X7.19 Y73.301 E154.23784
G1 X7.924 Y72.264 E154.27944
G1 X12.367 Y68.482 E154.47047
G1 X13.092 Y68.067 E154.49782
G1 X14.156 Y67.722 E154.53444
G0 F7200 X14.252 Y68.242
G1 F3600 X15.191 Y68.193 E154.56523
G1 X15.864 Y68.293 E154.5875
G1 X16.758 Y68.612 E154.61858
G1 X17.681 Y69.259 E154.65549
G1 X25.138 Y78.021 E155.03219
G1 X118.804 Y78.021 E158.09885
G1 X126.126 Y69.303 E158.4716
G1 X126.704 Y68.825 E158.49615
G1 X127.58 Y68.37 E158.52847
G1 X128.601 Y68.153 E158.56265
G1 X129.274 Y68.169 E158.58469
G1 X130.11 Y68.315 E158.61247
G1 X131.133 Y68.804 E158.6496
G1 X135.505 Y72.478 E158.83657
G1 X135.983 Y73.056 E158.86113
G1 X136.436 Y73.93 E158.89336
G1 X136.659 Y74.933 E158.927
G1 X136.614 Y75.96 E158.96065
G1 X136.306 Y76.937 E158.99419
G1 X135.745 Y77.791 E159.02765
G1 X127.453 Y87.666 E159.44982
G1 X127.453 Y242.336 E164.51379
G1 X135.819 Y252.308 E164.93996
G1 X136.308 Y253.069 E164.96957
G1 X136.614 Y254.039 E165.00287
G1 X136.659 Y255.067 E165.03656
G1 X136.436 Y256.07 E165.0702
G1 X135.983 Y256.944 E165.10243
G1 X135.505 Y257.522 E165.12699
G1 X131.132 Y261.197 E165.31401
G1 X130.111 Y261.685 E165.35106
G1 X129.093 Y261.863 E165.3849
G1 X128.153 Y261.782 E165.41579
G1 X127.537 Y261.6 E165.43682
G1 X126.711 Y261.18 E165.46715
G1 X126.124 Y260.693 E165.49213
G1 X118.804 Y251.979 E165.86473
G1 X25.138 Y251.979 E168.9314
G1 X17.683 Y260.739 E169.308
G1 X16.757 Y261.389 E169.34504
G1 X15.781 Y261.737 E169.37897
G1 X14.762 Y261.819 E169.41244
G1 X13.742 Y261.63 E169.4464
G1 X12.727 Y261.135 E169.48338
G1 X8.315 Y257.38 E169.67306
G1 X7.661 Y256.456 E169.71012
G1 X7.317 Y255.48 E169.74401
G1 X7.233 Y254.466 E169.77732
G1 X7.422 Y253.439 E169.81151
G1 X7.917 Y252.424 E169.84848
G1 X16.506 Y242.333 E170.28234
G1 X16.506 Y87.667 E175.34617
G1 X7.933 Y77.594 E175.77924
G1 X7.597 Y76.967 E175.80253
G1 X7.294 Y76.061 E175.83381
G1 X7.245 Y75.108 E175.86505
G1 X7.343 Y74.441 E175.88712
G1 X7.661 Y73.545 E175.91825
G1 X8.315 Y72.62 E175.95534
G1 X12.668 Y68.915 E176.14249
G1 X13.309 Y68.548 E176.16668
G1 X14.252 Y68.242 E176.19913
G1 F2700 E175.69913
G1 F600 Z0.35
