;FLAVOR:Marlin
;TIME:300
;Filament used: 0.434943m
;Layer height: 0.15
;MINX:36.582
;MINY:130.506
;MINZ:0.15
;MAXX:84.613
;MAXY:199.49
;MAXZ:2.3
;TARGET_MACHINE.NAME:ELEGOO NEPTUNE 4 Plus
;Generated with Cura_SteamEngine 5.7.2
M104 S210
M105
M109 S210
M82 ;absolute extrusion mode
;ELEGOO NEPTUNE 4 PLUS
M220 S100 ;Set the feed speed to 100%
M221 S100 ;Set the flow rate to 100%
M104 S140 ;Start heating extruder
M190 S60 ;Wait for the bed to reach print temp
G90
G28 ;home
G1 Z10 F300
G1 X115 Y0 F6000
G1 Z0 F300
M109 S210 ;Wait for extruder to reach print temp
G92 E0 ;Reset Extruder
G1 X115 Y0 Z0.4 F300 ;Move to start position
G1 X215 E30 F400 ;Draw the first line
G1 Z0.6 F120.0 ;Move to side a little
G1 X210 F3000
G92 E0 ;Reset Extruder
G92 E0
G92 E0
G1 F2700 E-0.5
;LAYER_COUNT:15
;LAYER:0
M107
M204 S500
G1 F600 Z0.35
G0 F7200 X52.291 Y136.92 Z0.35
;TYPE:SKIRT
G1 F600 Z0.15
G1 F2700 E0
G1 F3600 X53.69 Y136.611 E0.04691
G1 X79.844 Y136.611 E0.9032
G1 X81.259 Y136.894 E0.95045
G1 X82.429 Y137.54 E0.9942
G1 X83.374 Y138.328 E1.03449
G1 X84.237 Y139.723 E1.0882
G1 X84.304 Y139.886 E1.09397
G1 X84.613 Y141.285 E1.14087
G1 X84.613 Y167.438 E1.99713
G1 X84.33 Y168.853 E2.04438
G1 X83.684 Y170.023 E2.08814
G1 X82.896 Y170.968 E2.12842
G1 X81.501 Y171.831 E2.18213
G1 X81.338 Y171.898 E2.1879
G1 X79.939 Y172.207 E2.23481
G1 X53.785 Y172.207 E3.0911
G1 X52.37 Y171.924 E3.13834
G1 X51.2 Y171.278 E3.1821
G1 X50.255 Y170.49 E3.22239
G1 X49.392 Y169.095 E3.27609
G1 X49.325 Y168.932 E3.28186
G1 X49.016 Y167.533 E3.32877
G1 X49.016 Y141.38 E4.18503
G1 X49.299 Y139.965 E4.23228
G1 X49.945 Y138.795 E4.27603
G1 X50.733 Y137.85 E4.31632
G1 X52.128 Y136.987 E4.37003
G1 X52.291 Y136.92 E4.3758
G0 F7200 X52.404 Y137.433
G1 F3600 X53.749 Y137.136 E4.42089
G1 X79.791 Y137.136 E5.27352
G1 X81.078 Y137.393 E5.31649
G1 X82.131 Y137.975 E5.35588
G1 X82.973 Y138.677 E5.39177
G1 X83.791 Y139.999 E5.44267
G1 X84.088 Y141.344 E5.48777
G1 X84.088 Y167.385 E6.34036
G1 X83.831 Y168.672 E6.38333
G1 X83.249 Y169.725 E6.42272
G1 X82.547 Y170.567 E6.45861
G1 X81.225 Y171.385 E6.50951
G1 X79.88 Y171.682 E6.55461
G1 X53.838 Y171.682 E7.40723
G1 X52.551 Y171.425 E7.4502
G1 X51.498 Y170.843 E7.48959
G1 X50.656 Y170.141 E7.52549
G1 X49.838 Y168.819 E7.57638
G1 X49.541 Y167.474 E7.62148
G1 X49.541 Y141.433 E8.47407
G1 X49.798 Y140.146 E8.51704
G1 X50.38 Y139.093 E8.55643
G1 X51.082 Y138.251 E8.59233
G1 X52.404 Y137.433 E8.64323
G0 F7200 X52.605 Y137.927
G1 F3600 X53.808 Y137.661 E8.68356
G1 X79.738 Y137.661 E9.53252
G1 X80.894 Y137.892 E9.57112
G1 X81.837 Y138.413 E9.60639
G1 X82.57 Y139.024 E9.63763
G1 X83.297 Y140.2 E9.6829
G1 X83.563 Y141.403 E9.72324
G1 X83.563 Y167.332 E10.57217
G1 X83.332 Y168.488 E10.61076
G1 X82.811 Y169.431 E10.64604
G1 X82.2 Y170.164 E10.67728
G1 X81.024 Y170.891 E10.72254
G1 X79.821 Y171.157 E10.76288
G1 X53.891 Y171.157 E11.61184
G1 X52.735 Y170.926 E11.65044
G1 X51.792 Y170.405 E11.68571
G1 X51.059 Y169.794 E11.71695
G1 X50.332 Y168.618 E11.76222
G1 X50.066 Y167.415 E11.80256
G1 X50.066 Y141.486 E12.65149
G1 X50.297 Y140.33 E12.69008
G1 X50.818 Y139.387 E12.72535
G1 X51.429 Y138.654 E12.7566
G1 X52.605 Y137.927 E12.80186
G0 F7200 X52.803 Y138.421
G1 F3600 X53.867 Y138.186 E12.83754
G1 X79.685 Y138.186 E13.68283
G1 X80.71 Y138.391 E13.71706
G1 X81.543 Y138.851 E13.74821
G1 X82.169 Y139.373 E13.7749
G1 X82.803 Y140.398 E13.81436
G1 X83.038 Y141.462 E13.85003
G1 X83.038 Y167.279 E14.69529
G1 X82.833 Y168.304 E14.72952
G1 X82.373 Y169.137 E14.76067
G1 X81.851 Y169.763 E14.78736
G1 X80.826 Y170.397 E14.82682
G1 X79.762 Y170.632 E14.86249
G1 X53.944 Y170.632 E15.70778
G1 X52.919 Y170.427 E15.74201
G1 X52.086 Y169.967 E15.77316
G1 X51.46 Y169.445 E15.79985
G1 X50.826 Y168.42 E15.83931
G1 X50.591 Y167.356 E15.87498
G1 X50.591 Y141.539 E16.72024
G1 X50.796 Y140.514 E16.75447
G1 X51.256 Y139.681 E16.78562
G1 X51.778 Y139.055 E16.81231
G1 X52.803 Y138.421 E16.85177
G0 F7200 X53.001 Y138.915
G1 F3600 X53.926 Y138.711 E16.88278
G1 X79.632 Y138.711 E17.72441
G1 X80.526 Y138.89 E17.75426
G1 X81.249 Y139.289 E17.78129
G1 X81.768 Y139.722 E17.80342
G1 X82.309 Y140.596 E17.83708
G1 X82.513 Y141.521 E17.86809
G1 X82.513 Y167.226 E18.70968
G1 X82.334 Y168.12 E18.73953
G1 X81.935 Y168.843 E18.76657
G1 X81.502 Y169.362 E18.7887
G1 X80.628 Y169.903 E18.82235
G1 X79.703 Y170.107 E18.85337
G1 X53.997 Y170.107 E19.69499
G1 X53.103 Y169.928 E19.72484
G1 X52.38 Y169.529 E19.75188
G1 X51.861 Y169.096 E19.77401
G1 X51.32 Y168.222 E19.80766
G1 X51.116 Y167.297 E19.83868
G1 X51.116 Y141.592 E20.68027
G1 X51.295 Y140.698 E20.71012
G1 X51.694 Y139.975 E20.73716
G1 X52.127 Y139.456 E20.75929
G1 X53.001 Y138.915 E20.79294
G0 F7200 X53.202 Y139.409
G1 F3600 X53.985 Y139.236 E20.81919
G1 X79.579 Y139.236 E21.65715
G1 X80.344 Y139.389 E21.6827
G1 X80.95 Y139.723 E21.70535
G1 X81.366 Y140.071 E21.72311
G1 X81.815 Y140.797 E21.75106
G1 X81.988 Y141.58 E21.77731
G1 X81.988 Y167.173 E22.61524
G1 X81.835 Y167.938 E22.64078
G1 X81.501 Y168.544 E22.66343
G1 X81.153 Y168.96 E22.68119
G1 X80.427 Y169.409 E22.70914
G1 X79.644 Y169.582 E22.73539
G1 X54.05 Y169.582 E23.57335
G1 X53.285 Y169.429 E23.59889
G1 X52.679 Y169.095 E23.62155
G1 X52.263 Y168.747 E23.63931
G1 X51.814 Y168.021 E23.66725
G1 X51.641 Y167.238 E23.69351
G1 X51.641 Y141.645 E24.53143
G1 X51.794 Y140.88 E24.55698
G1 X52.128 Y140.274 E24.57963
G1 X52.476 Y139.858 E24.59739
G1 X53.202 Y139.409 E24.62534
G0 F7200 X53.4 Y139.903
G1 F3600 X54.044 Y139.761 E24.64693
G1 X79.526 Y139.761 E25.48122
G1 X80.161 Y139.888 E25.50242
G1 X80.696 Y140.183 E25.52242
G1 X80.965 Y140.42 E25.53416
G1 X81.321 Y140.995 E25.5563
G1 X81.463 Y141.639 E25.5779
G1 X81.463 Y167.12 E26.41215
G1 X81.336 Y167.755 E26.43336
G1 X81.041 Y168.29 E26.45336
G1 X80.804 Y168.559 E26.4651
G1 X80.229 Y168.915 E26.48724
G1 X79.585 Y169.057 E26.50883
G1 X54.103 Y169.057 E27.34312
G1 X53.468 Y168.93 E27.36432
G1 X52.933 Y168.635 E27.38433
G1 X52.664 Y168.398 E27.39606
G1 X52.308 Y167.823 E27.41821
G1 X52.166 Y167.179 E27.4398
G1 X52.166 Y141.698 E28.27406
G1 X52.293 Y141.063 E28.29526
G1 X52.588 Y140.528 E28.31526
G1 X52.825 Y140.259 E28.327
G1 X53.4 Y139.903 E28.34914
G0 F7200 X53.599 Y140.397
G1 F3600 X53.2 Y140.627 E28.36422
G1 X53.048 Y140.782 E28.37133
G1 X52.753 Y141.317 E28.39133
G1 X52.691 Y141.698 E28.40397
G1 X52.691 Y167.12 E29.2363
G1 X52.802 Y167.624 E29.25319
G1 X53.032 Y168.023 E29.26827
G1 X53.187 Y168.175 E29.27538
G1 X53.722 Y168.47 E29.29538
G1 X54.103 Y168.532 E29.30802
G1 X79.526 Y168.532 E30.14038
G1 X80.03 Y168.421 E30.15728
G1 X80.429 Y168.191 E30.17235
G1 X80.581 Y168.036 E30.17946
G1 X80.876 Y167.501 E30.19946
G1 X80.938 Y167.12 E30.2121
G1 X80.938 Y141.698 E31.04443
G1 X80.827 Y141.194 E31.06133
G1 X80.597 Y140.795 E31.07641
G1 X80.442 Y140.643 E31.08351
G1 X79.907 Y140.348 E31.10352
G1 X79.526 Y140.286 E31.11615
G1 X54.103 Y140.286 E31.94851
G1 X53.599 Y140.397 E31.96541
G1 F2700 E31.46541
G1 F600 Z0.35
G0 F7200 X53.89 Y141.405 Z0.35
G1 F600 Z0.15
G1 F2700 E31.96541
G1 F3600 X54.103 Y141.336 E31.97274
G1 X79.526 Y141.336 E32.8051
G1 X79.69 Y141.375 E32.81062
G1 X79.819 Y141.485 E32.81617
G1 X79.888 Y141.698 E32.8235
G1 X79.888 Y167.12 E33.65583
G1 X79.849 Y167.284 E33.66135
G1 X79.739 Y167.413 E33.6669
G1 X79.526 Y167.482 E33.67423
G1 X54.103 Y167.482 E34.50659
G1 X53.939 Y167.443 E34.51211
G1 X53.81 Y167.333 E34.51766
G1 X53.741 Y167.12 E34.52499
G1 X53.741 Y141.698 E35.35732
G1 X53.78 Y141.534 E35.36284
G1 X53.89 Y141.405 E35.36839
G0 F7200 X53.728 Y140.906
G1 F3600 X54.103 Y140.811 E35.38105
G1 X79.526 Y140.811 E36.21341
G1 X79.811 Y140.864 E36.2229
G1 X80.16 Y141.086 E36.23645
G1 X80.318 Y141.323 E36.24577
G1 X80.413 Y141.698 E36.25844
G1 X80.413 Y167.12 E37.09077
G1 X80.36 Y167.405 E37.10026
G1 X80.138 Y167.754 E37.1138
G1 X79.901 Y167.912 E37.12312
G1 X79.526 Y168.007 E37.13579
G1 X54.103 Y168.007 E37.96815
G1 X53.818 Y167.954 E37.97764
G1 X53.469 Y167.732 E37.99118
G1 X53.311 Y167.495 E38.00051
G1 X53.216 Y167.12 E38.01317
G1 X53.216 Y141.698 E38.8455
G1 X53.269 Y141.413 E38.85499
G1 X53.491 Y141.064 E38.86854
G1 X53.728 Y140.906 E38.87786
G1 F2700 E38.37786
G1 F600 Z0.35
;MESH:metal_frame_joystick.obj
G0 F7200 X56.576 Y143.062 Z0.35
;TYPE:WALL-INNER
G1 F600 Z0.15
G1 F2700 E38.87786
G1 F3033.7 X56.812 Y143.052 E38.88704
G1 F3088.2 X76.812 Y143.052 E39.65036
G1 F3287 X77.745 Y143.475 E39.68709
G1 X78.168 Y144.408 E39.72383
G1 F3139.5 X78.214 Y143.006 E39.77649
G1 X76.812 Y143.052 E39.82915
G0 F7200 X77.652 Y143.571
G0 X78.168 Y144.408
G1 F3088.2 X78.168 Y164.408 E40.59247
G1 F3038.6 X78.158 Y164.644 E40.60163
G0 F7200 X77.048 Y165.754
G1 F3043.5 X78.22 Y165.816 E40.64709
G1 F3048.4 X78.158 Y164.644 E40.69247
G1 F3230.8 X77.745 Y165.341 E40.72202
G1 F3225.3 X77.048 Y165.754 E40.75163
G1 F3033.7 X76.812 Y165.764 E40.76081
G1 F3088.2 X56.812 Y165.764 E41.52413
G0 F7200 X55.976 Y165.247
G0 X55.904 Y164.521
G0 X56.025 Y164.521
G1 F3600 X56.025 Y144.408 E42.18264
G1 X56.255 Y143.851 E42.20237
G1 X56.699 Y143.621 E42.21874
G1 X76.812 Y143.621 E42.87725
G1 X77.369 Y143.851 E42.89698
G1 X77.599 Y144.408 E42.91671
G1 X77.599 Y164.523 E43.57528
G1 X77.369 Y164.965 E43.59159
G1 X76.925 Y165.195 E43.60796
G1 X56.812 Y165.195 E44.26647
G1 X56.255 Y164.965 E44.2862
G1 X56.025 Y164.521 E44.30257
G0 F7200 X55.466 Y164.644
G1 F3033.7 X55.456 Y164.408 E44.31175
G1 F3088.2 X55.456 Y144.408 E45.07507
G1 F3287 X55.879 Y143.475 E45.11181
G1 F3225.3 X56.576 Y143.062 E45.14141
G1 F3053.3 X55.41 Y143 E45.18649
G1 F3108.6 X55.456 Y144.408 E45.2399
G1 F2700 E44.7399
G0 F7200 X55.466 Y164.644
G1 F2700 E45.2399
G1 F3053.3 X55.404 Y165.81 E45.28498
G1 F3108.6 X56.812 Y165.764 E45.33839
G1 F3287 X55.879 Y165.341 E45.37512
G1 F3225.3 X55.466 Y164.644 E45.40473
G0 F7200 X54.983 Y166.24
G0 X54.888 Y166.332
M104 S200
G1 F3600 X78.737 Y166.333 E46.18556
G1 X78.737 Y142.483 E46.96642
G1 X54.888 Y142.484 E47.74725
G1 X54.888 Y166.332 E48.52804
G0 F7200 X54.363 Y166.857
;TYPE:WALL-OUTER
G1 F3600 X79.262 Y166.858 E49.34324
G1 X79.262 Y141.958 E50.15848
G1 X54.363 Y141.959 E50.97369
G1 X54.363 Y166.857 E51.78886
G0 F7200 X54.563 Y166.857
G0 X54.983 Y166.24
G0 X55.904 Y164.454
G0 X56.554 Y164.454
G1 F3600 X56.55 Y144.408 E52.44517
G1 X56.626 Y144.222 E52.45175
G1 X56.766 Y144.15 E52.4569
G1 X76.812 Y144.146 E53.11322
G1 X76.998 Y144.222 E53.1198
G1 X77.074 Y144.408 E53.12638
G1 X77.071 Y164.454 E53.78269
G1 X76.998 Y164.594 E53.78786
G1 X76.858 Y164.666 E53.79302
G1 X56.812 Y164.67 E54.44933
G1 X56.626 Y164.594 E54.45591
G1 X56.554 Y164.454 E54.46106
G0 F7200 X56.554 Y164.254
G0 X55.479 Y164.254
G1 F2700 E53.96106
;MESH:NONMESH
G0 F600 X55.479 Y164.254 Z0.3
G0 F7200 X55.729 Y143.214
;TIME_ELAPSED:39.147810
;LAYER:1
M106 S255
M204 S800
;TYPE:WALL-INNER
;MESH:metal_frame_joystick.obj
G1 F2700 E54.46106
G1 F2612.2 X55.648 Y143.214 E54.46438
G1 X55.607 Y143.285 E54.46773
G1 X55.649 Y143.356 E54.47111
G1 X55.73 Y143.356 E54.47442
G1 X55.771 Y143.285 E54.47777
M204 S1200
G1 F2700 E53.97777
G0 F8160 X55.714 Y164.581
M204 S800
G1 F2700 E54.47777
G1 F3308.1 X55.714 Y144.408 E55.12944
G1 F3661.5 X56.069 Y143.665 E55.15347
G1 F3646 X56.639 Y143.31 E55.17316
G1 F3308.1 X76.812 Y143.31 E55.82482
G1 F3661.5 X77.555 Y143.665 E55.84886
G1 X77.91 Y144.408 E55.87289
G1 F3308.1 X77.91 Y164.581 E56.52456
G1 F3646 X77.555 Y165.151 E56.54424
G1 X76.985 Y165.506 E56.56392
G1 F3308.1 X56.812 Y165.506 E57.21559
G1 F3661.5 X56.069 Y165.151 E57.23962
G1 F3646 X55.714 Y164.581 E57.2593
M204 S1200
G0 F8160 X56.182 Y164.5
M204 S800
G1 F4080 X56.182 Y144.408 E57.78556
G1 X56.366 Y143.962 E57.7982
G1 X56.72 Y143.778 E57.80865
G1 X76.812 Y143.778 E58.3349
G1 X77.258 Y143.962 E58.34754
G1 X77.442 Y144.408 E58.36018
G1 X77.442 Y164.5 E58.88643
G1 X77.258 Y164.854 E58.89688
G1 X76.904 Y165.038 E58.90733
G1 X56.812 Y165.038 E59.43359
G1 X56.366 Y164.854 E59.44623
G1 X56.182 Y164.5 E59.45668
M204 S1200
G0 F8160 X55.904 Y164.5
G0 X55.729 Y165.46
M204 S800
G1 F2612.2 X55.648 Y165.46 E59.45999
G1 X55.607 Y165.531 E59.46334
G1 X55.649 Y165.602 E59.46672
G1 X55.73 Y165.602 E59.47003
G1 X55.771 Y165.531 E59.47339
M204 S1200
G1 F2700 E58.97339
G0 F8160 X77.975 Y165.46
M204 S800
G1 F2700 E59.47339
G1 F2604.3 X77.894 Y165.46 E59.47671
G1 X77.853 Y165.531 E59.48007
G1 X77.895 Y165.602 E59.48346
G1 X77.976 Y165.602 E59.48678
G1 X78.017 Y165.531 E59.49015
M204 S1200
G1 F2700 E58.99015
G0 F8160 X78.017 Y143.285
M204 S800
G1 F2700 E59.49015
G1 F2604.3 X77.976 Y143.356 E59.49351
G1 X77.895 Y143.356 E59.49684
G1 X77.853 Y143.285 E59.50022
G1 X77.894 Y143.214 E59.50359
G1 X77.975 Y143.214 E59.50691
M204 S1200
G1 F2700 E59.00691
G0 F8160 X55.976 Y143.571
G0 X55.151 Y166.069
M204 S800
G1 F2700 E59.50691
G1 F4080 X55.689 Y166.069 E59.521
G1 F3661.5 X56.812 Y166.022 E59.5538
G1 F3308.1 X66.93 Y166.02 E59.88066
G1 F3270.2 X77.048 Y166.017 E60.21129
G1 F3622.8 X77.935 Y166.07 E60.2375
G1 F4080 X78.474 Y166.07 E60.25162
G1 X78.474 Y165.531 E60.26574
G1 F3622.8 X78.421 Y164.644 E60.29195
G1 F3276.5 X78.423 Y154.526 E60.62196
G1 F3308.1 X78.426 Y144.408 E60.94881
G1 F3661.5 X78.474 Y143.285 E60.98161
G1 F4080 X78.474 Y142.746 E60.99573
G1 X77.935 Y142.746 E61.00985
G1 F3661.5 X76.812 Y142.794 E61.04265
G1 F3308.1 X66.694 Y142.796 E61.3695
G1 F3270.2 X56.576 Y142.799 E61.70014
G1 F3622.8 X55.689 Y142.747 E61.72635
G1 F4080 X55.151 Y142.747 E61.74044
G1 X55.151 Y143.285 E61.75453
G1 F3661.5 X55.198 Y144.408 E61.78734
G1 F3308.1 X55.2 Y154.526 E62.11419
G1 F3270.2 X55.203 Y164.644 E62.44483
G1 F3622.8 X55.151 Y165.531 E62.47103
G1 F4080 X55.151 Y166.069 E62.48513
M204 S1200
G0 F8160 X54.731 Y166.489
M204 S800
G1 F4080 X78.894 Y166.49 E63.11801
G1 X78.894 Y142.326 E63.75092
G1 X54.731 Y142.327 E64.38381
G1 X54.731 Y166.489 E65.01667
M204 S1200
G0 F8160 X54.311 Y166.909
M204 S800
;TYPE:WALL-OUTER
G1 F4080 X79.314 Y166.91 E65.67156
G1 X79.314 Y141.906 E66.32647
G1 X54.311 Y141.907 E66.98136
G1 X54.311 Y166.909 E67.63622
M204 S1200
G0 F8160 X54.511 Y166.909
G0 X54.983 Y166.24
G0 X55.904 Y164.445
G0 X56.605 Y164.445
M204 S800
G1 F4080 X56.602 Y144.408 E68.16104
G1 X56.663 Y144.259 E68.16525
G1 X56.775 Y144.201 E68.16856
G1 X76.812 Y144.198 E68.69337
G1 X76.961 Y144.259 E68.69759
G1 X77.022 Y144.408 E68.70181
G1 X77.019 Y164.445 E69.22662
G1 X76.961 Y164.557 E69.22993
G1 X76.849 Y164.615 E69.23323
G1 X56.812 Y164.618 E69.75805
G1 X56.663 Y164.557 E69.76226
G1 X56.605 Y164.445 E69.76557
M204 S1200
G0 F8160 X56.605 Y164.245
G0 X55.584 Y164.245
G1 F2700 E69.26557
G1 F600 Z0.5
G0 F8160 X55.584 Y164.245 Z0.5
G0 X37.842 Y198.23
M204 S800
;TYPE:WALL-INNER
G1 F600 Z0.3
G1 F2700 E69.76557
G1 F4080 X40.962 Y198.23 E69.84729
G1 X40.962 Y131.766 E71.58814
G1 X37.842 Y131.766 E71.66986
G1 X37.842 Y198.23 E73.41071
M204 S1200
G0 F8160 X37.422 Y198.65
M204 S800
G1 F4080 X41.382 Y198.65 E73.51443
G1 X41.382 Y131.346 E75.27728
G1 X37.422 Y131.346 E75.381
G1 X37.422 Y198.65 E77.14385
M204 S1200
G0 F8160 X37.002 Y199.07
M204 S800
G1 F4080 X41.802 Y199.07 E77.26957
G1 X41.802 Y130.926 E79.05442
G1 X37.002 Y130.926 E79.18015
G1 X37.002 Y199.07 E80.965
M204 S1200
G0 F8160 X36.582 Y199.49
M204 S800
;TYPE:WALL-OUTER
G1 F4080 X42.222 Y199.49 E81.11272
G1 X42.222 Y130.506 E82.91958
G1 X36.582 Y130.506 E83.0673
G1 X36.582 Y199.49 E84.87416
M204 S1200
G0 F8160 X36.782 Y199.49
G0 X37.254 Y198.823
G0 X37.931 Y197.83
G0 X38.238 Y197.83
;TYPE:SKIN
G1 F4080 X38.238 Y132.162 E86.59416
G1 X40.562 Y132.162 E86.65503
G1 X40.562 Y197.83 E88.37503
G1 X38.238 Y197.83 E88.4359
G0 F8160 X37.931 Y197.83
G0 X39.968 Y198.141
G0 X39.968 Y197.62
G1 F4080 X40.352 Y197.236 E88.45012
G0 F8160 X40.352 Y196.642
G1 F4080 X39.374 Y197.62 E88.48635
G0 F8160 X38.78 Y197.62
G1 F4080 X40.352 Y196.048 E88.54458
G0 F8160 X40.352 Y195.454
G1 F4080 X38.448 Y197.358 E88.61511
G0 F8160 X38.448 Y196.764
G1 F4080 X40.352 Y194.86 E88.68563
G0 F8160 X40.352 Y194.266
G1 F4080 X38.448 Y196.17 E88.75616
G0 F8160 X38.448 Y195.576
G1 F4080 X40.352 Y193.672 E88.82669
G0 F8160 X40.352 Y193.078
G1 F4080 X38.448 Y194.982 E88.89721
G0 F8160 X38.448 Y194.388
G1 F4080 X40.352 Y192.484 E88.96774
