;FLAVOR:Marlin
;TIME:92
;Filament used: 0.0648179m
;Layer height: 0.15
;MINX:154.913
;MINY:141.013
;MINZ:0.15
;MAXX:175.087
;MAXY:161.187
;MAXZ:1.8
;TARGET_MACHINE.NAME:ELEGOO NEPTUNE 4 Plus
;Generated with Cura_SteamEngine 5.7.2
M104 S210
M105
M109 S210
M82 ;absolute extrusion mode
;ELEGOO NEPTUNE 4 PLUS
M220 S100 ;Set the feed speed to 100%
M221 S100 ;Set the flow rate to 100%
M104 S140 ;Start heating extruder
M190 S60 ;Wait for the bed to reach print temp
G90
G28 ;home
G1 Z10 F300
G1 X115 Y0 F6000
G1 Z0 F300
M109 S210 ;Wait for extruder to reach print temp
G92 E0 ;Reset Extruder
G1 X115 Y0 Z0.4 F300 ;Move to start position
G1 X215 E30 F400 ;Draw the first line
G1 Z0.6 F120.0 ;Move to side a little
G1 X210 F3000
G92 E0 ;Reset Extruder
G92 E0
G92 E0
G1 F2700 E-0.5
;LAYER_COUNT:12
;LAYER:0
M107
M204 S500
G0 F7200 X156.63 Y142.252 Z0.15
;TYPE:SKIRT
G1 F2700 E0
G1 F3600 X158.025 Y141.389 E0.05371
G1 X158.188 Y141.322 E0.05948
G1 X159.587 Y141.013 E0.10638
G1 X170.318 Y141.013 E0.45772
G1 X171.733 Y141.296 E0.50497
G1 X172.903 Y141.942 E0.54872
G1 X173.848 Y142.73 E0.58901
G1 X174.711 Y144.125 E0.64272
G1 X174.778 Y144.288 E0.64849
G1 X175.087 Y145.687 E0.69539
G1 X175.087 Y156.418 E1.04673
G1 X174.804 Y157.833 E1.09398
G1 X174.158 Y159.003 E1.13773
G1 X173.37 Y159.948 E1.17802
G1 X171.975 Y160.811 E1.23172
G1 X171.812 Y160.878 E1.23749
G1 X170.413 Y161.187 E1.2844
G1 X159.682 Y161.187 E1.63574
G1 X158.267 Y160.904 E1.68299
G1 X157.097 Y160.258 E1.72674
G1 X156.152 Y159.47 E1.76703
G1 X155.289 Y158.075 E1.82073
G1 X155.222 Y157.912 E1.8265
G1 X154.913 Y156.513 E1.87341
G1 X154.913 Y145.782 E2.22475
G1 X155.196 Y144.367 E2.27199
G1 X155.842 Y143.197 E2.31575
G1 X156.63 Y142.252 E2.35604
G0 F7200 X156.979 Y142.653
G1 F3600 X158.301 Y141.835 E2.40694
G1 X159.646 Y141.538 E2.45203
G1 X170.265 Y141.538 E2.7997
G1 X171.552 Y141.795 E2.84267
G1 X172.605 Y142.377 E2.88206
G1 X173.447 Y143.079 E2.91796
G1 X174.265 Y144.401 E2.96885
G1 X174.562 Y145.746 E3.01395
G1 X174.562 Y156.365 E3.36162
G1 X174.305 Y157.652 E3.40459
G1 X173.723 Y158.705 E3.44398
G1 X173.021 Y159.547 E3.47987
G1 X171.699 Y160.365 E3.53077
G1 X170.354 Y160.662 E3.57587
G1 X159.735 Y160.662 E3.92354
G1 X158.448 Y160.405 E3.96651
G1 X157.395 Y159.823 E4.0059
G1 X156.553 Y159.121 E4.04179
G1 X155.735 Y157.799 E4.09269
G1 X155.438 Y156.454 E4.13779
G1 X155.438 Y145.835 E4.48546
G1 X155.695 Y144.548 E4.52843
G1 X156.277 Y143.495 E4.56782
G1 X156.979 Y142.653 E4.60371
G0 F7200 X157.326 Y143.056
G1 F3600 X158.502 Y142.329 E4.64897
G1 X159.705 Y142.063 E4.68931
G1 X170.212 Y142.063 E5.03332
G1 X171.368 Y142.294 E5.07191
G1 X172.311 Y142.815 E5.10719
G1 X173.044 Y143.426 E5.13843
G1 X173.771 Y144.602 E5.18369
G1 X174.037 Y145.805 E5.22403
G1 X174.037 Y156.312 E5.56804
G1 X173.806 Y157.468 E5.60663
G1 X173.285 Y158.411 E5.64191
G1 X172.674 Y159.144 E5.67315
G1 X171.498 Y159.871 E5.71842
G1 X170.295 Y160.137 E5.75875
G1 X159.788 Y160.137 E6.10276
G1 X158.632 Y159.906 E6.14135
G1 X157.689 Y159.385 E6.17663
G1 X156.956 Y158.774 E6.20787
G1 X156.229 Y157.598 E6.25314
G1 X155.963 Y156.395 E6.29347
G1 X155.963 Y145.888 E6.63748
G1 X156.194 Y144.732 E6.67607
G1 X156.715 Y143.789 E6.71135
G1 X157.326 Y143.056 E6.74259
G0 F7200 X157.675 Y143.457
G1 F3600 X158.7 Y142.823 E6.78205
G1 X159.764 Y142.588 E6.81772
G1 X170.159 Y142.588 E7.15806
G1 X171.184 Y142.793 E7.19228
G1 X172.017 Y143.253 E7.22344
G1 X172.643 Y143.775 E7.25013
G1 X173.277 Y144.8 E7.28959
G1 X173.512 Y145.864 E7.32526
G1 X173.512 Y156.259 E7.6656
G1 X173.307 Y157.284 E7.69982
G1 X172.847 Y158.117 E7.73098
G1 X172.325 Y158.743 E7.75766
G1 X171.3 Y159.377 E7.79712
G1 X170.236 Y159.612 E7.8328
G1 X159.841 Y159.612 E8.17313
G1 X158.816 Y159.407 E8.20736
G1 X157.983 Y158.947 E8.23851
G1 X157.357 Y158.425 E8.2652
G1 X156.723 Y157.4 E8.30466
G1 X156.488 Y156.336 E8.34033
G1 X156.488 Y145.941 E8.68067
G1 X156.693 Y144.916 E8.7149
G1 X157.153 Y144.083 E8.74605
G1 X157.675 Y143.457 E8.77274
G0 F7200 X158.024 Y143.858
G1 F3600 X158.898 Y143.317 E8.80639
G1 X159.823 Y143.113 E8.8374
G1 X170.106 Y143.113 E9.17407
G1 X171 Y143.292 E9.20392
G1 X171.723 Y143.691 E9.23096
G1 X172.242 Y144.124 E9.25309
G1 X172.783 Y144.998 E9.28674
G1 X172.987 Y145.923 E9.31776
G1 X172.987 Y156.206 E9.65443
G1 X172.808 Y157.1 E9.68428
G1 X172.409 Y157.823 E9.71131
G1 X171.976 Y158.342 E9.73344
G1 X171.102 Y158.883 E9.7671
G1 X170.177 Y159.087 E9.79811
G1 X159.894 Y159.087 E10.13478
G1 X159 Y158.908 E10.16463
G1 X158.277 Y158.509 E10.19167
G1 X157.758 Y158.076 E10.2138
G1 X157.217 Y157.202 E10.24745
G1 X157.013 Y156.277 E10.27846
G1 X157.013 Y145.994 E10.61513
G1 X157.192 Y145.1 E10.64498
G1 X157.591 Y144.377 E10.67202
G1 X158.024 Y143.858 E10.69415
G0 F7200 X158.373 Y144.26
G1 F3600 X159.099 Y143.811 E10.7221
G1 X159.882 Y143.638 E10.74835
G1 X170.053 Y143.638 E11.08135
G1 X170.818 Y143.791 E11.1069
G1 X171.424 Y144.125 E11.12955
G1 X171.84 Y144.473 E11.14731
G1 X172.289 Y145.199 E11.17526
G1 X172.462 Y145.982 E11.20151
G1 X172.462 Y156.153 E11.53451
G1 X172.309 Y156.918 E11.56006
G1 X171.975 Y157.524 E11.58271
G1 X171.627 Y157.94 E11.60047
G1 X170.901 Y158.389 E11.62842
G1 X170.118 Y158.562 E11.65467
G1 X159.947 Y158.562 E11.98767
G1 X159.182 Y158.409 E12.01322
G1 X158.576 Y158.075 E12.03587
G1 X158.16 Y157.727 E12.05363
G1 X157.711 Y157.001 E12.08158
G1 X157.538 Y156.218 E12.10783
G1 X157.538 Y146.047 E12.44083
G1 X157.691 Y145.282 E12.46638
G1 X158.025 Y144.676 E12.48903
G1 X158.373 Y144.26 E12.50679
G0 F7200 X158.722 Y144.661
G1 F3600 X159.297 Y144.305 E12.52893
G1 X159.941 Y144.163 E12.55052
G1 X170 Y144.163 E12.87986
G1 X170.635 Y144.29 E12.90106
G1 X171.17 Y144.585 E12.92106
G1 X171.439 Y144.822 E12.9328
G1 X171.795 Y145.397 E12.95494
G1 X171.937 Y146.041 E12.97653
G1 X171.937 Y156.1 E13.30587
G1 X171.81 Y156.735 E13.32707
G1 X171.515 Y157.27 E13.34707
G1 X171.278 Y157.539 E13.35881
G1 X170.703 Y157.895 E13.38095
G1 X170.059 Y158.037 E13.40254
G1 X160 Y158.037 E13.73188
G1 X159.365 Y157.91 E13.75308
G1 X158.83 Y157.615 E13.77308
G1 X158.561 Y157.378 E13.78482
G1 X158.205 Y156.803 E13.80696
G1 X158.063 Y156.159 E13.82856
G1 X158.063 Y146.1 E14.15789
G1 X158.19 Y145.465 E14.17909
G1 X158.485 Y144.93 E14.1991
G1 X158.722 Y144.661 E14.21083
G0 F7200 X159.097 Y145.029
G1 F3600 X158.945 Y145.184 E14.21794
G1 X158.65 Y145.719 E14.23794
G1 X158.588 Y146.1 E14.25058
G1 X158.588 Y156.1 E14.57799
G1 X158.699 Y156.604 E14.59488
G1 X158.929 Y157.003 E14.60996
G1 X159.084 Y157.155 E14.61707
G1 X159.619 Y157.45 E14.63707
G1 X160 Y157.512 E14.64971
G1 X170 Y157.512 E14.97712
G1 X170.504 Y157.401 E14.99401
G1 X170.903 Y157.171 E15.00909
G1 X171.055 Y157.016 E15.0162
G1 X171.35 Y156.481 E15.0362
G1 X171.412 Y156.1 E15.04884
G1 X171.412 Y146.1 E15.37624
G1 X171.301 Y145.596 E15.39314
G1 X171.071 Y145.197 E15.40822
G1 X170.916 Y145.045 E15.41533
G1 X170.381 Y144.75 E15.43533
G1 X170 Y144.688 E15.44797
G1 X160 Y144.688 E15.77537
G1 X159.496 Y144.799 E15.79227
G1 X159.097 Y145.029 E15.80735
G1 F2700 E15.30735
G0 F7200 X159.787 Y145.807
M104 S200
G1 F2700 E15.80735
G1 F3600 X160 Y145.738 E15.81468
G1 X170 Y145.738 E16.14208
G1 X170.164 Y145.777 E16.1476
G1 X170.293 Y145.887 E16.15315
G1 X170.362 Y146.1 E16.16048
G1 X170.362 Y156.1 E16.48789
G1 X170.323 Y156.264 E16.4934
G1 X170.213 Y156.393 E16.49896
G1 X170 Y156.462 E16.50629
G1 X160 Y156.462 E16.83369
G1 X159.836 Y156.423 E16.83921
G1 X159.707 Y156.313 E16.84476
G1 X159.638 Y156.1 E16.85209
G1 X159.638 Y146.1 E17.17949
G1 X159.677 Y145.936 E17.18501
G1 X159.787 Y145.807 E17.19056
G0 F7200 X159.625 Y145.308
G1 F3600 X160 Y145.213 E17.20323
G1 X170 Y145.213 E17.53063
G1 X170.285 Y145.266 E17.54013
G1 X170.634 Y145.488 E17.55367
G1 X170.792 Y145.725 E17.56299
G1 X170.887 Y146.1 E17.57566
G1 X170.887 Y156.1 E17.90306
G1 X170.834 Y156.385 E17.91255
G1 X170.612 Y156.734 E17.9261
G1 X170.375 Y156.892 E17.93542
G1 X170 Y156.987 E17.94809
G1 X160 Y156.987 E18.27549
G1 X159.715 Y156.934 E18.28498
G1 X159.366 Y156.712 E18.29853
G1 X159.208 Y156.475 E18.30785
G1 X159.113 Y156.1 E18.32052
G1 X159.113 Y146.1 E18.64792
G1 X159.166 Y145.815 E18.65741
G1 X159.388 Y145.466 E18.67095
G1 X159.625 Y145.308 E18.68028
G1 F2700 E18.18028
;MESH:potentio_size_test.obj(1)
G0 F7200 X160.424 Y146.524
G0 X161.272 Y148.137
;TYPE:WALL-INNER
G1 F2700 E18.68028
G1 F4237.7 X162.037 Y147.372 E18.71037
G1 X161.272 Y147.372 E18.73165
G1 X161.272 Y148.137 E18.75293
G0 F7200 X160.827 Y149.853
G0 X160.836 Y149.866
G1 F3436.4 X161.467 Y148.681 E18.79897
G1 F3600 X161.611 Y148.483 E18.80699
G1 X162.383 Y147.711 E18.84274
G1 X162.581 Y147.567 E18.85075
G1 F3436.4 X163.766 Y146.936 E18.8968
G1 F3333.3 X163.514 Y146.905 E18.90578
G1 F3487.1 X162.417 Y146.887 E18.94286
G1 F3600 X160.787 Y146.887 E18.99623
G1 X160.787 Y148.517 E19.0496
G1 F3487.1 X160.805 Y149.614 E19.08668
G1 F3333.3 X160.836 Y149.866 E19.09566
G0 F7200 X160.839 Y149.888
G1 F3241.9 X160.795 Y150.494 E19.11775
G1 F3825.9 X160.75 Y151.1 E19.13647
G1 X160.794 Y151.704 E19.15513
G1 F3241.9 X160.839 Y152.309 E19.17718
G0 F7200 X160.823 Y152.322
G0 X161.273 Y154.062
G1 F4218.8 X161.273 Y154.827 E19.19856
G1 X162.04 Y154.828 E19.21998
G1 X161.273 Y154.062 E19.25027
G0 F7200 X160.826 Y152.342
G0 X160.836 Y152.33
G1 F3327.5 X160.805 Y152.582 E19.25926
G1 F3487.1 X160.787 Y153.679 E19.29635
G1 F3600 X160.787 Y155.313 E19.34985
G1 X162.416 Y155.313 E19.40318
G1 F3480.7 X163.513 Y155.294 E19.44033
G1 F3321.6 X163.767 Y155.261 E19.44942
G1 F3430.1 X162.581 Y154.629 E19.4956
G1 F3600 X162.383 Y154.485 E19.50362
G1 X161.611 Y153.713 E19.53936
G1 X161.467 Y153.515 E19.54738
G1 F3436.4 X160.836 Y152.33 E19.59342
G0 F7200 X160.826 Y152.342
G0 X161.473 Y153.662
G0 X162.438 Y154.627
G0 X163.771 Y155.275
G0 X163.784 Y155.259
G1 F3225.3 X164.392 Y155.304 E19.6157
G1 F3818.2 X165 Y155.35 E19.63453
G1 X165.606 Y155.305 E19.65329
G1 F3225.3 X166.212 Y155.259 E19.67549
G0 F7200 X166.222 Y155.24
G0 X167.956 Y154.828
G1 F4218.8 X168.727 Y154.827 E19.69704
G1 X168.728 Y154.056 E19.71858
G1 X167.956 Y154.828 E19.74908
G0 F7200 X166.222 Y155.24
G0 X166.212 Y155.259
G1 F3171.1 X166.483 Y155.295 E19.75924
G1 F3480.7 X167.58 Y155.313 E19.79639
G1 F3600 X169.213 Y155.313 E19.84986
G1 X169.213 Y153.68 E19.90332
G1 F3467.9 X169.193 Y152.583 E19.94061
G1 F3150 X169.158 Y152.325 E19.95036
G1 F3264.2 X168.529 Y153.515 E19.99896
G1 F3600 X168.385 Y153.713 E20.00697
G1 X167.613 Y154.485 E20.04272
G1 X167.415 Y154.629 E20.05073
G1 F3269.9 X166.212 Y155.259 E20.09968
G0 F7200 X166.222 Y155.24
G0 X167.562 Y154.627
G0 X168.527 Y153.662
G0 X169.085 Y152.568
G0 X169.158 Y152.325
G1 F3214.3 X169.204 Y151.713 E20.12219
G1 F3810.5 X169.25 Y151.1 E20.1412
G1 F3818.2 X169.205 Y150.492 E20.16002
G1 F3225.3 X169.159 Y149.884 E20.18231
G0 F7200 X169.14 Y149.874
G0 X167.962 Y147.373
G1 F4228.2 X168.728 Y148.14 E20.21252
G1 X168.727 Y147.373 E20.2339
G1 X167.962 Y147.373 E20.25523
G0 F7200 X166.243 Y146.927
G0 X166.23 Y146.936
G1 F3436.4 X167.415 Y147.567 E20.30128
G1 F3600 X167.613 Y147.711 E20.30929
G1 X168.385 Y148.483 E20.34504
G1 X168.529 Y148.681 E20.35305
G1 F3430.1 X169.161 Y149.869 E20.39929
G1 F3321.6 X169.195 Y149.613 E20.40846
G1 F3480.7 X169.213 Y148.516 E20.44561
G1 F3600 X169.213 Y146.887 E20.49894
G1 X167.579 Y146.887 E20.55244
G1 F3487.1 X166.482 Y146.905 E20.58953
G1 F3327.5 X166.23 Y146.936 E20.59852
G0 F7200 X166.209 Y146.939
G1 F3241.9 X165.605 Y146.895 E20.62054
G1 F3825.9 X165 Y146.85 E20.63923
G1 X164.394 Y146.894 E20.65795
G1 F3241.9 X163.788 Y146.939 E20.68004
G0 F7200 X163.776 Y146.923
G0 X162.438 Y147.573
G0 X161.473 Y148.538
G0 X160.853 Y149.753
G0 X161.238 Y151.1
;TYPE:WALL-OUTER
G1 F3600 X161.416 Y149.932 E20.71872
G1 X161.953 Y148.883 E20.7573
G1 X162.783 Y148.053 E20.79574
G1 X163.832 Y147.516 E20.83432
G1 X165 Y147.338 E20.873
G1 X166.164 Y147.516 E20.91155
G1 X167.213 Y148.053 E20.95014
G1 X168.043 Y148.883 E20.98857
G1 X168.581 Y149.935 E21.02725
G1 X168.762 Y151.1 E21.06585
G1 X168.582 Y152.259 E21.10425
G1 X168.043 Y153.313 E21.14301
G1 X167.213 Y154.143 E21.18144
G1 X166.161 Y154.681 E21.22013
G1 X165 Y154.862 E21.2586
G1 X163.832 Y154.68 E21.2973
G1 X162.783 Y154.143 E21.33589
G1 X161.953 Y153.313 E21.37432
G1 X161.416 Y152.264 E21.4129
G1 X161.238 Y151.1 E21.45145
G0 F7200 X161.268 Y150.903
G0 X160.817 Y150.178
G0 X160.88 Y155.22
G0 X160.262 Y155.838
G1 F3600 X169.738 Y155.838 E21.7617
G1 X169.738 Y146.362 E22.07195
G1 X160.262 Y146.362 E22.3822
G1 X160.262 Y155.838 E22.69245
G0 F7200 X160.462 Y155.838
G0 X161.181 Y154.765
;MESH:NONMESH
G0 F600 X161.181 Y154.765 Z0.3
G0 F7200 X161.045 Y151.1
G0 X161.525 Y147.545
;TIME_ELAPSED:23.667816
;LAYER:1
M106 S255
M204 S800
;TYPE:WALL-INNER
;MESH:potentio_size_test.obj(1)
G1 F1719.2 X161.467 Y147.545 E22.69415
G1 X161.437 Y147.596 E22.6959
G1 X161.467 Y147.647 E22.69764
G1 X161.525 Y147.647 E22.69934
G1 X161.555 Y147.596 E22.70109
M204 S1200
G0 F8160 X161.051 Y148.918
M204 S800
G1 F1932 X161.233 Y148.561 E22.71158
G1 X161.425 Y148.297 E22.72013
G1 X162.197 Y147.525 E22.74873
G1 X162.461 Y147.333 E22.75728
G1 X162.818 Y147.151 E22.76777
G1 X161.05 Y147.15 E22.81408
G1 X161.051 Y148.918 E22.86039
M204 S1200
G0 F8160 X160.86 Y152.41
G0 X161.057 Y152.368
M204 S800
G1 F2038.8 X160.908 Y151.1 E22.89208
G1 X161.046 Y149.92 E22.92157
G1 F1936.6 X161.108 Y149.729 E22.92681
G1 X161.652 Y148.664 E22.95806
G1 X162.494 Y147.822 E22.98918
G1 F1932 X162.652 Y147.707 E22.9943
G1 F1936.6 X163.728 Y147.157 E23.02587
G1 F2038.8 X165 Y147.008 E23.05766
G1 X166.177 Y147.146 E23.08707
G1 F1936.6 X166.367 Y147.208 E23.0923
G1 X167.432 Y147.752 E23.12354
G1 X168.344 Y148.664 E23.15725
G1 F1932 X168.889 Y149.729 E23.18858
G1 X168.951 Y149.917 E23.19377
G1 F2163.8 X169.085 Y151.1 E23.22161
G1 X168.943 Y152.362 E23.25131
G1 F1932 X168.344 Y153.532 E23.28574
G1 X167.502 Y154.374 E23.31692
G1 X167.344 Y154.489 E23.32204
G1 X166.267 Y155.04 E23.35373
G1 F2163.8 X165 Y155.185 E23.38355
G1 X163.817 Y155.051 E23.4114
G1 F1932 X163.628 Y154.989 E23.41661
G1 X162.564 Y154.444 E23.44792
G1 X161.722 Y153.602 E23.47911
G1 X161.607 Y153.444 E23.48423
G1 F1936.6 X161.057 Y152.368 E23.5158
M204 S1200
G0 F8160 X160.86 Y152.41
G0 X161.526 Y154.552
M204 S800
G1 F1704.7 X161.468 Y154.552 E23.51752
G1 X161.438 Y154.603 E23.51928
G1 X161.468 Y154.654 E23.52104
G1 X161.526 Y154.654 E23.52276
G1 X161.556 Y154.603 E23.52451
M204 S1200
G0 F8160 X161.051 Y153.278
M204 S800
G1 F1932 X161.05 Y155.05 E23.57093
G1 X162.825 Y155.049 E23.61742
G1 X162.461 Y154.863 E23.62812
G1 X162.197 Y154.671 E23.63667
G1 X161.425 Y153.899 E23.66527
G1 X161.233 Y153.635 E23.67382
G1 X161.051 Y153.278 E23.68432
M204 S1200
G0 F8160 X162.453 Y154.607
G0 X163.661 Y155.223
G0 X164.878 Y155.036
G0 X168.531 Y154.551
M204 S800
G1 F1704.7 X168.473 Y154.551 E23.68604
G1 X168.443 Y154.602 E23.68779
G1 X168.473 Y154.653 E23.68955
G1 X168.531 Y154.653 E23.69127
G1 X168.561 Y154.602 E23.69303
M204 S1200
G0 F8160 X167.169 Y155.05
M204 S800
G1 F1932 X168.95 Y155.05 E23.73968
G1 X168.95 Y153.269 E23.78633
G1 X168.763 Y153.635 E23.79709
G1 X168.571 Y153.899 E23.80564
G1 X167.799 Y154.671 E23.83424
G1 X167.535 Y154.863 E23.84279
G1 X167.169 Y155.05 E23.85355
M204 S1200
G0 F8160 X168.507 Y153.647
G0 X169.123 Y152.439
G0 X168.936 Y151.222
G0 X168.562 Y147.597
M204 S800
G1 F1711.9 X168.532 Y147.648 E23.8553
G1 X168.474 Y147.648 E23.85702
G1 X168.444 Y147.597 E23.85877
G1 X168.474 Y147.546 E23.86051
G1 X168.532 Y147.546 E23.86223
M204 S1200
G0 F8160 X167.178 Y147.151
M204 S800
G1 F1932 X167.535 Y147.333 E23.87273
G1 X167.799 Y147.525 E23.88128
G1 X168.571 Y148.297 E23.90987
G1 X168.763 Y148.561 E23.91842
G1 X168.95 Y148.927 E23.92919
G1 X168.95 Y147.15 E23.97573
G1 X167.178 Y147.151 E24.02214
M204 S1200
G0 F8160 X165 Y147.145
G0 X163.661 Y146.977
G0 X162.453 Y147.593
G0 X161.493 Y148.553
G0 X160.877 Y149.761
G0 X161.081 Y150.868
G0 X160.88 Y155.22
G0 X160.63 Y155.47
M204 S800
G1 F1932 X163.784 Y155.47 E24.10475
G1 F2163.8 X165 Y155.515 E24.13321
G1 X166.225 Y155.47 E24.16188
G1 F1932 X169.37 Y155.47 E24.24425
